Yinzhen01/f1_train/resources/motions/f1/v1.5/raw/07_03_walk_yup_recwalk_base_lowerbody_smooth_p8_120_180_groundfit_minima_safe_hiproll_scaled.csv
timestamp,root_pos_x,root_pos_y,root_pos_z,root_quat_x,root_quat_y,root_quat_z,root_quat_w,lumbar_yaw_joint,lumbar_roll_joint,lumbar_pitch_joint,left_shoulder_pitch_joint,left_shoulder_roll_joint,left_shoulder_yaw_joint,left_elbow_pitch_joint,left_elbow_yaw_joint,left_wrist_pitch_joint,left_wrist_roll_joint,right_shoulder_pitch_joint,right_shoulder_roll_joint,right_shoulder_yaw_joint,right_elbow_pitch_joint,right_elbow_yaw_joint,right_wrist_pitch_joint,right_wrist_roll_joint,left_hip_pitch_joint,left_hip_roll_joint,left_hip_yaw_joint,left_knee_pitch_joint,left_ankle_pitch_joint,left_ankle_roll_joint,right_hip_pitch_joint,right_hip_roll_joint,right_hip_yaw_joint,right_knee_pitch_joint,right_ankle_pitch_joint,right_ankle_roll_joint
0,-0.6742080857,-1.850171341,0.6124312421,0.02788332097,-0.03988896325,0.7554834487,0.6533575972,-0.2954495566,0.01994641048,0.07411151985,0.02431597505,-0.03417974255,0.3077226044,0.7234657338,0.01901733973,0,0,0.1862150096,-0.05944391015,0.3175376613,0.3390982593,0.01430979278,0,0,-0.5241240926,0.1250523765,0.4703557013,0.5743951966,-0.2223904721,0.368611231,-0.4179040164,-0.07379295151,0.1174839885,0.4625884527,-0.08184104517,0.0753485818
0.03333333333,-0.6726996842,-1.841005144,0.6133394825,0.02733673196,-0.04009950773,0.7548848976,0.6540592663,-0.246241442,0.02040640354,0.06566339928,0.01941239558,-0.04287534635,0.2732519915,0.6617721223,0.01788355627,0,0,0.1727369649,-0.04467413215,0.2715517715,0.3069763668,0.01288257955,0,0,-0.4952817452,0.09704889319,0.4939985251,0.6332614781,-0.2056996179,0.3932850427,-0.3914346429,-0.07542937211,0.1024671304,0.4497964862,-0.08427261748,0.06731947197
0.06666666667,-0.6712416711,-1.831996912,0.6140942286,0.02691367151,-0.04065708113,0.7542482635,0.6547764603,-0.2001078145,0.0205328197,0.05808511923,0.01554239877,-0.05073050431,0.2416454049,0.6038531713,0.01687776417,0,0,0.1595879444,-0.03126776906,0.2292763372,0.2775231172,0.01169593435,0,0,-0.4669657501,0.06844423743,0.5168162679,0.6915558641,-0.1915062867,0.4159370762,-0.3652892855,-0.07719230898,0.08801169838,0.4372711316,-0.08673004672,0.05956090715
0.1,-0.6698686189,-1.823262663,0.6147261704,0.02664614915,-0.04146876615,0.7534393288,0.655667219,-0.159559272,0.02004632894,0.05208165936,0.01355436345,-0.05704727113,0.2152020638,0.5527588622,0.01609846494,0,0,0.147049842,-0.02034766762,0.1936915821,0.2529306306,0.01091791729,0,0,-0.4395726646,0.03880704208,0.5379979976,0.7486664757,-0.1819453563,0.4347360538,-0.3397904449,-0.07917483831,0.07457699206,0.4252303076,-0.08924496998,0.05231606494
0.1333333333,-0.6685908246,-1.814850792,0.6153177677,0.02647605644,-0.04206763567,0.7523157192,0.6569249509,-0.1261572357,0.01875934763,0.0480816524,0.01399899345,-0.06135306917,0.1952785808,0.5103056102,0.01559629965,0,0,0.1353100458,-0.01263130358,0.1665617861,0.2345859332,0.0105969514,0,0,-0.4132463564,0.007984892017,0.5567419439,0.8039780523,-0.1785432639,0.4484090518,-0.3151821624,-0.0814181126,0.06241726276,0.4138105618,-0.09187528215,0.04577854524
0.1666666667,-0.667394302,-1.806738115,0.6159188473,0.02633674595,-0.04211148424,0.7509151948,0.6585281838,-0.1003924576,0.01658909283,0.04619336946,0.01707946995,-0.06343378093,0.1821743387,0.4769347404,0.01537135627,0,0,0.1244434491,-0.008369777992,0.1482862624,0.2229381936,0.01067385556,0,0,-0.3878498295,-0.02382092164,0.5722919397,0.8568818894,-0.1820559616,0.4564150038,-0.2915898509,-0.08390422309,0.05155303044,0.4030483441,-0.09470344469,0.04007443991
0.2,-0.6662488408,-1.798844181,0.6170002149,0.02623047636,-0.04175545358,0.7494831582,0.6601843983,-0.08181139135,0.0135494783,0.04623807535,0.02268202914,-0.06331436164,0.1752748019,0.4519116018,0.01538080968,0,0,0.1144145616,-0.007394967708,0.1380821878,0.2175822028,0.01102937886,0,0,-0.3629947442,-0.0560463096,0.5839802453,0.906797362,-0.1924336543,0.4589772147,-0.2689855522,-0.0865630455,0.04179529296,0.3928786222,-0.09782614027,0.03525270017
0.2333333333,-0.6651210766,-1.791057924,0.6179848236,0.02623811391,-0.04149306214,0.748252742,0.6615948317,-0.06929980561,0.009733093904,0.04784168576,0.03046281793,-0.06120929009,0.1733608161,0.4337409754,0.01555146617,0,0,0.1050982987,-0.009238944783,0.1343821861,0.2174993067,0.01153621678,0,0,-0.338120313,-0.08782637793,0.5912729125,0.9532028291,-0.2089002074,0.4569781349,-0.2471781159,-0.08928907028,0.03280874061,0.3831543839,-0.1013389275,0.03128629634
0.2666666667,-0.6639884736,-1.783266802,0.6187259895,0.02645319629,-0.04165503001,0.7471997897,0.6627650874,-0.06140962094,0.00529468976,0.05055074792,0.0399553876,-0.0574706625,0.1749657532,0.4206376868,0.01579497886,0,0,0.09631248507,-0.01327719633,0.1352942836,0.221362327,0.01209175377,0,0,-0.3126050862,-0.1181162472,0.5938108213,0.9956692521,-0.2301162003,0.4517916015,-0.2258407417,-0.09196335329,0.02419546846,0.3736856574,-0.1053197719,0.02808469103
0.3,-0.6628496178,-1.775379508,0.6193067997,0.02688934384,-0.04210524671,0.7460531701,0.6640096225,-0.05663888739,0.0004412196007,0.05393632234,0.05066639753,-0.05255244117,0.1786810607,0.4109185348,0.01602482157,0,0,0.08785163104,-0.01885470653,0.1389954326,0.2278153393,0.01262553622,0,0,-0.2858872042,-0.1458433225,0.5914363192,1.033887036,-0.2543879456,0.4451374943,-0.2045736235,-0.09447606648,0.01558137509,0.3642892875,-0.1098136689,0.02551565812
0.3333333333,-0.6617269888,-1.767338713,0.6198905199,0.0274543617,-0.04241503353,0.7445601648,0.6656405816,-0.053621214,-0.004575332336,0.0576592175,0.06214022323,-0.04699092081,0.1833528338,0.4032440077,0.0161725808,0,0,0.07951341245,-0.0253728012,0.1439851213,0.2356702955,0.01309030144,0,0,-0.2575646194,-0.1700573673,0.5841967607,1.06767649,-0.2798883932,0.4389475718,-0.182986355,-0.0967455875,0.006690011112,0.3548330688,-0.1148184035,0.02343206395
0.3666666667,-0.6606613146,-1.759125518,0.6205771123,0.02804691249,-0.04227913169,0.7427222289,0.6676747236,-0.0512238661,-0.00947191872,0.06148764205,0.07398879408,-0.04138550812,0.1881589323,0.3967027415,0.01619954607,0,0,0.07111494503,-0.0323348295,0.1491860025,0.2440025129,0.01345021963,0,0,-0.2274504376,-0.1900480676,0.5723239544,1.09697681,-0.3048644146,0.4351306959,-0.1607803469,-0.09873059577,-0.002607658123,0.3452568097,-0.1202715234,0.02169717297
0.4,-0.6597006941,-1.750758282,0.6213426183,0.02869484804,-0.04175005836,0.7407693963,0.6698464301,-0.04857812848,-0.0139632653,0.06527656495,0.08589507817,-0.03636001628,0.1925930683,0.3907755187,0.01610024942,0,0,0.06250090716,-0.03936219192,0.1539244542,0.2521615041,0.01367613159,0,0,-0.1955710991,-0.2054102085,0.5561986879,1.121817244,-0.3278121665,0.4351625515,-0.1378149151,-0.1004322866,-0.01227377038,0.3355627522,-0.1260423416,0.02020138678
0.4333333333,-0.6588899131,-1.742286087,0.6220927121,0.02957248631,-0.04113958074,0.7389402373,0.6718633258,-0.04507081253,-0.01780530752,0.06893014004,0.0976042765,-0.03249420821,0.1963988878,0.3852331316,0.01589737753,0,0,0.05354769643,-0.04619466408,0.157845163,0.259732785,0.01375027542,0,0,-0.1621145005,-0.2160515275,0.536314803,1.142282405,-0.3476054402,0.4395908977,-0.1141456642,-0.1018853261,-0.02211458832,0.3257830026,-0.1319362437,0.01886611914
0.4666666667,-0.6582639513,-1.733776105,0.6227469055,0.03084768206,-0.04076621776,0.7373090402,0.6736185235,-0.04032045348,-0.02084308858,0.07237008753,0.1089153447,-0.03023227336,0.1994927185,0.3800191551,0.01563068884,0,0,0.04416762427,-0.05268255828,0.1608107666,0.266486337,0.01367641648,0,0,-0.1273535239,-0.2221534633,0.5132533025,1.158485889,-0.3635639225,0.4476925494,-0.09002670513,-0.1031399917,-0.03181805821,0.3159423289,-0.1377157301,0.01763638274
0.5,-0.6578462659,-1.725297362,0.6232796827,0.03249805064,-0.04076161037,0.7357802145,0.6752109624,-0.03415309704,-0.02304739586,0.07552399314,0.1196789802,-0.0297901165,0.2018976681,0.3751525713,0.01534430115,0,0,0.03431487712,-0.05877101992,0.1628195994,0.2723334721,0.01348740712,0,0,-0.09157691985,-0.2241040126,0.487666184,1.170560805,-0.3754536331,0.4575176656,-0.06587117193,-0.1042429485,-0.041011936,0.3060357218,-0.1431343899,0.01646867426
0.5333333333,-0.6576502925,-1.716907585,0.6237228678,0.03426600494,-0.04098812119,0.7341598812,0.6768715414,-0.02658229981,-0.02452599188,0.0783336655,0.1298014246,-0.03108925116,0.2036961794,0.3706647303,0.01507589216,0,0,0.02399069148,-0.0644756835,0.1639530379,0.2772974713,0.0132424416,0,0,-0.0550498943,-0.2224216803,0.4602600642,1.178666255,-0.3834225122,0.4663996638,-0.04217109869,-0.1052255069,-0.0493343734,0.2960317803,-0.1479739856,0.01532145778
0.5666666667,-0.6576825955,-1.708649253,0.624264094,0.03578431704,-0.04106090912,0.7322050206,0.6789030064,-0.01778779563,-0.02550369633,0.08077326419,0.1392497902,-0.03374048499,0.2049995177,0.366568937,0.01484914849,0,0,0.01324180861,-0.06985327768,0.1643468675,0.2814928594,0.01301140766,0,0,-0.01800831731,-0.2176834462,0.4317684641,1.183001205,-0.3878880076,0.4717805063,-0.01938910945,-0.1061033049,-0.05650548436,0.2858983544,-0.1520755247,0.01415210708
0.6,-0.6579461483,-1.700554173,0.6248715272,0.03678085973,-0.04052396751,0.7297008202,0.6815729524,-0.008082771075,-0.02627718959,0.08286485616,0.1480534264,-0.03708975831,0.2059296749,0.3628535611,0.01466982973,0,0,0.002148439601,-0.07497430083,0.1641727811,0.2851043651,0.01285172098,0,0,0.01932453479,-0.2104628475,0.4029095975,1.183814645,-0.3894045256,0.4720342012,0.002152380534,-0.1068842686,-0.06238585366,0.2756330848,-0.155359854,0.01291978904
0.6333333333,-0.6584414675,-1.692649129,0.6254382438,0.03724227933,-0.0391683095,0.7266281218,0.6849017658,0.002135916917,-0.02715896824,0.08468352222,0.1562955565,-0.04032510457,0.206608344,0.359488797,0.01452661913,0,0,-0.009194472194,-0.07990368325,0.1636180062,0.2883582263,0.01278859397,0,0,0.05671427776,-0.2012787382,0.3743366385,1.18140294,-0.3885407446,0.4669673546,0.02235088732,-0.1075786426,-0.06700871337,0.2652783216,-0.1578371967,0.01159212238
0.6666666667,-0.6591639532,-1.6849553,0.6259542843,0.03742914119,-0.03727460618,0.7232857813,0.6885254836,0.01245096226,-0.02842563968,0.08634947699,0.1640916347,-0.04262861761,0.2071486024,0.3564382225,0.01439784038,0,0,-0.02069307069,-0.0846910634,0.1628602276,0.2914851077,0.01280852218,0,0,0.09389663647,-0.1905526633,0.3465917613,1.176090459,-0.3857888839,0.4578265653,0.04134447218,-0.1082066714,-0.07057768311,0.2549104859,-0.1596061272,0.01015468059
0.7,-0.6600987708,-1.677481138,0.6264160096,0.0377034659,-0.03550865928,0.7201440967,0.6918887655,0.02249005396,-0.03027984802,0.08800790907,0.1715574071,-0.04334302845,0.207648137,0.3536680529,0.01426214082,0,0,-0.03225989034,-0.08936846951,0.1620440305,0.2946817665,0.01286884802,0,0,0.1305697161,-0.1785757552,0.320072524,1.168196382,-0.381514811,0.4468506461,0.05946538287,-0.10880244,-0.07343118434,0.2446100871,-0.1608413189,0.008622760388
0.7333333333,-0.6612170003,-1.670214517,0.6268299929,0.03828406862,-0.0344761465,0.7174679538,0.6946837127,0.0319798958,-0.03282803526,0.08980006174,0.1787769522,-0.04211500863,0.2081855995,0.3511512115,0.01410783098,0,0,-0.04380893007,-0.09395157119,0.1612673879,0.2980812379,0.01291820698,0,0,0.1663984508,-0.165493745,0.2950139757,1.157996432,-0.3759459398,0.4365709349,0.07714435484,-0.1094140083,-0.07598463156,0.2344292857,-0.1617687839,0.007052157348
0.7666666667,-0.662475867,-1.663119889,0.6272047654,0.03913661719,-0.03428966249,0.7150910985,0.6970920062,0.04077805214,-0.03607232312,0.09183296607,0.1857823816,-0.03898138603,0.2088210243,0.3488684006,0.01393615191,0,0,-0.05524781439,-0.09844128498,0.1605817937,0.3017375962,0.01291772351,0,0,0.2010283146,-0.1513236648,0.2714854578,1.145689828,-0.3691870422,0.4291211416,0.09480001167,-0.1101004928,-0.07866655891,0.2243745074,-0.162630207,0.0055426969
0.8,-0.6638228984,-1.65614208,0.627542893,0.04006914728,-0.03451806219,0.712633689,0.6995399861,0.04887807069,-0.03991462916,0.09415760042,0.1925507193,-0.03437863926,0.2095981351,0.346809285,0.01375834997,0,0,-0.06647597205,-0.102824457,0.1600025932,0.3056268464,0.01285359408,0,0,0.2341036451,-0.1360097214,0.2493983114,1.131378578,-0.3612524287,0.4257490161,0.1127479757,-0.1109269301,-0.08186219764,0.2144133778,-0.163643388,0.004228634563
0.8333333333,-0.665201667,-1.649214992,0.627843942,0.04089240551,-0.03455255161,0.7099475377,0.7022167942,0.05638927709,-0.04417242092,0.09676241771,0.1990153529,-0.02907395744,0.2105447303,0.3449728452,0.01358993705,0,0,-0.07739342349,-0.1070740561,0.1595225119,0.3096630912,0.01273772112,0,0,0.265287583,-0.119508808,0.2285215229,1.115061672,-0.3521045122,0.4265855315,0.1311511541,-0.1119578984,-0.08587103745,0.2045022932,-0.1649689937,0.003254169773
0.8666666667,-0.6665566633,-1.64227261,0.6281039629,0.04150760031,-0.03408072411,0.707286975,0.704883507,0.06349627688,-0.04860562045,0.09958174416,0.20508578,-0.02403220395,0.2116693235,0.3433626322,0.01344474203,0,0,-0.08791737131,-0.1111501528,0.1591226751,0.3137261813,0.01259957425,0,0,0.2942839407,-0.1018792082,0.2085072807,1.096644362,-0.3416912727,0.4306364251,0.1500153512,-0.1132507791,-0.09087888128,0.1946204375,-0.1666918027,0.00273813363
0.9,-0.6678363757,-1.635259892,0.6283161843,0.04194199331,-0.03329437009,0.7050206464,0.7071621046,0.07040631328,-0.05295261783,0.1025117572,0.2106707909,-0.02024483792,0.2129561815,0.3419752074,0.01332952796,0,0,-0.09799840486,-0.1150035999,0.1587786156,0.3176932376,0.01247476525,0,0,0.3208627625,-0.08334123667,0.1889325296,1.075961295,-0.3299770867,0.4359631602,0.1692200068,-0.1148490711,-0.09694219577,0.1847945032,-0.1688191177,0.002737246268
0.9333333333,-0.6689955729,-1.628141462,0.6284724265,0.04235947795,-0.03267691062,0.7032245332,0.7089521493,0.07729678737,-0.0569714598,0.1054254154,0.2157021799,-0.01855246658,0.2143636656,0.3407864841,0.01324097725,0,0,-0.1076282057,-0.1185841994,0.158461693,0.3214654445,0.01239455826,0,0,0.3448884125,-0.06428809009,0.1693598367,1.052808895,-0.3169628277,0.4400518733,0.1885661974,-0.116776131,-0.1039828384,0.1751051957,-0.1712935374,0.003220232728
0.9666666667,-0.6699984841,-1.620906179,0.6285652676,0.04295389679,-0.03255522357,0.7016030386,0.7105267739,0.08427699957,-0.06048047699,0.1081817137,0.22015529,-0.01949111736,0.2158301795,0.339744379,0.01316839784,0,0,-0.1168351237,-0.1218521652,0.1581391798,0.3249840956,0.01237874768,0,0,0.3663428284,-0.04524296417,0.1494114439,1.026978796,-0.302693106,0.4403486324,0.2078245809,-0.1190307589,-0.1117935535,0.1656753806,-0.1740136305,0.004063480064
1,-0.6708232942,-1.613565715,0.628590947,0.04371914713,-0.03281694043,0.6997884622,0.7122554266,0.09137304701,-0.06339039854,0.1106304192,0.2240608167,-0.02318596718,0.2172879721,0.3387732929,0.01310228376,0,0,-0.1256692192,-0.1247871628,0.1577778954,0.3282333485,0.01243271471,0,0,0.3853320145,-0.02677725473,0.128840607,0.9982842253,-0.2872512877,0.434860506,0.2267727349,-0.1215871024,-0.1200574556,0.1566457575,-0.1768550614,0.005072099757
1.033333333,-0.671466162,-1.606146111,0.628551724,0.04435250864,-0.03306274537,0.6976737888,0.7142765531,0.09853490262,-0.06571893977,0.1126179285,0.227503041,-0.02930924008,0.2186801115,0.3377892303,0.0130421847,0,0,-0.1341818223,-0.1273888977,0.1573540838,0.3312308255,0.01254790184,0,0,0.4020657591,-0.009417355794,0.1075805365,0.9665753866,-0.2707454753,0.4226449908,0.2452193841,-0.1244004518,-0.1283854596,0.1481467929,-0.1796875555,0.00602066566
1.066666667,-0.6719419998,-1.598674308,0.6284557587,0.04450883198,-0.03303119071,0.6954622622,0.7164217656,0.105657389,-0.06758230474,0.1140007629,0.2306041708,-0.03711178445,0.219973842,0.3367193113,0.01299579278,0,0,-0.1424062342,-0.1296690776,0.1568663001,0.3340113243,0.01270424698,0,0,0.4168093078,0.006432076408,0.08575534444,0.9317455078,-0.2532896676,0.4040051377,0.2630182349,-0.1274172247,-0.1363718411,0.140275881,-0.1823884969,0.006700514545
1.1,-0.6722807094,-1.591165447,0.628314158,0.04417076106,-0.03283427207,0.693445837,0.7184035952,0.1126063299,-0.06916597511,0.1146688542,0.2334998446,-0.04552800842,0.2211653133,0.3355183061,0.01296891558,0,0,-0.1503460263,-0.1316404884,0.1563427297,0.3366112069,0.01287351047,0,0,0.4298169385,0.02053180521,0.06364732549,0.8937339558,-0.2349839782,0.3803029375,0.2800752267,-0.1305844447,-0.1436603449,0.1330861264,-0.1848572901,0.006959436344
1.133333333,-0.6725203405,-1.58361781,0.6281369499,0.04364842479,-0.03275774219,0.6917520536,0.7200700255,0.1192449902,-0.07068412933,0.1145730253,0.2363131529,-0.05334166069,0.2222742483,0.3341766377,0.01295570506,0,0,-0.1579744957,-0.1333095254,0.1558349981,0.3390595002,0.01302352411,0,0,0.4412652952,0.03281591507,0.04162759979,0.8525341642,-0.2158979689,0.3534620753,0.2963507677,-0.1338549361,-0.1500059851,0.1265885241,-0.1870323678,0.006724710062
1.166666667,-0.672700324,-1.576018301,0.6279299415,0.04314605316,-0.03289162242,0.6902529432,0.7215313116,0.1254585093,-0.07233818336,0.113745429,0.2391330987,-0.05938936907,0.2233308573,0.3327182793,0.01293982915,0,0,-0.1652438312,-0.1346754057,0.1553984312,0.3413775685,0.01312448677,0,0,0.4512057963,0.04336959606,0.02006881473,0.8082097488,-0.1960627868,0.3253656237,0.3118553201,-0.1371888904,-0.1553161257,0.1207649182,-0.1889066193,0.006007649739
1.2,-0.6728569062,-1.568354988,0.627693258,0.04244205212,-0.03303876459,0.6886691235,0.7230781083,0.1311729584,-0.07428143782,0.112302467,0.2420010252,-0.06277206245,0.2243606681,0.3311917634,0.01290842153,0,0,-0.1720990419,-0.1357357926,0.1550687408,0.3435848942,0.01315762791,0,0,0.4595510275,0.05236585207,-0.0007360896526,0.7609138165,-0.1754781119,0.2973648281,0.3266355998,-0.1405553356,-0.1596595727,0.1155865802,-0.1905330112,0.004892803572
1.233333333,-0.6730199668,-1.560629472,0.62742162,0.04115570169,-0.03298001956,0.6867919999,0.7249381183,0.1363635833,-0.07659337351,0.1104263623,0.2449069906,-0.06303922172,0.2253739049,0.3296595709,0.0128690245,0,0,-0.1784919094,-0.1364956457,0.1548490642,0.3457059461,0.01312303947,0,0,0.4661019295,0.05978811276,-0.02062961405,0.7109005098,-0.1541355838,0.2698644829,0.3407516063,-0.143935192,-0.1632408606,0.1110325636,-0.1920149545,0.003516574345
1.266666667,-0.6732088923,-1.552862782,0.6271061754,0.03932398108,-0.03274049434,0.6846838773,0.7270417269,0.1410482494,-0.07926650747,0.1083300116,0.2477962692,-0.0603065896,0.2263626386,0.3281887602,0.01285499553,0,0,-0.1843920671,-0.1369744626,0.1547148672,0.3477734452,0.01304075569,0,0,0.4706124072,0.06563932609,-0.03961187591,0.6585202244,-0.1320532006,0.2426800661,0.354250662,-0.147323881,-0.1663456345,0.107102562,-0.1934837163,0.002040144421
1.3,-0.6734277096,-1.545092195,0.6267372601,0.0375495593,-0.03254433126,0.6826936741,0.7290131991,0.1452683111,-0.08220961066,0.1062156207,0.2505836765,-0.05527073006,0.2273034769,0.3268421144,0.01291171344,0,0,-0.1897933967,-0.1372075868,0.1546318335,0.3498260758,0.01294213905,0,0,0.4728771494,0.07003644086,-0.05783167113,0.6042004362,-0.1093108905,0.2154469404,0.3671491929,-0.1507301793,-0.169271202,0.1038204945,-0.1950712756,0.0006219234418
1.333333333,-0.6736637789,-1.537360547,0.6263070463,0.03645402904,-0.03255756962,0.6812226918,0.7304428469,0.1490662623,-0.08526955199,0.1042386606,0.2531721634,-0.04910144103,0.2281612269,0.3256683299,0.01307008054,0,0,-0.1947148289,-0.13723988,0.1545739381,0.3519016208,0.01285640379,0,0,0.47281972,0.07316943823,-0.07555371869,0.5484251766,-0.08607864377,0.187908454,0.3794311933,-0.1541694493,-0.1722617142,0.1012275626,-0.1968870094,-0.000604995601
1.366666667,-0.6738940403,-1.529702781,0.6258112551,0.03602309245,-0.0327465822,0.6804041722,0.7312182715,0.1524718052,-0.08826773192,0.1024856839,0.2554724062,-0.04322409822,0.2288916151,0.3246918844,0.01332423756,0,0,-0.1991961731,-0.1371140214,0.1545317214,0.3540277101,0.01280182976,0,0,0.470555529,0.07527246139,-0.09310967893,0.4917287813,-0.06263245877,0.1601161869,0.3910641099,-0.1576513958,-0.175465678,0.09936712825,-0.1990019442,-0.001545700474
1.4,-0.6740967188,-1.522135213,0.6252498144,0.03559798788,-0.032980056,0.6799966765,0.7316075581,0.1555024234,-0.09103959347,0.1009700555,0.2574194787,-0.03903624056,0.2294452587,0.3239058362,0.0136284214,0,0,-0.2032906972,-0.1368589248,0.1545097109,0.3562122189,0.01278686921,0,0,0.4664111559,0.0765973119,-0.1108392408,0.4347112302,-0.03935640237,0.1324871828,0.4020243909,-0.1611647332,-0.1789240807,0.09826720726,-0.2014401999,-0.002144090709
1.433333333,-0.6742611011,-1.514650625,0.6246267359,0.03453410705,-0.03319603747,0.6795994855,0.7320177306,0.1581741917,-0.09346397605,0.09964535625,0.2589814138,-0.03762186628,0.2297760555,0.3232719843,0.01391525383,0,0,-0.20705615,-0.1364835992,0.1545178181,0.3584354137,0.01281699754,0,0,0.4608957148,0.0773767982,-0.1290267632,0.3780687276,-0.01673091876,0.1057192336,0.4123220526,-0.1646642996,-0.1825858155,0.09792783513,-0.2041771907,-0.00237213572
1.466666667,-0.6743898763,-1.507219099,0.6239493123,0.03280531661,-0.03342878307,0.6789677592,0.7326725801,0.1605116682,-0.09547544847,0.09843228476,0.2601566377,-0.03952641746,0.2298543317,0.3227314658,0.01412477643,0,0,-0.210545651,-0.1359783461,0.1545612762,0.3606463271,0.01289888549,0,0,0.4546342625,0.07777943862,-0.1478398934,0.3226213596,0.004691305232,0.08060994964,0.4220160361,-0.1680684221,-0.1863395175,0.09831955952,-0.2071461654,-0.002213194094
1.5,-0.6744951992,-1.499792808,0.6232266947,0.03094268033,-0.03370732108,0.678133689,0.7335128267,0.1625486801,-0.09706227392,0.09725124436,0.2609634565,-0.04463870367,0.2296811708,0.3222248515,0.01422900858,0,0,-0.2137996097,-0.1353216885,0.1546315444,0.3627656354,0.01303834852,0,0,0.448280685,0.07757021218,-0.1672788026,0.2693152288,0.02432115473,0.05754642533,0.4312160534,-0.1712720406,-0.1900495118,0.09939612983,-0.2102538674,-0.001648603819
1.533333333,-0.6745935265,-1.492312943,0.6224683724,0.02945829521,-0.03398225379,0.6772757618,0.7343534284,0.1643215838,-0.09825799242,0.09605049874,0.2614291168,-0.05220134374,0.2292977536,0.3217156737,0.01424115401,0,0,-0.2168391315,-0.1344902488,0.1547007273,0.3646963496,0.01323615216,0,0,0.4424270159,0.07650048501,-0.1871459421,0.2191829908,0.0415820865,0.03673895601,0.440070363,-0.1741731936,-0.1935867125,0.1011188742,-0.2134013381,-0.0006562678191
1.566666667,-0.6747023503,-1.484717317,0.6216832904,0.02840087125,-0.03416669674,0.6765194859,0.7350832691,0.1658634625,-0.09913225239,0.09482089234,0.2615839053,-0.06094584642,0.2287835882,0.3212080819,0.01420683344,0,0,-0.2196613714,-0.1334692515,0.1547233977,0.3663413817,0.01348760486,0,0,0.4375217726,0.07472728211,-0.2070452326,0.1732623517,0.05597416692,0.01854166349,0.4487424181,-0.1767011051,-0.1968495798,0.103483505,-0.2165018424,0.0007760653389
1.6,-0.6748383912,-1.47694776,0.6208798823,0.02743796388,-0.03423457927,0.6758536419,0.7357288947,0.1672060821,-0.09977996786,0.0935931663,0.2614598498,-0.06932643318,0.2282413612,0.3207505681,0.01418234133,0,0,-0.2222385554,-0.1322613999,0.1546486055,0.3676230325,0.01378696737,0,0,0.4338063407,0.07250150256,-0.2264164157,0.1324883132,0.06715025564,0.003124803588,0.4573813539,-0.1788305383,-0.1997732907,0.1065364799,-0.2194895035,0.002628409328
1.633333333,-0.6750164601,-1.46895711,0.6200668175,0.02627461404,-0.03427011431,0.6751786923,0.7363891209,0.1683892229,-0.1003044012,0.09242000679,0.2610899047,-0.07580988407,0.2277728738,0.3204231318,0.01420970389,0,0,-0.2245222147,-0.1308911075,0.1544400077,0.3684968766,0.01413193412,0,0,0.4312777373,0.07012850397,-0.2446035831,0.09758327601,0.07499395845,-0.009499155739,0.4660912258,-0.1805736045,-0.2023274936,0.1103716344,-0.2223186211,0.004827649294
1.666666667,-0.6752499681,-1.46071553,0.61925398,0.02495656204,-0.03441538304,0.6744002871,0.737141102,0.1694706562,-0.1007926173,0.09134905944,0.2605046697,-0.07916754448,0.2274556209,0.3203116007,0.01429931403,0,0,-0.2264510188,-0.1294012931,0.1540958288,0.3689555855,0.01452232976,0,0,0.429686553,0.06791300196,-0.2609452073,0.06896784214,0.07968406289,-0.01941139975,0.474903983,-0.1819530362,-0.2045054417,0.1151074061,-0.2249589928,0.007237748438
1.7,-0.6755531695,-1.45221517,0.6184528699,0.02381763949,-0.03475128416,0.6734968713,0.7379885044,0.1705284654,-0.1012877292,0.09039520693,0.2597268947,-0.07871204033,0.2273286553,0.3204771287,0.01442762796,0,0,-0.2279580216,-0.1278427325,0.153657261,0.3690245285,0.01495180885,0,0,0.4285769736,0.06610461033,-0.2748606911,0.04670883319,0.08173002883,-0.02671214894,0.4837626395,-0.1829707507,-0.2063093759,0.1208546798,-0.2273920972,0.009665846834
1.733333333,-0.6759416726,-1.443471871,0.6176756861,0.02318316895,-0.03521589919,0.6725231792,0.7388741128,0.1716511437,-0.101766943,0.08952087705,0.2587656475,-0.07442911396,0.2273903193,0.3209306393,0.01455034201,0,0,-0.2289747303,-0.1262600241,0.1531977807,0.3687536076,0.01539815289,0,0,0.4273692673,0.06485893007,-0.2859054416,0.03051435649,0.08196584799,-0.03146509277,0.492521123,-0.1835863561,-0.2077381856,0.1276898818,-0.2296079112,0.01188451723
1.766666667,-0.6764274238,-1.434523036,0.6169333438,0.02310787889,-0.03565013782,0.6715373468,0.7397517729,0.1729177527,-0.1021348614,0.08863059174,0.2576121409,-0.0669761644,0.2276048526,0.3216210415,0.01462358248,0,0,-0.229433313,-0.124680575,0.1527958794,0.3682075217,0.01582030285,0,0,0.4254743576,0.0642226968,-0.2937787924,0.0197785574,0.08149282051,-0.03368071988,0.5009628269,-0.1837135604,-0.2087838876,0.1356454562,-0.231598261,0.01366762765
1.8,-0.6770095299,-1.425420924,0.6162336759,0.02334227543,-0.0359341022,0.6705057963,0.7406658191,0.174375998,-0.1022366186,0.08758064798,0.2562394655,-0.05754937629,0.22791376,0.3224413664,0.01462184659,0,0,-0.2292699298,-0.1231120313,0.1525035098,0.3674545617,0.01616555316,0,0,0.4224181662,0.06414306845,-0.2982918837,0.01366857766,0.08156597854,-0.03334054848,0.5088329856,-0.1832338765,-0.209442431,0.1447211554,-0.2333436682,0.01483534061
1.833333333,-0.677667497,-1.416221093,0.6155808576,0.0235116874,-0.03605816926,0.6692982841,0.7417457893,0.1760267265,-0.101887413,0.08620029783,0.2546083616,-0.04765137188,0.2282494348,0.3232494211,0.0145445521,0,0,-0.2284301765,-0.1215498086,0.1523254155,0.3665540956,0.01638342999,0,0,0.417945249,0.06449487517,-0.2993234954,0.01123522263,0.08342761668,-0.03044766926,0.5158756765,-0.1820216149,-0.2097397566,0.154909345,-0.2347944528,0.0153022249
1.866666667,-0.6783632773,-1.406967881,0.6149761734,0.02334174879,-0.03603657012,0.6678222376,0.7430814137,0.1778192847,-0.1009093437,0.08431913061,0.252679482,-0.03881130591,0.2285490702,0.323893341,0.01441054959,0,0,-0.2268746719,-0.1199913496,0.1522189079,0.3655428079,0.01644043966,0,0,0.4120709134,0.06511812459,-0.2967995873,0.01152312218,0.08810675307,-0.02508139324,0.5218667424,-0.1799729508,-0.2097660745,0.1662224523,-0.2358497788,0.01512064588
1.9,-0.679053491,-1.397682223,0.6144199261,0.02278337425,-0.03577560552,0.6661829109,0.7445813274,0.1796567042,-0.09916620549,0.08179522275,0.2504293786,-0.03231454714,0.228766112,0.3242321552,0.0142463996,0,0,-0.2245820226,-0.118450075,0.152113356,0.3644199658,0.01633163392,0,0,0.4050601535,0.06585924527,-0.2907224581,0.01365904666,0.0962207093,-0.01743558637,0.5266370737,-0.1770316616,-0.2097037016,0.1787129829,-0.2363403146,0.01450827952
1.933333333,-0.6797072863,-1.388358314,0.6139144213,0.02201105948,-0.0350853318,0.6646824955,0.7459770191,0.1814060828,-0.09658953856,0.07853900829,0.2478638489,-0.02899197567,0.2288768233,0.3241479095,0.01407601897,0,0,-0.221548033,-0.1169624548,0.1519395778,0.3631350504,0.01608570814,0,0,0.3973307011,0.06661003354,-0.2812505858,0.01690578582,0.107825518,-0.007828259246,0.5300832057,-0.1732029027,-0.209831472,0.1924819612,-0.2360218208,0.01384514214
1.966666667,-0.6803220827,-1.378971944,0.6134675835,0.02132982416,-0.03385063656,0.6636105242,0.7470075268,0.1829093826,-0.09319113092,0.07452888861,0.2450208442,-0.02910488084,0.2288812845,0.3235535173,0.01391624815,0,0,-0.2177819926,-0.1155860583,0.1516560722,0.3615849302,0.01575941046,0,0,0.3893038106,0.06733808219,-0.2687994517,0.02067860293,0.1223594657,0.003318277773,0.5321631477,-0.1685471555,-0.2104946281,0.2076755653,-0.2345860998,0.013627691
2,-0.6809305117,-1.369497075,0.6130960894,0.02100511244,-0.03217630579,0.6630055448,0.7476276601,0.1839930581,-0.08905811123,0.06981578347,0.241958841,-0.03234285837,0.2287994381,0.3224020467,0.01377776873,0,0,-0.2133016841,-0.1143915292,0.1512622253,0.3596270796,0.01541929274,0,0,0.3812504589,0.06810341054,-0.2541116506,0.0245291467,0.138707288,0.01551569962,0.5328767685,-0.1631527923,-0.2120422193,0.2244718983,-0.2316903332,0.01437949558
2.033333333,-0.6815960763,-1.359923369,0.6127899831,0.02106387278,-0.03034336224,0.6626315284,0.7480341244,0.1844789475,-0.08432907203,0.06451518638,0.2387348028,-0.03792852441,0.2286632473,0.320698045,0.01366777566,0,0,-0.2081288737,-0.1134534857,0.1507952318,0.3571089324,0.0151164684,0,0,0.3731879967,0.06905773059,-0.2382455326,0.02810847509,0.1553832478,0.02825040974,0.5322335789,-0.1570953308,-0.2147489588,0.2430617832,-0.2269978306,0.01653527153
2.066666667,-0.6823994167,-1.350267656,0.6125535865,0.02123187883,-0.02860658565,0.6622199722,0.7484621427,0.1841995547,-0.07915543123,0.05878814474,0.2353824894,-0.04479798133,0.2285070217,0.3185064205,0.01359147733,0,0,-0.2022870377,-0.1128428998,0.150313984,0.3539054281,0.01486684128,0,0,0.3648656391,0.07042425497,-0.2224592787,0.0311270538,0.1707966972,0.04101598135,0.5302148505,-0.1503986624,-0.2187472865,0.2636288496,-0.2202178457,0.02032747137
2.1,-0.6834196837,-1.340574613,0.6124342009,0.02116174872,-0.02699697158,0.6617633509,0.7489276409,0.1830174063,-0.07366016401,0.05281631507,0.2319008347,-0.05181022773,0.2283592223,0.3159544908,0.01355136162,0,0,-0.1958023242,-0.1126189065,0.1498774747,0.3499521263,0.01464751105,0,0,0.3558442531,0.07245836495,-0.2080101003,0.03333224465,0.1835366948,0.05333713715,0.5267388909,-0.1430149915,-0.2239930621,0.2863338671,-0.2111335287,0.02570542009
2.133333333,-0.6847163793,-1.330906018,0.6124732109,0.0208293386,-0.02527653379,0.6615724598,0.7491656131,0.180844753,-0.06790989914,0.04677786927,0.2282546411,-0.05794012163,0.2282384933,0.3132263662,0.01354419393,0,0,-0.1887069611,-0.1128163584,0.1495260561,0.3452624712,0.01441067308,0,0,0.3456424965,0.07539432512,-0.1959249985,0.03451785332,0.1926050701,0.06479263642,0.5216376596,-0.1348352211,-0.2302769011,0.3113066061,-0.1996140106,0.03230713256
2.166666667,-0.6863162884,-1.321323678,0.6126949853,0.02069704095,-0.02308700773,0.6620155223,0.7488484966,0.177659725,-0.06191086523,0.04082942526,0.2243827646,-0.06242397633,0.228153932,0.3105512438,0.01355732301,0,0,-0.1810427025,-0.1134292236,0.1492711238,0.3399241397,0.01410721569,0,0,0.3339000816,0.07938918368,-0.1868127344,0.03456494527,0.197543708,0.07504448569,0.514651867,-0.125730239,-0.2372790382,0.3386462868,-0.1856133991,0.03948898835
2.2,-0.6882077101,-1.311874189,0.6130985906,0.02138170445,-0.02019969374,0.6631690054,0.7478914797,0.1735165882,-0.0556279555,0.03509654098,0.2202073355,-0.06484247324,0.2281075464,0.3081868535,0.01356833768,0,0,-0.1728619829,-0.1143956925,0.1490944713,0.3340773552,0.01370891495,0,0,0.3205056553,0.08447858535,-0.1807726296,0.0334955573,0.1984351255,0.08387388518,0.5054505375,-0.1156090076,-0.2446536971,0.3684291215,-0.1691623171,0.0464039868
2.233333333,-0.6903411805,-1.302580975,0.6136563553,0.02308699494,-0.01668008401,0.6647288451,0.7465415782,0.1685481054,-0.04901848234,0.02967343399,0.2156409834,-0.06513581029,0.2280975533,0.3063984261,0.01355175733,0,0,-0.1642266149,-0.1155933633,0.1489552875,0.3278838496,0.0132204509,0,0,0.3056509767,0.09055780149,-0.1774231133,0.03151141608,0.1957922079,0.09121401352,0.4936767719,-0.1044685844,-0.2521214816,0.4007187399,-0.1503576985,0.05210908971
2.266666667,-0.6926343051,-1.293444411,0.6143199932,0.0253774714,-0.01283692947,0.6662930581,0.7451474739,0.1629569529,-0.04207123679,0.02463057155,0.210593145,-0.06355440851,0.2281224658,0.3054341391,0.01349132006,0,0,-0.1552065788,-0.1168504875,0.1488015996,0.3214972977,0.01267777528,0,0,0.2897981986,0.09739437049,-0.1760342853,0.02899320159,0.1903797178,0.09716343698,0.4790132478,-0.09241101482,-0.2595467925,0.4355729869,-0.129356294,0.055678226
2.3,-0.6949792314,-1.284449108,0.6150315425,0.02754847072,-0.009023365258,0.6677342389,0.7438350938,0.1569934933,-0.03484229834,0.02002604182,0.2049773623,-0.06055990514,0.2281849592,0.3054995997,0.01339064407,0,0,-0.1458818678,-0.1179737954,0.1485833418,0.3150445925,0.01213516448,0,0,0.2735736935,0.1046686317,-0.1757172074,0.02644952689,0.18302043,0.1019680012,0.4612531815,-0.07961369425,-0.2669822008,0.4730396957,-0.1063767841,0.05630037853
2.333333333,-0.6972539739,-1.275576444,0.6157348098,0.02921241383,-0.005489199755,0.6692705678,0.74242401,0.1509213868,-0.02747787396,0.01591535827,0.198719506,-0.05670309197,0.2282928526,0.3067351277,0.01327429864,0,0,-0.1363471076,-0.1187872345,0.148264698,0.3086229772,0.01164757209,0,0,0.2576217702,0.1120297964,-0.1756104034,0.02442237164,0.1744341836,0.1059715981,0.4403597182,-0.06625823583,-0.2746707294,0.5131357735,-0.08171335477,0.05335042315
2.366666667,-0.6993405802,-1.266817325,0.6163835719,0.03051405138,-0.00238590542,0.6711733659,0.7406682881,0.1449786517,-0.02021412999,0.01235638595,0.1917654696,-0.05251072413,0.2284553717,0.3091992924,0.01317700491,0,0,-0.1267141636,-0.1191705083,0.1478330373,0.3023117623,0.01125611806,0,0,0.2424597967,0.1191522277,-0.1750161582,0.02337103317,0.1651428191,0.1095481469,0.4164994929,-0.05244041037,-0.2830063947,0.5558085746,-0.0557602627,0.04643106649
2.4,-0.7011509564,-1.258177818,0.6169450324,0.03182960524,0.0001676559303,0.6734439917,0.7385526644,0.1393449266,-0.01334875851,0.009409426452,0.184087607,-0.04840742007,0.2286756349,0.3128601024,0.01312676746,0,0,-0.1171067142,-0.1190836621,0.1473016266,0.2961903617,0.01098196323,0,0,0.2283714655,0.1257797801,-0.1734671486,0.02356518329,0.1554514176,0.113031803,0.3900425628,-0.03809351782,-0.2924609054,0.6008849403,-0.02904324303,0.03539312254
2.433333333,-0.7026554466,-1.249673355,0.6173996179,0.03334773382,0.002085376681,0.6757937757,0.7363330446,0.1341230648,-0.007188151307,0.007133931558,0.1756905522,-0.04468403597,0.2289420699,0.3175935733,0.01313208405,0,0,-0.1076450701,-0.1185675558,0.1467051652,0.2903499198,0.01082842201,0,0,0.2153599166,0.1317519933,-0.170730987,0.0250170638,0.1454926149,0.1166610482,0.3615293944,-0.02295571689,-0.3034897397,0.6480197983,-0.002249628775,0.02034416546
2.466666667,-0.7039043108,-1.241314329,0.6177393073,0.03496257784,0.003367917719,0.677890936,0.7343229223,0.1293367847,-0.001982817365,0.005582732544,0.1666172113,-0.04150714756,0.229221597,0.3231912468,0.01318063963,0,0,-0.09842639676,-0.1177201799,0.1460907701,0.2848890876,0.01078658472,0,0,0.2031633563,0.1370107703,-0.1667744291,0.02747328136,0.1353046964,0.1205494187,0.3316144027,-0.006598975923,-0.3164339753,0.6966607327,0.02375526252,0.001651050398
2.5,-0.705032159,-1.233091289,0.6179660296,0.03648439136,0.004110252604,0.6795665259,0.7326945693,0.1249404277,0.002131661844,0.004794209745,0.1569539408,-0.03895399086,0.2294574371,0.3293816206,0.01324921446,0,0,-0.08950903581,-0.116659234,0.1455091842,0.27989561,0.01083970501,0,0,0.1913203096,0.1415890067,-0.161709569,0.03047093863,0.1249107767,0.1246911008,0.3010019019,0.01148146602,-0.3314349079,0.7460443907,0.04794094557,-0.02006655545
2.533333333,-0.7062407769,-1.224968232,0.6180906927,0.03784993431,0.00444076662,0.6808072661,0.7314705247,0.1208346838,0.005171191669,0.004783270631,0.1468309185,-0.0370560628,0.2295742127,0.335868268,0.01331781817,0,0,-0.08090676889,-0.1154855876,0.1450092514,0.2754254851,0.01096541752,0,0,0.1792646629,0.1455850962,-0.1557378783,0.03344599067,0.1143739625,0.1289997082,0.2703904631,0.03173619933,-0.3483765383,0.7952334458,0.06916787031,-0.04396093278
2.566666667,-0.7077632623,-1.21688848,0.6181327956,0.03912054411,0.004471786185,0.6816665188,0.7306027261,0.1168826725,0.00730523476,0.005532651176,0.1364122164,-0.03583806214,0.2294907636,0.3423778276,0.01337999121,0,0,-0.07259242685,-0.1142595315,0.1446348212,0.2714922974,0.01113775532,0,0,0.1664318196,0.1491299545,-0.1491015195,0.03586786823,0.1038169212,0.1333650014,0.2404338942,0.05442035618,-0.3668667218,0.8431917892,0.08629226946,-0.0690087703
2.6,-0.7098173904,-1.20879159,0.6181199743,0.04035706678,0.004306780428,0.6822706956,0.7299722301,0.1129223012,0.008821141043,0.006986289624,0.1258733535,-0.03534171785,0.2291370573,0.3487022813,0.01344516712,0,0,-0.06450583556,-0.1129949819,0.1444213977,0.2680720506,0.01133040744,0,0,0.1523618013,0.15235471,-0.1420479416,0.037366008,0.09340857748,0.1377044753,0.2117148587,0.07947651443,-0.3862611309,0.8888854056,0.09830958004,-0.09409358239
2.633333333,-0.7125578381,-1.200633966,0.6180865336,0.0415651394,0.004043862451,0.6828711704,0.7293441924,0.1087736569,0.01005828935,0.009045991196,0.1153714774,-0.03562574662,0.2284688671,0.3547209112,0.01353356687,0,0,-0.05656154511,-0.1116691871,0.1443918277,0.2651197588,0.0115208047,0,0,0.1367872762,0.1553660857,-0.1348111763,0.03781390974,0.08333098921,0.1419913411,0.1847182718,0.1064715392,-0.4057257624,0.9313897031,0.1045088952,-0.1181097486
2.666666667,-0.7160378171,-1.192403262,0.6180706113,0.04275723476,0.003714876232,0.6837689269,0.7284353596,0.1042446419,0.01132935627,0.01157174513,0.1050190299,-0.03673727662,0.2274746362,0.3603977958,0.01366678854,0,0,-0.04865527207,-0.1102403646,0.144553596,0.2625875559,0.01169375058,0,0,0.1196921705,0.158232905,-0.1276087043,0.03734684881,0.07374272808,0.1462536754,0.159792742,0.1346053228,-0.4243264543,0.9699817264,0.1046004258,-0.1400714716
2.7,-0.7201903342,-1.184119469,0.6181105889,0.0440255562,0.003216392193,0.6851216535,0.7270899017,0.09914127548,0.01285100675,0.01438605361,0.0948704565,-0.03865971174,0.2261725193,0.365762646,0.01385861651,0,0,-0.04067106138,-0.108664655,0.1449007409,0.2604331457,0.0118431428,0,0,0.1013240395,0.1609827473,-0.120647606,0.03630822837,0.06475186526,0.1505520019,0.1370995236,0.1627925596,-0.4411305904,1.004198348,0.09878061939,-0.1592066218
2.733333333,-0.7248346416,-1.175822537,0.6182416731,0.04552357783,0.002349776189,0.6868592331,0.7253595497,0.09328718119,0.01470363955,0.01728333,0.08492386795,-0.0412548102,0.2246004527,0.3708879598,0.01411052598,0,0,-0.03249188873,-0.1069058071,0.1454196873,0.2586139172,0.01197047396,0,0,0.08214845459,0.1636050415,-0.1141310917,0.03514071022,0.05640489978,0.1549486026,0.1165627286,0.1898008565,-0.4553056958,1.033848584,0.08771455813,-0.1750174852
2.766666667,-0.7297056065,-1.167553366,0.6184381931,0.04734705197,0.0009843225649,0.6888395197,0.7233653322,0.08654995566,0.01682970607,0.02004527674,0.07513166486,-0.04422498919,0.2228056978,0.3758715299,0.01441384539,0,0,-0.0240145959,-0.1049354624,0.1460937158,0.2570724176,0.01207996837,0,0,0.06274925825,0.1660575673,-0.1082569528,0.03425487203,0.04869047826,0.1594815897,0.0978431139,0.2144157837,-0.4661991632,1.058977865,0.0724360954,-0.1872979133
2.8,-0.7344978029,-1.159337472,0.6186619877,0.04938697347,-0.000795063471,0.6910718174,0.7210964138,0.07886550551,0.01906696034,0.0224617887,0.06541266362,-0.04711903075,0.2208389414,0.3808248625,0.01475645955,0,0,-0.01516672511,-0.1027281884,0.1469007285,0.2557249369,0.01217217452,0,0,0.04369775932,0.1682761999,-0.1032023257,0.03391454431,0.04155142557,0.1641521947,0.08035534341,0.2355997607,-0.4733838164,1.079793619,0.05418599664,-0.1961073291
2.833333333,-0.7389145702,-1.15117731,0.6189177677,0.0512789671,-0.002706571118,0.6937335508,0.7183988464,0.07025067788,0.02120301995,0.02435524718,0.05566436735,-0.04939063716,0.2187521621,0.3858621995,0.01512890892,0,0,-0.005920052305,-0.1002590464,0.1478050008,0.2544624728,0.0122390626,0,0,0.02542521363,0.1701892818,-0.09909461171,0.03417129443,0.03489815138,0.1689266242,0.0633356658,0.252615709,-0.4766597395,1.096573619,0.03422267323,-0.2017117335
2.866666667,-0.7427131611,-1.143053746,0.6192000449,0.05255613843,-0.004454859238,0.6969503878,0.7151770155,0.06080006335,0.02303427345,0.02560411897,0.04578052976,-0.05050107795,0.2165959338,0.3910849546,0.01552480494,0,0,0.003704235047,-0.09750771877,0.1487503904,0.2531655077,0.01226322228,0,0,0.008130926356,0.1717360658,-0.095975776,0.03486262584,0.02862022576,0.1737472228,0.04594987747,0.2650947344,-0.4760157119,1.109585583,0.01364685038,-0.2045070013
2.9,-0.7457378747,-1.13493401,0.619495201,0.05295962278,-0.005923206875,0.7005930921,0.7115683475,0.05066938198,0.02441454019,0.02615945232,0.03567716621,-0.05004257433,0.2144145462,0.3965610694,0.01593418333,0,0,0.01364021184,-0.09446561352,0.1496629726,0.2517263719,0.01222206295,0,0,-0.008252788942,0.1728848618,-0.09377329791,0.03566665768,0.02259654098,0.1785455725,0.02741888399,0.2730376963,-0.4715688797,1.119041925,-0.00672081773,-0.2049413325
2.933333333,-0.7479338955,-1.126782947,0.6197861328,0.0526643561,-0.007218744283,0.7043205512,0.7078890566,0.04005077415,0.02528417005,0.02604760015,0.02532027374,-0.0478527076,0.2122411258,0.4023047462,0.01633404166,0,0,0.02378902253,-0.09114008448,0.1504644221,0.2500693583,0.01209606141,0,0,-0.02403128515,0.1736447165,-0.0922916272,0.03619011079,0.01670510743,0.1832533022,0.007135407191,0.2767532124,-0.463509263,1.125097837,-0.02638321808,-0.2034532398
2.966666667,-0.749338129,-1.118573821,0.6200582222,0.05218312113,-0.008552785683,0.707811708,0.7044191634,0.02914524984,0.02567619967,0.02535741772,0.01474134872,-0.04409170774,0.2100947313,0.4082656919,0.0166837979,0,0,0.03403349907,-0.08755513279,0.1510897059,0.2481611091,0.01187857211,0,0,-0.03966097008,0.1740666797,-0.09123176373,0.03606254083,0.01083218765,0.1878105012,-0.01525093463,0.2767492059,-0.452069839,1.127882632,-0.04512817692,-0.200436914
3,-0.750051113,-1.11029495,0.6203041348,0.05199433599,-0.01006735076,0.7109347209,0.7012610499,0.01813698881,0.0257015979,0.02421829384,0.004030573124,-0.03926152601,0.2079796971,0.4143356212,0.0169315322,0,0,0.04425233296,-0.08375299547,0.1515002806,0.2460103782,0.01158342341,0,0,-0.055627943,0.1742348198,-0.09023675372,0.03501615991,0.004879379935,0.1921725431,-0.03979452944,0.2736083205,-0.4375265011,1.127542665,-0.06293009866,-0.1962360376
3.033333333,-0.7502021322,-1.101950826,0.6205252245,0.05221802713,-0.01173484503,0.7137127344,0.6983907959,0.007173775318,0.02552001674,0.02277942808,-0.006690561859,-0.0341559617,0.205887547,0.4203731655,0.01703072149,0,0,0.05433214093,-0.07979919438,0.1516881044,0.2436614559,0.01124632398,0,0,-0.07232565848,0.1742496952,-0.08895265481,0.03293949994,-0.001232488765,0.1963147109,-0.06626429889,0.267882893,-0.4202158388,1.124273001,-0.07983107838,-0.191154244
3.066666667,-0.7499210846,-1.093559564,0.6207292062,0.05261805883,-0.01338593365,0.7161925895,0.695787562,-0.003642738601,0.02530492137,0.02119628346,-0.01730484404,-0.02974355711,0.2038015391,0.4262396209,0.0169608984,0,0,0.0641768365,-0.07578729344,0.1516718964,0.2411852006,0.01091842639,0,0,-0.0899643226,0.1742076532,-0.08709075203,0.02989850323,-0.007562120046,0.2002336321,-0.09419774426,0.2600376616,-0.4005519339,1.11832248,-0.0958416426,-0.1854642605
3.1,-0.7493239066,-1.085149693,0.62092549,0.05288730371,-0.01484143737,0.7184016514,0.6934563664,-0.01425455714,0.02521161015,0.01962156889,-0.02772849141,-0.02699914531,0.2017018328,0.4318321858,0.01674234507,0,0,0.07371443599,-0.07183582471,0.151490082,0.2386676252,0.01065435823,0,0,-0.1085304239,0.1741803658,-0.08447714594,0.02612182102,-0.01414657813,0.2039458417,-0.12298593,0.2504494297,-0.379028131,1.109967769,-0.1108875305,-0.1794025587
3.133333333,-0.7485097053,-1.07675806,0.6211199254,0.05292876542,-0.01606888674,0.7204217117,0.6913269082,-0.02463314637,0.02535437748,0.01819443573,-0.03792541833,-0.02671419704,0.1995684731,0.437102635,0.01643570629,0,0,0.08290142374,-0.0680717895,0.1511941762,0.2361936751,0.01049929953,0,0,-0.1277968026,0.1742005808,-0.08107861888,0.02195334184,-0.02099778821,0.2074848695,-0.1519725854,0.2394502253,-0.3562003805,1.09946325,-0.1248080965,-0.173147931
3.166666667,-0.7475635693,-1.068428399,0.6213104713,0.05289974956,-0.01725054137,0.7224335159,0.6891979762,-0.03475817364,0.02579653388,0.01702613749,-0.0479075017,-0.02932548601,0.1973816331,0.4420572749,0.01612326732,0,0,0.09172358202,-0.06460069734,0.1508443858,0.2338264684,0.01047862368,0,0,-0.147372085,0.1742595021,-0.07699808608,0.01778428014,-0.02809786391,0.2108978559,-0.1805468691,0.2273840838,-0.3326573693,1.086983525,-0.1373929533,-0.166793415
3.2,-0.7465598504,-1.060208303,0.6214853528,0.05302384454,-0.01867611053,0.724614042,0.6868581841,-0.04459709321,0.02655375784,0.01618751331,-0.0577275613,-0.0348010816,0.195120962,0.4467427217,0.01587879578,0,0,0.1001909993,-0.06146943416,0.1505065191,0.2315877605,0.01059148583,0,0,-0.1667748563,0.1743172626,-0.0724396459,0.01398345745,-0.0353980922,0.2142413838,-0.2082087153,0.2146449671,-0.3089849784,1.072581002,-0.1484332567,-0.1603259065
3.233333333,-0.7455633654,-1.052142388,0.6216247099,0.05335934427,-0.02050336362,0.7269716303,0.6842840355,-0.05409345414,0.02760688969,0.0157059256,-0.06747091164,-0.04261222315,0.1927657101,0.4512259404,0.01574131115,0,0,0.1083262325,-0.05863392977,0.1502458316,0.2294481593,0.01080910635,0,0,-0.1855184727,0.1743228493,-0.06765236225,0.01084331849,-0.04282566349,0.2175750989,-0.2345928615,0.2016754754,-0.2857303023,1.056177699,-0.1577645301,-0.15362512
3.266666667,-0.7446277077,-1.044262139,0.6217050275,0.05372558576,-0.02258318544,0.7293257771,0.6816798897,-0.06316790875,0.02891739365,0.01557515548,-0.07724625273,-0.05180250306,0.1902951334,0.4555756665,0.0157070697,0,0,0.1161486604,-0.05594670384,0.150112716,0.2273321323,0.01107882022,0,0,-0.2031933221,0.1742364488,-0.06286992092,0.008552131311,-0.05029789129,0.2209517072,-0.2594526974,0.188926285,-0.2633682654,1.037596953,-0.1652862714,-0.1464856079
3.3,-0.7437902537,-1.036575971,0.6217042664,0.05384969395,-0.02453720912,0.7314955719,0.6792734089,-0.0717303112,0.03043982013,0.01577502198,-0.08717281158,-0.06114452251,0.1876869581,0.4598488417,0.01574261355,0,0,0.1236616499,-0.05317678389,0.1501203521,0.2251357404,0.01133464541,0,0,-0.2195335314,0.1740466463,-0.05826479009,0.007193668038,-0.05774044575,0.2244038044,-0.2826202884,0.1767941208,-0.2422740757,1.016623476,-0.1709552361,-0.1386564692
3.333333333,-0.7430646806,-1.029063851,0.6216059046,0.05360197818,-0.02604900642,0.7334982334,0.6770735697,-0.07969758341,0.03212936552,0.01629243024,-0.09736116279,-0.06935250144,0.1849124045,0.4640824407,0.01580865124,0,0,0.1308486082,-0.05006466297,0.1502221369,0.2227501177,0.01151370484,0,0,-0.2344554394,0.1737770457,-0.05392925484,0.006767896552,-0.06510574562,0.2279314402,-0.303965335,0.1655633669,-0.2227051124,0.9930692206,-0.1747603571,-0.1298873068
3.366666667,-0.7424349251,-1.021679299,0.6214011821,0.05309732044,-0.02710125759,0.7355083275,0.6748879141,-0.08701171502,0.03394603563,0.01713398898,-0.1078890634,-0.0753046641,0.1819289571,0.4682893344,0.01587976895,0,0,0.1376793433,-0.04640120176,0.1502998458,0.2200831982,0.01157488484,0,0,-0.2480576295,0.1734809347,-0.04988558926,0.007222266587,-0.07238780943,0.2314967373,-0.3233711651,0.15537187,-0.2047933735,0.9668234388,-0.1766947086,-0.1199686199
3.4,-0.7418560989,-1.014359377,0.6210894949,0.05257012469,-0.0279357364,0.7375947587,0.6726142643,-0.09365354437,0.03585853689,0.0183221928,-0.1187781341,-0.07822821583,0.1786739137,0.4724571431,0.01595050177,0,0,0.1441228337,-0.04210848165,0.1501694763,0.2170736036,0.01151236356,0,0,-0.260578932,0.1732270419,-0.04611722286,0.008483525879,-0.07962927199,0.2350300582,-0.3407348574,0.1462098941,-0.188545506,0.9378750593,-0.1767412062,-0.1087593363
3.433333333,-0.741264645,-1.007040624,0.6206771392,0.05217559934,-0.02880400658,0.7395543007,0.6704531843,-0.09964892399,0.0378508785,0.01987245204,-0.1299794011,-0.07781252208,0.175061529,0.4765505569,0.01602804795,0,0,0.1501599083,-0.03729763491,0.1496047042,0.2136926811,0.0113561482,0,0,-0.272321859,0.1730818696,-0.0426042985,0.01048264453,-0.08691665902,0.2384467958,-0.3559876323,0.1379484326,-0.1738464459,0.9063071701,-0.1748821889,-0.09620018275
3.466666667,-0.7405944373,-0.9996759524,0.6201747369,0.05194152303,-0.02978051888,0.7411100651,0.6687085092,-0.1050650923,0.03993294029,0.02175677346,-0.1413736377,-0.07423643058,0.1709863199,0.4805187957,0.01611875454,0,0,0.1557907748,-0.0322843305,0.1483731565,0.2099357793,0.01115768076,0,0,-0.283561509,0.1730933198,-0.03934549734,0.01316802708,-0.09436321534,0.2416693169,-0.3691250083,0.1303837972,-0.1604673178,0.8722718299,-0.1711305177,-0.08231609813
3.5,-0.7397930222,-0.9922458125,0.619593719,0.05187914487,-0.03079243041,0.7423143607,0.6673303309,-0.1099980397,0.0421528265,0.02386893237,-0.152786898,-0.06811477031,0.1663363615,0.4843103037,0.01621687505,0,0,0.1610367817,-0.02755431184,0.1462799698,0.2058124365,0.01096724117,0,0,-0.2944678868,0.1732783693,-0.03635744634,0.01650473177,-0.102083697,0.2446473255,-0.3802344945,0.1232831971,-0.1480838797,0.8359569061,-0.1655679833,-0.06721201236
3.533333333,-0.739085175,-0.9851428872,0.618458609,0.05204039974,-0.03174962991,0.7436635069,0.6657689887,-0.120755135,0.04457386402,0.02922584185,-0.1614650228,-0.05729913076,0.1688171764,0.4989586134,0.01641894873,0,0,0.1670229022,-0.03047425486,0.1533537567,0.210704522,0.01103919253,0,0,-0.3043385644,0.1736943724,-0.0341473734,0.01999667646,-0.1088913536,0.2476402834,-0.3945459555,0.1168590556,-0.1314661764,0.8024079099,-0.1604698287,-0.05050232989
3.566666667,-0.7379706246,-0.9778218588,0.6173823638,0.0523796568,-0.03259233387,0.7456581189,0.6634667143,-0.1278523508,0.04825902583,0.03248421218,-0.1710647893,-0.04841795228,0.1656923839,0.5078538743,0.01649816012,0,0,0.1720781855,-0.03352917677,0.1533207362,0.2101672529,0.01091239384,0,0,-0.3140732516,0.1742372716,-0.03202640594,0.02448270921,-0.11672585,0.2502518359,-0.4044735813,0.1102278672,-0.1178412073,0.764320418,-0.1527995209,-0.03322068087
3.6,-0.7365792916,-0.9703244481,0.6163822907,0.05267135719,-0.03324477918,0.7482409324,0.6604967977,-0.1322446524,0.05288697365,0.03381470489,-0.1811386768,-0.04185951379,0.1584024184,0.5123221567,0.01644166926,0,0,0.1764238072,-0.03620666758,0.148025643,0.2055773818,0.01062039711,0,0,-0.3234439014,0.1748081374,-0.02998016674,0.0297278597,-0.1254516628,0.2526143026,-0.4111502935,0.1032713725,-0.1061738368,0.7225472361,-0.1433062789,-0.01569082322
3.633333333,-0.735065029,-0.9626855363,0.6154683155,0.05262054556,-0.03360636742,0.7506820016,0.6577067908,-0.1351986553,0.05793818115,0.03364193098,-0.1911569332,-0.03738881415,0.1489507307,0.5142046621,0.01626639958,0,0,0.1803166104,-0.03772331443,0.1399828729,0.1988299152,0.01022024162,0,0,-0.3322056806,0.1753263423,-0.02800476057,0.03546978908,-0.1348713748,0.2548614707,-0.4158148641,0.09597822897,-0.09531361974,0.6780397518,-0.132748917,0.001852713049
3.666666667,-0.7335615363,-0.9549355336,0.6148720692,0.0521404181,-0.03366410111,0.7522023188,0.6560028786,-0.138065692,0.06278893666,0.03255181913,-0.2006110103,-0.03435444561,0.1394767709,0.5154497096,0.01602495313,0,0,0.1840125959,-0.03747821331,0.1318406608,0.1919354848,0.009790751582,0,0,-0.3401944711,0.175750061,-0.02610135691,0.0414472874,-0.1447542117,0.2571004861,-0.419598894,0.08844422165,-0.08418640486,0.6317806917,-0.1218115935,0.01926171696
3.7,-0.7321522034,-0.9471079664,0.6156312135,0.05145149754,-0.03354232436,0.7526921972,0.6555014204,-0.1420518077,0.06682398896,0.03115456748,-0.2091047754,-0.03196636044,0.1318327637,0.5177145559,0.01579570788,0,0,0.1877247992,-0.03544135743,0.1258554456,0.1866146615,0.009424838933,0,0,-0.3473751165,0.1760792926,-0.02427607459,0.04742785835,-0.1548645472,0.2593988206,-0.4233548415,0.08085550077,-0.07193277996,0.5847053125,-0.1110432853,0.03645850828
3.733333333,-0.7308630182,-0.9392427419,0.6155400665,0.05082803851,-0.0333658181,0.7527888618,0.6554480622,-0.1480130539,0.06955538014,0.02993336507,-0.2164162684,-0.02956918626,0.1272549968,0.5220526554,0.01566178854,0,0,0.1915879701,-0.03227310208,0.1234844257,0.1839784953,0.00921629801,0,0,-0.3538396242,0.1763440932,-0.02253994142,0.05322540509,-0.1649866133,0.2617828147,-0.4275608777,0.07345284581,-0.05796566804,0.5376178549,-0.1008289556,0.05341329291
3.766666667,-0.7296762105,-0.9313799895,0.6156897034,0.05028443626,-0.03307544004,0.7532762492,0.6549445649,-0.156287324,0.07073516053,0.02911487352,-0.2225242086,-0.02685013291,0.1261704869,0.5287194576,0.01568675935,0,0,0.1956414818,-0.02909043033,0.1251546622,0.1843408574,0.009242192566,0,0,-0.3597719402,0.1765867303,-0.02090078479,0.05870447527,-0.1749433258,0.2642411545,-0.4323097953,0.06648426016,-0.04195952694,0.4911127906,-0.09138860523,0.07011947289
3.8,-0.7285541059,-0.9235455206,0.6194450778,0.04959291366,-0.03244765487,0.7544373921,0.6536909927,-0.1665755277,0.070441481,0.02859499885,-0.2276016726,-0.02393848776,0.1281421892,0.5371073142,0.01589389595,0,0,0.1998349554,-0.02699176207,0.1302244467,0.1871721153,0.009541906131,0,0,-0.3654022573,0.1768464008,-0.0193426897,0.06377191869,-0.1846078167,0.2667296983,-0.4373679996,0.06015714175,-0.02380979982,0.4455148576,-0.08279463066,0.08657144376
3.833333333,-0.7274624501,-0.9157337209,0.6224878427,0.0486057386,-0.03134571509,0.7559470631,0.6520728226,-0.1779014208,0.06910873888,0.02794319213,-0.2319822726,-0.02137304301,0.1319448254,0.5458171215,0.01625431207,0,0,0.204052424,-0.02659111142,0.1371245622,0.1911877157,0.01009502706,0,0,-0.3709693633,0.1771510024,-0.01779805676,0.06836029243,-0.193906124,0.2691785154,-0.4422810409,0.05459961895,-0.003604130897,0.4008587235,-0.07500017036,0.1027496958
3.866666667,-0.7263872484,-0.9078961363,0.624904145,0.04747486795,-0.02992887765,0.7572757826,0.650679482,-0.1886926552,0.06747433463,0.02649186112,-0.2361040123,-0.01994020312,0.1357681028,0.5528719751,0.01668829056,0,0,0.2081444904,-0.02778862115,0.1436507197,0.194561296,0.01080486038,0,0,-0.3766994933,0.1775153572,-0.01612471426,0.0724092886,-0.2028104753,0.2715037014,-0.446502774,0.04983746305,0.01837296075,0.3569350103,-0.06787659462,0.1186149184
3.9,-0.7253419454,-0.8999431268,0.6267107037,0.04650179325,-0.02855348391,0.7581233361,0.6498240447,-0.1970134721,0.06643335635,0.02349635119,-0.2404356639,-0.02041942812,0.1375411754,0.5560596808,0.01708196232,0,0,0.2119557602,-0.02984809919,0.1473661706,0.1952430458,0.01149997249,0,0,-0.3828007254,0.1779424877,-0.01409916402,0.07584995239,-0.2113246122,0.2736239537,-0.4495294244,0.04579075486,0.04160994541,0.3134261666,-0.06125971731,0.1341049537
3.933333333,-0.724361987,-0.8917611234,0.6278872229,0.04580041362,-0.02743762318,0.7585210227,0.6494577408,-0.2009322895,0.06682473612,0.01832952386,-0.2453918793,-0.02330436746,0.1353450233,0.5533548497,0.01731656764,0,0,0.2153380436,-0.03169005114,0.146056811,0.191340008,0.0119644154,0,0,-0.3894667122,0.178426068,-0.01142992791,0.07859313801,-0.2194627845,0.2754775982,-0.4510204702,0.04229325941,0.0653393143,0.2701365744,-0.05500049299,0.1491211411
3.966666667,-0.7234875209,-0.8832412257,0.6284818947,0.04515948115,-0.0264471092,0.7586440813,0.6493999766,-0.198940538,0.06920608132,0.01065931582,-0.2512470062,-0.02858499891,0.1278328529,0.5433313775,0.01730137981,0,0,0.2181478943,-0.03223836475,0.1381583162,0.1814831203,0.01199315448,0,0,-0.396882314,0.1789556694,-0.007790542148,0.08052473258,-0.2272219755,0.2770340045,-0.4508838786,0.0391355925,0.08853181645,0.2272876088,-0.04901303391,0.1634916174
4,-0.7227112844,-0.8749810288,0.6284989056,0.04428040279,-0.02527786871,0.7585988855,0.6495598558,-0.2046521932,0.07072969636,0.006303425936,-0.2544435707,-0.03377267371,0.1268287271,0.5451715259,0.01753541657,0,0,0.220995771,-0.03661039347,0.1383681391,0.1808186612,0.01190640758,0,0,-0.4043281899,0.1795550189,-0.003685439837,0.08153029824,-0.2339436508,0.278486668,-0.4527455589,0.03593715638,0.1119856123,0.1890491775,-0.04427589241,0.1766855403
4.033333333,-0.7219925784,-0.866588518,0.6282146288,0.04311882503,-0.0238447218,0.7584376402,0.649880406,-0.2093344426,0.07237543351,0.002131699479,-0.2572731238,-0.03833436838,0.1254418511,0.5465482148,0.01773179534,0,0,0.2232824888,-0.03957952621,0.1377586291,0.1795536514,0.01154120581,0,0,-0.4123899666,0.1802251419,0.001360573678,0.08181896819,-0.2400413585,0.2798385506,-0.4548649726,0.03269387267,0.1325938605,0.1551398712,-0.04017153738,0.1883728255
4.066666667,-0.7213122818,-0.8580633057,0.6278355437,0.04194063128,-0.02242851651,0.758240722,0.6502376124,-0.2129971483,0.0739736484,-0.001603976432,-0.2597059207,-0.04155941973,0.1238539014,0.5475446381,0.0178785491,0,0,0.2250161355,-0.04135028561,0.1365341458,0.177714785,0.01091346038,0,0,-0.4211013979,0.1809675507,0.007239554897,0.0817422487,-0.2455418162,0.2811516856,-0.4575196567,0.02935947694,0.1489067709,0.1269937381,-0.03666327472,0.1982263943
4.1,-0.7206493396,-0.8494216021,0.6274617462,0.04104006032,-0.02137788204,0.7581213493,0.6504696145,-0.2157182899,0.07542021063,-0.004728479299,-0.2616947991,-0.04301020385,0.1222216082,0.5482356177,0.01795995231,0,0,0.2262434472,-0.04226124872,0.1349016908,0.1753422902,0.01005793801,0,0,-0.4304635524,0.1817934399,0.01370062635,0.08176317942,-0.2504871768,0.2824682962,-0.4607878833,0.02601224672,0.1600846794,0.1057203853,-0.03372679107,0.2059563736
4.133333333,-0.7199873499,-0.8406897696,0.6271031268,0.04048614591,-0.02075757029,0.7581367368,0.6505064824,-0.217633259,0.07668776835,-0.007160268486,-0.2631689723,-0.04258375532,0.1206701218,0.5486804142,0.01796503402,0,0,0.2270434868,-0.04263832369,0.1330500577,0.1725003642,0.009019053048,0,0,-0.440428695,0.182711327,0.02044856681,0.08232927847,-0.2549514435,0.2838101047,-0.4645380245,0.02280115403,0.1660865538,0.09179465411,-0.03133362404,0.2113656256
4.166666667,-0.7193151273,-0.8318884263,0.626767741,0.04015907722,-0.02036575804,0.7582403856,0.6504183285,-0.2189146324,0.07781568778,-0.008912117857,-0.26403614,-0.04050946995,0.1192966123,0.5489152624,0.01789689272,0,0,0.2275145141,-0.04271545545,0.1311337926,0.169285316,0.007844214026,0,0,-0.4508891945,0.1837146382,0.02726402421,0.08374921953,-0.2590401912,0.2851889867,-0.4685065868,0.01986152259,0.1676014123,0.08494155157,-0.02941952351,0.214404396
4.2,-0.7186227411,-0.8230195149,0.626459836,0.03994644177,-0.02001367765,0.7583694477,0.6502918693,-0.2197419434,0.07888496213,-0.01008198137,-0.2641965553,-0.03728824159,0.1181756481,0.5489471378,0.01777637563,0,0,0.2277570488,-0.04262123544,0.1292598376,0.1658214326,0.006577585707,0,0,-0.4616898028,0.1847769375,0.03407864845,0.08613888943,-0.2628673491,0.2866166187,-0.4724125588,0.01724177627,0.1657559395,0.08427418338,-0.02785766696,0.215194464
4.233333333,-0.7178987348,-0.8140671733,0.6261781017,0.03983414954,-0.01968015931,0.7585386915,0.6501115177,-0.2202670629,0.07998691139,-0.01083823119,-0.2635657396,-0.03358952715,0.1173623708,0.5487538204,0.01763745787,0,0,0.2278580803,-0.04240843925,0.1274827256,0.1622432757,0.005254197731,0,0,-0.4726666509,0.18585576,0.04096615421,0.08946029351,-0.2665238707,0.2881050321,-0.4760426304,0.0148804378,0.1617344133,0.08861979731,-0.02646097517,0.2140008521
4.266666667,-0.7171311072,-0.8050095294,0.625917127,0.0398336583,-0.01942062784,0.7587962718,0.6498186953,-0.2205846489,0.08119363048,-0.01139831124,-0.2620968974,-0.03012871141,0.1168926416,0.5482930219,0.01751693174,0,0,0.2278801361,-0.04209620078,0.1258147091,0.1586703022,0.003898172013,0,0,-0.4836922877,0.1869021211,0.04806630734,0.09362037594,-0.2700576686,0.2896594084,-0.4792724204,0.01264629729,0.1564794199,0.09687759566,-0.0250225574,0.2111537273
4.3,-0.7163097089,-0.7958295593,0.6256708792,0.03990594905,-0.01924737415,0.759120939,0.6494401079,-0.220716477,0.08253581229,-0.01199575523,-0.259793332,-0.02754589864,0.1167805398,0.5475174664,0.01744345626,0,0,0.2278562731,-0.04170126559,0.1242479877,0.155183483,0.002527783496,0,0,-0.4946955057,0.1878707366,0.05550163276,0.09856582259,-0.2734732775,0.2912710113,-0.4820363701,0.01041336231,0.1505836261,0.1082453248,-0.02337576646,0.206954788
4.333333333,-0.7154273566,-0.7865179319,0.6256459532,0.03999399664,-0.01914247848,0.7594383146,0.6490666314,-0.2206136693,0.08399086893,-0.0128325933,-0.2567051064,-0.02630240338,0.117014225,0.546388359,0.01742993821,0,0,0.2277904338,-0.04124913585,0.12277538,0.1518129715,0.001164362075,0,0,-0.5056425882,0.1887250769,0.06334360884,0.1043218054,-0.2767472516,0.2929179558,-0.4842857497,0.008114101797,0.1443731009,0.122233907,-0.02143376202,0.2016187741
4.366666667,-0.7144708444,-0.7770535606,0.6257913927,0.04006980444,-0.01911434,0.7597105844,0.6487440795,-0.2201741877,0.08548181622,-0.01402345639,-0.2529106849,-0.02660779283,0.1175525223,0.5448804407,0.01747090043,0,0,0.2276626402,-0.04076881044,0.1213952314,0.1485408976,-0.0001616626915,0,0,-0.5164790007,0.1894148099,0.0716992299,0.1110415979,-0.2798370353,0.2945775737,-0.4858955303,0.005703652999,0.1381734707,0.1386359016,-0.01911396224,0.195216312
4.4,-0.7134231447,-0.7674101016,0.6258669516,0.0400944838,-0.01918469221,0.7598971514,0.6485219342,-0.2192675894,0.08688607977,-0.01554832752,-0.2484910583,-0.02838838225,0.1183262525,0.5429773973,0.01754470406,0,0,0.2274383981,-0.04028056659,0.1200987187,0.1453166224,-0.001411946044,0,0,-0.5271183149,0.1898636651,0.08074212896,0.1189185679,-0.2826682127,0.2962115106,-0.4867116332,0.003103834439,0.1324728787,0.1570006673,-0.01631785546,0.1879203082
4.433333333,-0.7122759108,-0.7575825413,0.625816099,0.04003529215,-0.01938257219,0.7599625128,0.6484431128,-0.2177577529,0.08805263436,-0.01723419024,-0.2435073333,-0.03130358512,0.1192483243,0.5406629947,0.01761974386,0,0,0.2270802072,-0.03978514512,0.1188523092,0.1420773682,-0.0025474921,0,0,-0.537482827,0.19,0.09061587908,0.1281427091,-0.2851259342,0.29776002,-0.4866594645,0.0002708548186,0.1275967869,0.1767304995,-0.01307523978,0.1800091772
4.466666667,-0.7110250152,-0.7475795436,0.6255969474,0.03988296058,-0.01975126336,0.7599024203,0.6485117953,-0.2155175911,0.088824105,-0.01877828489,-0.2379899983,-0.03480810654,0.1202334854,0.5379163151,0.01766366638,0,0,0.2265569533,-0.03925812695,0.1175921099,0.1387672998,-0.003537061324,0,0,-0.5474787201,0.1897513054,0.1014606357,0.1389844155,-0.2870504889,0.299159129,-0.4856935449,-0.002796887766,0.1236670849,0.1973780079,-0.009543784018,0.1717106267
4.5,-0.7096709553,-0.7374254692,0.6251832693,0.03965714795,-0.02034468317,0.7597515718,0.6486840167,-0.2124352527,0.08905854062,-0.01981147231,-0.2319411825,-0.03824900265,0.1212233611,0.5347159605,0.01765377613,0,0,0.2258461396,-0.03864884202,0.1162380471,0.1353517424,-0.004361772539,0,0,-0.5569733197,0.1890449883,0.1134174388,0.1517842698,-0.2882444633,0.3003578604,-0.4837966134,-0.006067485191,0.1206267483,0.2186273189,-0.006010828962,0.163186316
4.533333333,-0.7082188694,-0.7271597545,0.6245654773,0.03940441521,-0.02121838466,0.7595786038,0.6488739607,-0.2084154502,0.08864600088,-0.01998613722,-0.2253460246,-0.04098075475,0.1222081729,0.5310501889,0.01758470782,0,0,0.2249268928,-0.03788228362,0.1147226588,0.1318269806,-0.005013884029,0,0,-0.5657734816,0.1878082941,0.1266350404,0.1669259743,-0.2884851844,0.3013414139,-0.4809771647,-0.009497135117,0.1182868811,0.2402477116,-0.002869603709,0.1545294243
4.566666667,-0.7066784405,-0.716833385,0.6241765524,0.03918514301,-0.02241527303,0.7594661302,0.6489786416,-0.2033806106,0.08751781922,-0.01906425681,-0.2181882415,-0.04247887233,0.1232366194,0.5269244829,0.01746897378,0,0,0.2237680163,-0.0368657833,0.1130210221,0.1282269546,-0.005491615485,0,0,-0.5736118794,0.1859676638,0.141273315,0.1847980748,-0.2875420793,0.3021569648,-0.4772643759,-0.01305773938,0.1163844036,0.2620345263,-0.0005710390698,0.1457743707
4.6,-0.705063982,-0.7065029402,0.6241044828,0.03904860125,-0.02394905296,0.7594778399,0.6489183773,-0.1972756154,0.08564909176,-0.01698079091,-0.2104651963,-0.04243157748,0.1244102674,0.5223599055,0.01732942218,0,0,0.2223196593,-0.03550460623,0.1111682945,0.1246260674,-0.005794396324,0,0,-0.5801471428,0.1834478001,0.157497757,0.205752978,-0.2851982272,0.3029368926,-0.472699454,-0.01676060151,0.1146379777,0.28375422,0.0004415286474,0.1369155313
4.633333333,-0.7033947767,-0.6962233999,0.6240821241,0.03900234552,-0.02579139755,0.7596218503,0.6486819447,-0.190078383,0.08305603903,-0.01386561031,-0.2021967505,-0.04079060979,0.1258648623,0.5173827698,0.01718761741,0,0,0.2205151617,-0.03372662853,0.1092574834,0.1211358296,-0.005922343067,0,0,-0.5849811872,0.1801705116,0.175462142,0.2300721192,-0.2812750133,0.3039132666,-0.4673232415,-0.0206667842,0.1127919215,0.3051079065,-0.0001972758459,0.1279303551
4.666666667,-0.7016953499,-0.6860413254,0.6241090571,0.03899028059,-0.02786965526,0.7598271668,0.6483561652,-0.1818158661,0.07978961801,-0.01002011592,-0.1934228046,-0.03776888216,0.1277440913,0.5120126012,0.01705468344,0,0,0.2182834281,-0.03150819834,0.1074187371,0.1178954246,-0.005880239981,0,0,-0.5876931908,0.1760532076,0.1952803326,0.2579437923,-0.2756583838,0.3054176995,-0.461161263,-0.02487859742,0.1106422501,0.3257215401,-0.002713458201,0.1188019757
4.7,-0.6999950428,-0.6759899784,0.6241776528,0.03889589966,-0.03007870155,0.7599510514,0.6481178753,-0.1725810394,0.0759264733,-0.005857171663,-0.1841902479,-0.03378491641,0.1301711994,0.5062566222,0.01692965263,0,0,0.2155661941,-0.02888985052,0.1057892658,0.1150604236,-0.005682298743,0,0,-0.5878854578,0.1710069123,0.2169922011,0.2894558689,-0.2683247753,0.3078624408,-0.4542088874,-0.02951286173,0.1080443235,0.345163092,-0.007153837865,0.109537117
4.733333333,-0.6983262384,-0.6660874337,0.6242741955,0.03857770665,-0.03230392615,0.7598233118,0.6481795675,-0.1625438851,0.07155895829,-0.0018207632,-0.1745378554,-0.02936785581,0.1332228831,0.5001149006,0.01680551088,0,0,0.212331287,-0.02597637885,0.1044864842,0.1127945079,-0.005352462107,0,0,-0.5852330366,0.1649340134,0.2405314099,0.3246008851,-0.2593643864,0.311701708,-0.4464203681,-0.03466292961,0.1049062848,0.362980025,-0.01337599374,0.1001764994
4.766666667,-0.6967209984,-0.6563379277,0.624381771,0.03792548359,-0.03444608947,0.7593124314,0.6487062172,-0.1519506502,0.06678646269,0.001696698887,-0.1644896677,-0.02504717883,0.1369095444,0.4935945077,0.01667794499,0,0,0.2085744022,-0.022925777,0.1035937722,0.1112645482,-0.004917426269,0,0,-0.5795274314,0.1589179029,0.2657034081,0.3632874166,-0.2489991185,0.3185676268,-0.4377056387,-0.04036071119,0.1011752005,0.3787461005,-0.02106974312,0.09079669799
4.8,-0.6952065729,-0.6467358276,0.6244840766,0.03691074998,-0.03643742317,0.7583816494,0.6497439376,-0.1411092677,0.06170890847,0.004424111115,-0.1540608245,-0.02125437768,0.1411660357,0.4867274647,0.01655074982,0,0,0.2043087333,-0.01993613678,0.1031602083,0.1106338972,-0.004394904774,0,0,-0.570705596,0.1535254284,0.2921801252,0.4053505154,-0.2375923113,0.3295074702,-0.4279375382,-0.0465505912,0.09682293323,0.3921059345,-0.02980521282,0.08150413107
4.833333333,-0.6938009066,-0.6372709436,0.6245690335,0.03560483206,-0.038243403,0.7571042402,0.6512011268,-0.1303619151,0.05642104158,0.006256047502,-0.1432705537,-0.01825879785,0.1458565447,0.4795868851,0.01643547044,0,0,0.1995499402,-0.0172348308,0.1032082059,0.1110476241,-0.003784159697,0,0,-0.5588584189,0.1476307833,0.3195139401,0.4505555249,-0.2256474191,0.343739635,-0.4169697016,-0.05308387229,0.09183665187,0.4028083764,-0.03909720523,0.07242325682
4.866666667,-0.6925095496,-0.6279336272,0.6246311999,0.03415531763,-0.0398528754,0.7556283583,0.6528942845,-0.1200476871,0.05100615631,0.00726262125,-0.132152966,-0.0161483407,0.1507947375,0.4722967815,0.01634645592,0,0,0.1943066589,-0.01506618207,0.1037404432,0.1126082547,-0.003065350778,0,0,-0.544217256,0.1399352479,0.3471686608,0.498593156,-0.2137931598,0.36011333,-0.4046623284,-0.05973634233,0.08621562929,0.4107242877,-0.04847283416,0.06368193254
4.9,-0.6913250827,-0.6187182675,0.6246724452,0.03273491223,-0.04126506608,0.7541106106,0.6546318101,-0.1104606156,0.04553048795,0.007662724027,-0.1207598648,-0.01485236192,0.1557754447,0.4650316997,0.01629337691,0,0,0.1885818892,-0.0136710101,0.104740139,0.1153480924,-0.002208967766,0,0,-0.5271214985,0.1292034618,0.3745609277,0.5490679079,-0.2027535805,0.3773030143,-0.3909104403,-0.06624479529,0.07997297344,0.4158488609,-0.05752984713,0.05539713194
4.933333333,-0.6902293768,-0.6096243516,0.6247009172,0.03148980708,-0.0424817792,0.7526549734,0.6562881848,-0.1018112984,0.04004143766,0.007769118619,-0.1091564851,-0.01419449944,0.1606100353,0.4580030616,0.01627392875,0,0,0.1823825364,-0.01325596261,0.1061647783,0.1192089995,-0.001190929047,0,0,-0.5079734907,0.1145206788,0.4011030109,0.6014852772,-0.1933030334,0.394049909,-0.3756680696,-0.07235304592,0.07313926867,0.4182917996,-0.06597632582,0.04766383036
4.966666667,-0.6891980618,-0.600655027,0.6247288179,0.03050983688,-0.04350767487,0.7512875574,0.6578322265,-0.09420190501,0.03457181357,0.007921883727,-0.09741459978,-0.01395986559,0.1651569869,0.4514321606,0.01627126559,0,0,0.1757293593,-0.01395791363,0.1079400088,0.1240396651,-6.560529704e-06,0,0,-0.4871886018,0.09552353374,0.4262381806,0.6552446269,-0.186208226,0.4094065235,-0.3589626212,-0.07785573192,0.0657651575,0.4182598206,-0.07364747915,0.04054895247
5,-0.688205871,-0.5918138623,0.6247697292,0.02982599844,-0.0443552013,0.7499727931,0.6593055707,-0.08762081772,0.02914945421,0.008426943818,-0.08560590118,-0.0139616876,0.1693409876,0.4455155357,0.01626012932,0,0,0.1686606476,-0.01581409185,0.1099632445,0.1296150684,0.001322045037,0,0,-0.4651478523,0.07254847426,0.4494625792,0.7096437454,-0.1821620217,0.4229263059,-0.3408962413,-0.08262941289,0.05792131604,0.4160353048,-0.08050053396,0.03409100707
5.033333333,-0.6872313631,-0.5831010252,0.6248361866,0.02942580695,-0.04504783848,0.7486517938,0.6607762902,-0.08195531262,0.02380882285,0.009510666977,-0.07379561412,-0.01409391387,0.1731562744,0.440393009,0.01622005142,0,0,0.1612282349,-0.01874935105,0.1121220246,0.1356755338,0.002747560125,0,0,-0.4421587549,0.04664650506,0.4703318575,0.7638984354,-0.1817159947,0.4347399806,-0.3216345628,-0.08664442775,0.04969620856,0.4119533625,-0.08659290185,0.02830465745
5.066666667,-0.6862599263,-0.5745102196,0.6249379528,0.02927267678,-0.04561711533,0.7472759851,0.6622996235,-0.07701486971,0.0185995617,0.01129585814,-0.06203581314,-0.01435838351,0.1766534643,0.4361276484,0.01614747289,0,0,0.1534890182,-0.0225873878,0.1143223353,0.1419749274,0.004206519224,0,0,-0.4184277886,0.01918660527,0.4884553156,0.8171768363,-0.1852202292,0.4452306318,-0.3013865209,-0.08995620667,0.04119347121,0.4063780758,-0.09205098205,0.02318828644
5.1,-0.6852847642,-0.5660274236,0.6250811298,0.0293209161,-0.04609349513,0.7458201287,0.6639036144,-0.07255868688,0.01358800056,0.01380093987,-0.05035957328,-0.01485961868,0.1799140323,0.4327009887,0.01605813587,0,0,0.1454959482,-0.02708455599,0.1165141763,0.1483222302,0.005631565815,0,0,-0.394045941,-0.009048205709,0.5034835223,0.86864468,-0.1927788953,0.4542006219,-0.2803810039,-0.09267967157,0.03253106367,0.3996779412,-0.09703698579,0.01873191879
5.133333333,-0.6843063606,-0.5576318251,0.6252679908,0.02952539298,-0.04649546231,0.7442762603,0.6655969287,-0.06832531924,0.008851806747,0.01695895503,-0.03877806475,-0.01576794991,0.1830204959,0.4300207579,0.01597804848,0,0,0.1372910146,-0.03197676555,0.1187015332,0.1546030491,0.00696146781,0,0,-0.3689873901,-0.03733213422,0.515096558,0.9175151792,-0.2042285007,0.4614614761,-0.258846349,-0.09495381104,0.02384326087,0.3922007715,-0.1017195134,0.01492288958
5.166666667,-0.6833314081,-0.5492985956,0.6254972734,0.0298482716,-0.04682248862,0.7426403377,0.667384495,-0.06406366009,0.004472313457,0.02064531249,-0.02728216725,-0.01726105478,0.1860314024,0.4279357515,0.01592929292,0,0,0.1289017382,-0.03702505271,0.1209310887,0.1607781039,0.008146225232,0,0,-0.3431206034,-0.06485875989,0.5229990449,0.963096279,-0.2191426144,0.4670179483,-0.2369971407,-0.09690493004,0.01528455267,0.3842492616,-0.1062511201,0.0117474596
5.2,-0.6823721502,-0.5410025534,0.6257646817,0.03026388483,-0.04705517285,0.7409023515,0.6692784275,-0.05956202705,0.0005290245756,0.02469920235,-0.01584956061,-0.0194616331,0.188968238,0.4262539245,0.01591904639,0,0,0.1203419722,-0.042046429,0.1232639731,0.1668669874,0.009149035327,0,0,-0.3162306049,-0.09080168451,0.5269255891,1.00482865,-0.2368629552,0.471037344,-0.2150299537,-0.09861651454,0.007032453431,0.3760595715,-0.1107536404,0.009187997795
5.233333333,-0.6814465889,-0.5327215897,0.6260634392,0.03076015499,-0.0471608575,0.7390435509,0.6713004516,-0.05467004996,-0.002903674025,0.02892899931,-0.004457652119,-0.0223908749,0.1918167065,0.4247631864,0.01593624263,0,0,0.1116161671,-0.0469240981,0.1257432393,0.1729293979,0.009948604979,0,0,-0.2880505914,-0.1143819085,0.5266570544,1.04230977,-0.2565529072,0.4737975377,-0.1931264756,-0.1001115795,-0.0007148952929,0.3677860464,-0.1153102379,0.007216966404
5.266666667,-0.6805792971,-0.5244390488,0.6263848696,0.03133420822,-0.04709856018,0.7370388443,0.6734787561,-0.04930892863,-0.005761052715,0.0331045007,0.006899787118,-0.0259511962,0.194538885,0.4232560122,0.01595516529,0,0,0.1027242581,-0.05160060488,0.1283724339,0.1790514852,0.01054266709,0,0,-0.2583003559,-0.1349321184,0.5220451248,1.07530215,-0.2772665851,0.4756265324,-0.1714598149,-0.1013504155,-0.007749895277,0.3594951794,-0.1199623029,0.005790227046
5.3,-0.6798019818,-0.5161448923,0.6267190819,0.03198187725,-0.04681716596,0.7348615938,0.6758429925,-0.04346878342,-0.00799576145,0.03695018317,0.01819849067,-0.02993961282,0.1970888507,0.4215564225,0.01594297183,0,0,0.09366368657,-0.05606244259,0.1311146824,0.1853370637,0.01094958677,0,0,-0.2267281689,-0.151947967,0.5130405146,1.103726525,-0.2980250221,0.4768463856,-0.1501985568,-0.1022434281,-0.01387670056,0.3511709459,-0.1247093904,0.004842674735
5.333333333,-0.679152756,-0.5078360981,0.6270558499,0.03268457436,-0.04624738923,0.7324897795,0.6784184701,-0.03719549705,-0.009587000981,0.04015587233,0.02937960547,-0.03408256477,0.1994250799,0.4195437282,0.01586909034,0,0,0.08442682672,-0.06032354929,0.133909368,0.1918978075,0.01120426098,0,0,-0.1931520891,-0.1651184959,0.4997192284,1.127642961,-0.3178909943,0.4777313231,-0.1295037579,-0.1026758156,-0.01894034467,0.3427318055,-0.1295111104,0.004288692306
5.366666667,-0.6786733873,-0.4995169853,0.627385704,0.0334003477,-0.04529748247,0.7299132689,0.681218889,-0.03057181641,-0.0105487518,0.0424131799,0.04035887854,-0.03808033585,0.201517263,0.4171666944,0.01571562933,0,0,0.07499600521,-0.06441156668,0.1366931976,0.1988360471,0.01134869585,0,0,-0.1574963066,-0.1743317889,0.4823014392,1.147223922,-0.3360351449,0.4784849598,-0.109516519,-0.1025385885,-0.02285838843,0.3340573405,-0.1342908613,0.004028535631
5.4,-0.6784045007,-0.4911998579,0.6277011144,0.03406622274,-0.04386670876,0.7271405555,0.6842381288,-0.02369711173,-0.01093648541,0.0434739817,0.05104581346,-0.0416525725,0.2033494182,0.4144453393,0.01548641244,0,0,0.06534173917,-0.06835785518,0.1394123282,0.2062188104,0.01142248162,0,0,-0.1198182037,-0.1796568736,0.4611586318,1.162723318,-0.3517879428,0.4792361975,-0.09033739956,-0.1017592809,-0.02564775741,0.3250202259,-0.1389421178,0.003959944474
5.433333333,-0.6783795341,-0.4829056935,0.6279975281,0.03461453829,-0.04188243206,0.7242017934,0.687444149,-0.01666757963,-0.01085152067,0.04321739751,0.06136572702,-0.04457913248,0.2049226894,0.4114613995,0.01520954229,0,0,0.05542896293,-0.072190818,0.1420216461,0.2140500449,0.01145825748,0,0,-0.08032241501,-0.181307562,0.4368063585,1.174444733,-0.3646740931,0.4800489319,-0.07200261713,-0.1003258644,-0.02743961455,0.3155176634,-0.1433382992,0.00399259899
5.466666667,-0.6786188678,-0.4746639718,0.6282739748,0.03499817686,-0.03934880704,0.7211456515,0.6907790879,-0.009556986519,-0.0104394986,0.04170615403,0.07127746882,-0.04673020017,0.2062594287,0.4083396288,0.01492932677,0,0,0.04523024487,-0.07593196701,0.1444775387,0.2222539808,0.01148274154,0,0,-0.03935932857,-0.1795971034,0.4098819839,1.18271087,-0.3744279424,0.4809381608,-0.05446438989,-0.09829888697,-0.02847739235,0.3054961381,-0.1473468476,0.004062019888
5.5,-0.6791256842,-0.4665105851,0.6285330341,0.03521297396,-0.03638019068,0.7180305411,0.6941676096,-0.00239981846,-0.009878572627,0.03921255046,0.0807813265,-0.04807967373,0.2074059944,0.4052221327,0.01468926459,0,0,0.03473901017,-0.07959466231,0.1467337562,0.2306808667,0.01152030169,0,0,0.002592807743,-0.1748934073,0.3811088602,1.187835408,-0.3809900417,0.4818848496,-0.03758292437,-0.09580945532,-0.02909675069,0.2949646615,-0.1508470517,0.004139431454
5.533333333,-0.6798847075,-0.458483298,0.6287801208,0.03530530587,-0.03319432542,0.7149137714,0.697531341,0.004818058643,-0.00935613087,0.03619985151,0.08991476913,-0.04869925865,0.2084290541,0.4022394829,0.01451417237,0,0,0.02397497056,-0.08318541611,0.1487455689,0.2391367669,0.0115953518,0,0,0.04496082636,-0.1675830224,0.3512502151,1.190098062,-0.384486392,0.4828438128,-0.02113513535,-0.09304378303,-0.02969010394,0.2839943824,-0.1537496622,0.004234971704
5.566666667,-0.6808641237,-0.4506152514,0.6290222345,0.03536010821,-0.03006125283,0.7118428009,0.7008036891,0.01215586993,-0.00903840103,0.03325661534,0.09873805334,-0.04873595861,0.2094035098,0.3994850015,0.01440122153,0,0,0.01297837196,-0.08670659463,0.1504801849,0.2474273814,0.01173035257,0,0,0.08712093407,-0.1580486015,0.3210574058,1.189723802,-0.3851931098,0.4837422147,-0.004840863409,-0.09021788382,-0.03066141506,0.2727058569,-0.1560149499,0.004393182143
5.6,-0.6820200334,-0.4429280555,0.6292664586,0.03547485963,-0.02723032069,0.7088509501,0.7039391838,0.01970018035,-0.009041916885,0.03099601235,0.1073159385,-0.04837906283,0.2103971163,0.3969995745,0.01432491117,0,0,0.001795390986,-0.09015795933,0.1519267599,0.2553989556,0.01193810471,0,0,0.1284486482,-0.1466603091,0.2912179659,1.186867499,-0.3834903646,0.4844701112,0.01159748335,-0.08754787771,-0.03237854382,0.261248337,-0.1576651646,0.004681516743
5.633333333,-0.6833020957,-0.4354265339,0.6295185336,0.03573142342,-0.02487023854,0.7059574679,0.7069149808,0.0275367515,-0.009416742062,0.02994417817,0.115703476,-0.04782316173,0.2114597345,0.394771562,0.01425263141,0,0,-0.009538570339,-0.09353439368,0.153099766,0.2629617101,0.01221162967,0,0,0.1683675357,-0.1337777889,0.2623089907,1.181605336,-0.3798103638,0.4848676592,0.02844969671,-0.08522187248,-0.03513045457,0.2497771171,-0.1587877903,0.005174215092
5.666666667,-0.6846588538,-0.4280968365,0.6297817731,0.03617640709,-0.02304686274,0.7031702782,0.7097264752,0.03571906497,-0.01014783386,0.03044567301,0.1239413439,-0.04723309364,0.2126212036,0.3927506026,0.01416147216,0,0,-0.02100923892,-0.09681997114,0.1540336274,0.2700918406,0.01251922742,0,0,0.206390091,-0.119756922,0.2347609322,1.173934021,-0.3745846874,0.4847153431,0.04591628688,-0.08337847886,-0.03909534962,0.2384347209,-0.1595276653,0.005934911935
5.7,-0.68604411,-0.4209002627,0.6300585885,0.03679615496,-0.02171441429,0.7004785267,0.7123934031,0.04424184398,-0.0111749006,0.03260793171,0.1320603614,-0.04671667911,0.2138956532,0.3908685451,0.01404749933,0,0,-0.03262176012,-0.09998318728,0.1547714201,0.2768191715,0.0128108991,0,0,0.2423742941,-0.1049908739,0.208664579,1.1639828,-0.3682426728,0.4838193539,0.06401877031,-0.08203735179,-0.04420435015,0.2273076821,-0.1600647956,0.006967564559
5.733333333,-0.6874270102,-0.4138086634,0.630351097,0.03755350205,-0.02075638559,0.6978724917,0.7149355861,0.05302797482,-0.01242447393,0.03629335854,0.1400892961,-0.04631099416,0.2152866793,0.3890586549,0.01392426669,0,0,-0.04438745121,-0.102980297,0.1553534799,0.2832102557,0.0130349922,0,0,0.2763087001,-0.08974303172,0.1839978403,1.151879576,-0.3610567546,0.4820757149,0.08273281127,-0.08118738744,-0.05035533227,0.2164466816,-0.1605115421,0.008259866645
5.766666667,-0.6887816929,-0.4067968609,0.6306589313,0.03846939868,-0.02009863774,0.6953716658,0.7173384115,0.06193467997,-0.01384209079,0.04115480209,0.1480586699,-0.0459856797,0.2167887464,0.3872669854,0.01381335609,0,0,-0.05630514334,-0.1057696284,0.1558112825,0.2893515744,0.01315687059,0,0,0.3079622209,-0.07419189608,0.160908309,1.137514001,-0.3532198889,0.4793099912,0.1021167492,-0.08087091341,-0.05757568422,0.2059160455,-0.1609888034,0.009842134621
5.8,-0.6900834479,-0.3998215982,0.6309774446,0.03956518977,-0.01983070619,0.6929726198,0.7196042573,0.07077868379,-0.01541125774,0.04670314581,0.1559968165,-0.04566185267,0.2183844282,0.3854553539,0.01373335839,0,0,-0.06834525145,-0.1083313118,0.1561678088,0.2953327926,0.01317046665,0,0,0.33712328,-0.05858346292,0.1394785344,1.12068608,-0.3449294054,0.4752220913,0.1221577558,-0.08109236731,-0.06581502694,0.1957630084,-0.161685167,0.0117274541
5.833333333,-0.6913033193,-0.3928362673,0.6312949858,0.04070077043,-0.01998200355,0.6906115789,0.7218031684,0.07937306145,-0.01715271432,0.05239340744,0.1639204363,-0.04524069004,0.2200414485,0.3835989704,0.0136937762,0,0,-0.08044310926,-0.1106808972,0.1564404993,0.3012300763,0.01309850653,0,0,0.3636622092,-0.04325584404,0.119617787,1.101094281,-0.3363150103,0.4693506945,0.1427011922,-0.08179035105,-0.07486724407,0.186029905,-0.1628159715,0.01387216317
5.866666667,-0.6924026638,-0.3858046994,0.6315951231,0.0416022381,-0.02028027042,0.6882474443,0.7239982181,0.08756411302,-0.01910831931,0.05771366109,0.1718262557,-0.04463497695,0.2217142201,0.3816813275,0.01369647686,0,0,-0.09250386822,-0.1128675097,0.1566412488,0.3070914762,0.01298316133,0,0,0.387569719,-0.02860650433,0.101002587,1.078353857,-0.3273497428,0.4611369681,0.1634310549,-0.08283668831,-0.08434497589,0.1767751898,-0.1645450865,0.01615504972
5.9,-0.6933361211,-0.3786998996,0.6318573953,0.04214263979,-0.02034360444,0.6859793068,0.7261146785,0.09525674259,-0.02131965138,0.06225979037,0.1796899751,-0.04379835041,0.2233510693,0.3796879221,0.01374150395,0,0,-0.1044160405,-0.1149562504,0.1567715754,0.3129273889,0.01287202966,0,0,0.4089604968,-0.01501361106,0.08311841945,1.052051665,-0.3177766018,0.4500792999,0.1839179935,-0.08406766847,-0.09373600325,0.1680798591,-0.1669192504,0.01839622782
5.933333333,-0.6940645913,-0.3714935466,0.6320601386,0.04249528806,-0.02007365758,0.6839713876,0.7279933652,0.1024216848,-0.02380958083,0.06578277701,0.1874735466,-0.04274672979,0.2249039405,0.3776012895,0.01383078604,0,0,-0.1160673997,-0.1170036661,0.1568168799,0.3187087125,0.01280461454,0,0,0.4280390852,-0.002746274372,0.06540125146,1.021836001,-0.3070911697,0.4359079957,0.203722265,-0.08533696235,-0.1025310083,0.1600316408,-0.1698542203,0.02041507389
5.966666667,-0.6945726278,-0.3641537345,0.6321858196,0.04289107515,-0.01971574985,0.6822097575,0.7296310654,0.1090854208,-0.02657106194,0.06820352837,0.1951359155,-0.04156470033,0.2263360826,0.3753999738,0.01396547276,0,0,-0.1273578409,-0.119038225,0.1567463598,0.3243735068,0.01280323713,0,0,0.4450315111,0.008100301802,0.04741347004,0.9875213485,-0.2946160867,0.4186870433,0.2225133015,-0.08656693397,-0.1103684931,0.152697486,-0.1731724758,0.02209887156
6,-0.694882565,-0.3566596781,0.6322270954,0.04326573191,-0.01952033696,0.6804432765,0.7312619096,0.1153096203,-0.02956516799,0.06959786075,0.2026404909,-0.04039082272,0.2276254528,0.3730613895,0.01413833094,0,0,-0.1382080048,-0.1210537475,0.1565225887,0.329840539,0.01287035374,0,0,0.4600982561,0.01761934352,0.02895852384,0.9491657667,-0.2796736661,0.398788481,0.2401555743,-0.08777457476,-0.1171237748,0.1461019145,-0.176660419,0.02344193853
6.033333333,-0.6950578263,-0.3490233901,0.6321899703,0.04327497919,-0.01946126494,0.6784777645,0.7330869378,0.1211690676,-0.03272890981,0.07015854682,0.209955722,-0.0393823302,0.2287639644,0.3705659293,0.01432734014,0,0,-0.1485655777,-0.1230163329,0.1561190883,0.33502656,0.01299198817,0,0,0.4732590337,0.02604586378,0.01006675879,0.9070763476,-0.2618133804,0.3767600514,0.2567200273,-0.0890602484,-0.1228957605,0.1402246646,-0.1801152882,0.02453299447
6.066666667,-0.6951888724,-0.3413000995,0.6320963604,0.0427003565,-0.01934633717,0.6764483309,0.7349966356,0.1267353683,-0.03599133198,0.07014379358,0.2170498545,-0.03866861777,0.2297529699,0.3679000655,0.01449693778,0,0,-0.1584100612,-0.1248792943,0.1555387453,0.3398635008,0.01314510563,0,0,0.4845293194,0.0337112801,-0.009111890528,0.861931769,-0.2411631819,0.353255546,0.2724649436,-0.09054422373,-0.1279500079,0.1349738357,-0.1833906405,0.0255070766
6.1,-0.6953533643,-0.3335591229,0.6319678136,0.04167039817,-0.01910582258,0.6746799679,0.7366854732,0.132068884,-0.0392938477,0.06982274584,0.223883966,-0.03830958039,0.2305954024,0.3650583254,0.01460859384,0,0,-0.1677537918,-0.1265984766,0.1548232717,0.3443113009,0.01330586152,0,0,0.4938422849,0.04085464999,-0.02848532466,0.8143502179,-0.2181939885,0.3287456222,0.287635637,-0.09231488732,-0.1325172113,0.1302679396,-0.1864130612,0.02646893727
6.133333333,-0.6956050391,-0.3258671815,0.6318150813,0.0405334334,-0.01887224069,0.6733841977,0.7379394295,0.1372158369,-0.04260795133,0.06942776832,0.2304081729,-0.03827551355,0.2312868831,0.362044979,0.01463557702,0,0,-0.1766365049,-0.1281421083,0.1540463628,0.3483626644,0.01345600602,0,0,0.5009415664,0.04754151837,-0.04811726858,0.7646628992,-0.1934586864,0.303481959,0.3023450418,-0.09443046942,-0.1367041988,0.126097342,-0.1891506155,0.027482848
6.166666667,-0.6959667998,-0.3182801312,0.6316410251,0.03963578013,-0.01884028854,0.6725033656,0.7387917648,0.1422056653,-0.04594201435,0.06912106667,0.2365649635,-0.03845762671,0.2318101947,0.3588751757,0.01457340013,0,0,-0.1851134584,-0.1294935218,0.1532912739,0.3520386928,0.0135856117,0,0,0.5055980527,0.05371685499,-0.06820566158,0.7131649017,-0.1677058293,0.2776696587,0.3166007868,-0.09689634789,-0.1405461526,0.1224779024,-0.1916207689,0.02858921775
6.2,-0.6964253917,-0.3108333183,0.631440547,0.03910446927,-0.01909586918,0.6718168067,0.7394378719,0.1470464995,-0.04933208509,0.06898071689,0.24230077,-0.03870409707,0.2321369615,0.3555736725,0.01444043703,0,0,-0.1932403348,-0.1306488021,0.1526228644,0.3553780525,0.0136913854,0,0,0.5076891736,0.05922012979,-0.08903276096,0.6601519259,-0.1417844793,0.251498689,0.3302952274,-0.09966723731,-0.144022725,0.1194423967,-0.1938846861,0.02981377026
6.233333333,-0.6969381532,-0.3035409884,0.6312046673,0.0387633801,-0.01957519797,0.6711235745,0.7400725368,0.1517208873,-0.05281967873,0.06900760215,0.2475822249,-0.03886455382,0.2322369199,0.3521696975,0.01426978454,0,0,-0.2010598455,-0.1316122576,0.1520675845,0.3584244698,0.01377202463,0,0,0.5072681625,0.06383289744,-0.1108802701,0.6059730556,-0.1165409382,0.2251659224,0.3432312944,-0.1026646971,-0.1470889951,0.1170258981,-0.1960269078,0.03117821274
6.266666667,-0.6974500744,-0.2964027395,0.6309261069,0.03821978945,-0.02014542345,0.6703154567,0.7408175202,0.1561862438,-0.05642674651,0.0691494676,0.2524093854,-0.0388247303,0.2320912202,0.3486899141,0.01409803823,0,0,-0.2085946071,-0.1323911487,0.1516096332,0.3612160685,0.01382441913,0,0,0.5046055238,0.06734326022,-0.1339381187,0.5510763336,-0.09272718655,0.1988872898,0.3551799667,-0.1058018679,-0.1497103571,0.115253481,-0.1981283524,0.03270839408
6.3,-0.6979147476,-0.2894106129,0.6306029608,0.03710296243,-0.02069039581,0.6693732003,0.7417107229,0.1603833693,-0.06013822077,0.06933297752,0.2568180602,-0.03852208548,0.2317042947,0.3451550751,0.01395632081,0,0,-0.2158482446,-0.1329903696,0.1512020873,0.363777238,0.01384391514,0,0,0.5001896698,0.06960554495,-0.1582311591,0.4960320967,-0.0709351794,0.1729073185,0.3659552626,-0.1090038598,-0.1518921222,0.1141351764,-0.2002450366,0.03443543028
6.333333333,-0.6983104352,-0.2825502265,0.6302390234,0.03532342408,-0.02113802203,0.6683849646,0.7426755542,0.1642524691,-0.06389687401,0.06949237175,0.2608682919,-0.03794358791,0.2311095839,0.3415848177,0.01386554844,0,0,-0.2228127336,-0.1334090787,0.1507851246,0.3661134069,0.01382828474,0,0,0.4946829247,0.07057603867,-0.1835762708,0.4415310874,-0.05156265941,0.1475116206,0.3754851698,-0.1122147393,-0.1536959403,0.113666884,-0.2024004917,0.03638654221
6.366666667,-0.6986442864,-0.2757941936,0.629841743,0.03314151644,-0.02145957668,0.6675356758,0.7435302603,0.1677518107,-0.06761014667,0.06958586822,0.264623083,-0.03711220939,0.230366796,0.3380084454,0.01383543232,0,0,-0.2294769619,-0.1336419301,0.1503029523,0.3682111479,0.01378195771,0,0,0.4888405043,0.07031633475,-0.2095706779,0.3883610369,-0.03480856512,0.1230390014,0.3838558585,-0.1153901469,-0.1552376114,0.1138325054,-0.2045913686,0.0385689187
6.4,-0.6989437333,-0.2690932436,0.6294195418,0.03096458271,-0.02167247561,0.666970572,0.7441248245,0.1708716808,-0.07116681933,0.06959695707,0.268126417,-0.03607000679,0.2295513199,0.3344737301,0.01386637353,0,0,-0.2358309849,-0.1336847445,0.1497148199,0.3700458133,0.0137169615,0,0,0.483408699,0.06896999571,-0.2356073155,0.3373654168,-0.02069236073,0.09988297285,0.3913129475,-0.1184834749,-0.1566658429,0.1146042984,-0.2067997962,0.0409570976
6.433333333,-0.6992407414,-0.2623743413,0.6289794477,0.02906308437,-0.02182439616,0.6666325043,0.7444999241,0.1736372983,-0.07445977951,0.06952384217,0.2713902413,-0.03486562494,0.2287392911,0.3310471041,0.01395337246,0,0,-0.2418624558,-0.1335403227,0.1489995171,0.3715948481,0.01364976703,0,0,0.4790213562,0.06672805821,-0.2609153023,0.289387739,-0.009090371976,0.07847411621,0.3982162988,-0.1214371314,-0.1581279612,0.1159429252,-0.2090053847,0.04349363138
6.466666667,-0.6995574978,-0.2555511961,0.6285252618,0.02747858253,-0.02194684083,0.6662932281,0.7448601197,0.1760997132,-0.0774078255,0.06936414028,0.2743966186,-0.03355190613,0.227993859,0.3278052267,0.0140900746,0,0,-0.2475453392,-0.1332194596,0.1481549935,0.3728511658,0.01359675476,0,0,0.4761121563,0.06379961867,-0.2846263513,0.2452080836,0.0002188479029,0.05924227383,0.4049604829,-0.1241860334,-0.1597340372,0.1178013452,-0.2111924658,0.04610323168
6.5,-0.699900022,-0.2485431786,0.6280566918,0.0261527887,-0.02203068443,0.6657823676,0.7453620057,0.1783211904,-0.07996814878,0.06910262947,0.2771150038,-0.03219393355,0.2273583529,0.3248225318,0.01427053688,0,0,-0.2528254216,-0.1327360978,0.1471955853,0.3738310641,0.01357203263,0,0,0.4748564427,0.060396984,-0.3058650683,0.2054819627,0.007508573014,0.0425648656,0.4118855755,-0.126670951,-0.1615323976,0.1201354568,-0.2133515011,0.04871070493
6.533333333,-0.7002612135,-0.2412921895,0.6275700685,0.02504654179,-0.02207014308,0.6651403208,0.7459718045,0.1803655683,-0.08213516268,0.06870691909,0.2795274119,-0.03088177618,0.2268596805,0.3221592719,0.01448791255,0,0,-0.2576108013,-0.1321007311,0.1461495835,0.3745741511,0.01358863449,0,0,0.4751512772,0.05673579559,-0.3238539264,0.1706908058,0.01306477942,0.02871287304,0.4192058878,-0.128851723,-0.1635051403,0.1229205152,-0.21547663,0.05125124256
6.566666667,-0.7006301397,-0.233769222,0.6270605402,0.02409301863,-0.02212236528,0.6645060175,0.7465667285,0.1823003705,-0.08392768934,0.06813056592,0.2816493617,-0.02973945407,0.2265207291,0.3198532431,0.01473185773,0,0,-0.261775297,-0.1313185986,0.145059553,0.3751359685,0.0136605168,0,0,0.4766359817,0.05304309287,-0.3380178427,0.1411089151,0.01715940919,0.01780968162,0.4269757845,-0.1307106054,-0.1655840094,0.1261683997,-0.2175635,0.05366860486
6.6,-0.7010019703,-0.22597035,0.6265247953,0.0231155373,-0.02228150787,0.6638990115,0.747132725,0.184207711,-0.08537014059,0.0673188877,0.2835353548,-0.02892338226,0.2263753596,0.3179181635,0.01498719355,0,0,-0.265176702,-0.1303961676,0.1439858332,0.3755762049,0.01380176113,0,0,0.4787488927,0.04956225004,-0.3480708256,0.1167871159,0.02003990507,0.009817897622,0.4350968592,-0.1322430165,-0.1676795862,0.1299388673,-0.2196111381,0.05590637238
6.633333333,-0.701383243,-0.2179080391,0.6259633249,0.02190840174,-0.02256613155,0.6631811555,0.747797798,0.1861922999,-0.08647404952,0.06621253782,0.2852649846,-0.0286076604,0.2264765841,0.316350532,0.0152346098,0,0,-0.2676836186,-0.1293520186,0.1430097794,0.375946542,0.01402171149,0,0,0.480811453,0.04654456178,-0.354066596,0.09755102218,0.02193718908,0.00456249237,0.4433576226,-0.1334405345,-0.1697131457,0.1343393074,-0.2216277473,0.0579027045
6.666666667,-0.701789903,-0.2096037584,0.6253816044,0.02043573252,-0.02285035899,0.6622265476,0.7486763263,0.1883742126,-0.08722659829,0.06474754895,0.2869160805,-0.02895721317,0.2268906054,0.3151430507,0.01545222295,0,0,-0.269200634,-0.1282227914,0.1422305684,0.3762820574,0.01431875655,0,0,0.4821282314,0.04422377486,-0.3563967501,0.0830128478,0.02309165864,0.001786143134,0.4514907098,-0.1342752288,-0.1716403839,0.1395119595,-0.2236351989,0.05959670443
6.7,-0.702240178,-0.2010838406,0.6247897581,0.01891404124,-0.02294829613,0.6610673173,0.749737045,0.1908628179,-0.08759167858,0.06285497661,0.2885384514,-0.03009184924,0.2276764294,0.3142986352,0.01561646822,0,0,-0.2696838676,-0.1270572684,0.1417514417,0.376598314,0.01467784155,0,0,0.4820892365,0.04277936194,-0.3557265728,0.07259912349,0.02379237601,0.001219579703,0.4592325003,-0.1346945733,-0.17345904,0.1456126124,-0.2256650762,0.06094664032
6.733333333,-0.7027479421,-0.1923769079,0.6242006699,0.01766949032,-0.02278948501,0.6598538792,0.7508403869,0.1937204103,-0.08752406026,0.06046508086,0.2901411119,-0.03204610799,0.2288581548,0.3138374507,0.01570215478,0,0,-0.2691439527,-0.1259005169,0.1416573245,0.3768934738,0.01507463859,0,0,0.4802590273,0.04230111888,-0.3528709444,0.06559902296,0.02441848042,0.002642113822,0.4663722037,-0.1346315438,-0.1751985565,0.1527873465,-0.2277428678,0.06195200143
6.766666667,-0.7033211408,-0.1835105444,0.6236273176,0.0169033369,-0.02249594766,0.658718991,0.7518626873,0.1969310741,-0.0869905822,0.0575191543,0.2916977225,-0.03473277881,0.2304001284,0.3137908061,0.01568374073,0,0,-0.2676378866,-0.1247774979,0.1419909708,0.3771527322,0.01548417416,0,0,0.4764375039,0.04276813551,-0.3486294974,0.06123531584,0.02546606693,0.005909924531,0.4727807534,-0.1340255621,-0.1768979762,0.1611526176,-0.2298642388,0.06266723246
6.8,-0.7039648404,-0.1745068988,0.6230803815,0.01655898401,-0.02224713658,0.6577169745,0.7527544396,0.2003877938,-0.08598899801,0.05398819292,0.29316434,-0.03792089321,0.2321940159,0.3141806507,0.01554094778,0,0,-0.2652545412,-0.1236856428,0.1427352819,0.3773523708,0.01588843527,0,0,0.4706801477,0.04405064952,-0.3436180036,0.05875177258,0.0275422207,0.01094303323,0.4784155729,-0.1328415486,-0.1785842893,0.1707801624,-0.2319731023,0.06319740812
6.833333333,-0.7046851921,-0.165379311,0.6225665014,0.01636583154,-0.02204170782,0.6568650288,0.7535082326,0.2039010665,-0.08455670333,0.04989331428,0.2944964797,-0.04123869967,0.2340636619,0.3149914708,0.01526907556,0,0,-0.2621008084,-0.1226002249,0.1438057977,0.3774621259,0.01627801452,0,0,0.4632704894,0.04593737769,-0.338144107,0.05750134909,0.03131331261,0.01768009718,0.4833046509,-0.1310731553,-0.1802638904,0.1816854902,-0.2339509505,0.06367460632
6.866666667,-0.7054923672,-0.1561323582,0.6220868652,0.01601374119,-0.02160998997,0.6561785124,0.7541262018,0.2072217595,-0.08276537222,0.04531965732,0.2956531092,-0.04420766399,0.2357882092,0.3161473822,0.01488882189,0,0,-0.2582941245,-0.1214907233,0.1450535753,0.3774452327,0.01664601611,0,0,0.4546464255,0.04818590282,-0.3321698818,0.05701455739,0.03740641664,0.02602217784,0.4875185704,-0.1287246683,-0.1819344246,0.1938211497,-0.2356204149,0.06422390314
6.9,-0.7064038091,-0.1467654584,0.6216357838,0.01534402355,-0.0206161548,0.6556339062,0.7546414488,0.210067081,-0.08070134884,0.04041619995,0.296583866,-0.04630689348,0.2371363947,0.3175054227,0.01444764811,0,0,-0.2539615067,-0.120343598,0.1462776449,0.3772545772,0.01697731258,0,0,0.4452951339,0.05058577193,-0.3253789825,0.05703038293,0.04627796117,0.03578349378,0.4911394863,-0.1257792029,-0.1836154015,0.2070820845,-0.2367582485,0.06493314679
6.933333333,-0.707448954,-0.1372777077,0.6211996257,0.0144230101,-0.0189846209,0.6551284977,0.7551411871,0.2121440947,-0.07843611348,0.03537985389,0.2972075523,-0.04706064658,0.2378996359,0.3188676885,0.01400845196,0,0,-0.2492391719,-0.1191856233,0.1472466015,0.3768238274,0.01724081973,0,0,0.4356434989,0.05297950722,-0.3173319112,0.05748181674,0.05807812323,0.04662145748,0.4942327006,-0.1221701155,-0.1853866325,0.2213321099,-0.2371096666,0.06583769767
6.966666667,-0.708673053,-0.1276713884,0.6207577425,0.01345359948,-0.0170082619,0.6545446753,0.7557122387,0.2131740671,-0.07599698015,0.03042925244,0.2973969574,-0.04613535379,0.2379139474,0.3200067784,0.01362907372,0,0,-0.2442656634,-0.1181009814,0.1477279901,0.3760576445,0.01739239573,0,0,0.4259741067,0.05534949867,-0.3076633495,0.05844027628,0.07254705147,0.05807956358,0.4968226587,-0.1177725649,-0.1874172919,0.2364525219,-0.2363985379,0.06692337126
7,-0.7101351632,-0.1179536435,0.6202874911,0.01265009319,-0.01508985988,0.6538986063,0.7563259112,0.2129233627,-0.07335200138,0.02577592038,0.2969825647,-0.04342699987,0.2370710172,0.320697164,0.01334255163,0,0,-0.2391658613,-0.1172350637,0.1475230948,0.3748320485,0.01738936982,0,0,0.4163881015,0.05785031054,-0.2962614036,0.06003357259,0.08897589257,0.06964292611,0.4988726815,-0.1124233405,-0.1899689727,0.2524011902,-0.2343329159,0.06814346294
7.033333333,-0.7111610689,-0.1081559109,0.6193931331,0.01223646721,-0.01337035953,0.6534057634,0.7567908633,0.2173072694,-0.0670998408,0.02143209792,0.3017400964,-0.04071814813,0.2494069851,0.3354478199,0.01321994795,0,0,-0.2311673564,-0.1145074357,0.1560748562,0.3793047331,0.01693633073,0,0,0.4072435319,0.06068297862,-0.2842153517,0.06295705214,0.1057319063,0.08048711433,0.4996431791,-0.1060015843,-0.1929575759,0.2695808597,-0.2301206045,0.06945110467
7.066666667,-0.7130304195,-0.09824150821,0.6185524378,0.01249736617,-0.01159477507,0.6533326676,0.756878988,0.2165364343,-0.06267843404,0.01815220866,0.3023621425,-0.03577394967,0.2533623227,0.3418006322,0.01318282362,0,0,-0.2250277817,-0.1140597705,0.1580073182,0.3795164228,0.01638271056,0,0,0.3977399676,0.06422589037,-0.2702361341,0.0663015973,0.1224663461,0.09056736774,0.5001149748,-0.09818569474,-0.1975422092,0.2873756025,-0.2239418777,0.07097755076
7.1,-0.7156176409,-0.08827535513,0.617808584,0.01373248091,-0.009382519042,0.6537880247,0.7564949478,0.2117006329,-0.05940915375,0.01575907134,0.2995237823,-0.02981233093,0.2508516068,0.3415677123,0.01316010943,0,0,-0.220244619,-0.1154942772,0.155003032,0.3762519777,0.01577460999,0,0,0.3876876285,0.06875268446,-0.2557610589,0.06999971966,0.137341056,0.0995266694,0.4997377056,-0.0890898085,-0.203738389,0.3063823066,-0.2155610444,0.07260829724
7.133333333,-0.7187161306,-0.07833183157,0.6172247802,0.01595152475,-0.006578961384,0.6546360153,0.7557472815,0.2042191908,-0.05641009198,0.01396440377,0.2942207615,-0.02409056042,0.2445216173,0.3373307749,0.01310513705,0,0,-0.2160741578,-0.1181324128,0.1493918562,0.3706716589,0.01516393155,0,0,0.3769855232,0.07450524484,-0.2422772748,0.07395281913,0.148742635,0.1072377416,0.4977326648,-0.07885111889,-0.2113987767,0.3274205234,-0.2046842867,0.07417298764
7.166666667,-0.7220585697,-0.06848431028,0.616862772,0.01868380451,-0.003286730375,0.6556986124,0.7547843682,0.1955500144,-0.05281186005,0.01242655149,0.2875817567,-0.01962592766,0.2372448133,0.331900438,0.01302021066,0,0,-0.2116986287,-0.1211355661,0.1436623782,0.3641023173,0.01460486067,0,0,0.3656680322,0.08164921323,-0.2310028125,0.07799258766,0.1556323737,0.113896402,0.4932371904,-0.06763264837,-0.2201999495,0.3513267862,-0.1910826786,0.07540717769
7.2,-0.7253578228,-0.05879525655,0.6167616602,0.02121131467,0.0002958522119,0.6569905647,0.7536002857,0.1869216776,-0.04794107702,0.01082199799,0.2806656968,-0.01699656614,0.2315955342,0.3277826593,0.01295480309,0,0,-0.2063934028,-0.1236595761,0.1399759732,0.3578014058,0.01414744518,0,0,0.3538807038,0.08998096392,-0.2226717263,0.08186832895,0.1577450889,0.1197475509,0.4854542513,-0.05562255614,-0.2296864584,0.3787655954,-0.1746840145,0.07591760576
7.233333333,-0.7283599589,-0.04930978441,0.6169299617,0.02306668564,0.003994614114,0.6586792219,0.7520596078,0.1791483847,-0.04144417674,0.008918358719,0.274280677,-0.01626799393,0.2294018765,0.3267603989,0.01297993694,0,0,-0.1996636532,-0.125013723,0.139779291,0.3527396514,0.01382816621,0,0,0.3417989606,0.0989549627,-0.2174559682,0.08526074147,0.1555869078,0.1250121501,0.4737775204,-0.04302999701,-0.2393666675,0.4101026823,-0.1556051533,0.07516791184
