Yinzhen01/f1_train/resources/motions/f1/v1.5/raw/07_03_walk_yup_recwalk_base_lowerbody_smooth_p8_120_180_groundfit_minima_safe.csv
timestamp,root_pos_x,root_pos_y,root_pos_z,root_quat_x,root_quat_y,root_quat_z,root_quat_w,lumbar_yaw_joint,lumbar_roll_joint,lumbar_pitch_joint,left_shoulder_pitch_joint,left_shoulder_roll_joint,left_shoulder_yaw_joint,left_elbow_pitch_joint,left_elbow_yaw_joint,left_wrist_pitch_joint,left_wrist_roll_joint,right_shoulder_pitch_joint,right_shoulder_roll_joint,right_shoulder_yaw_joint,right_elbow_pitch_joint,right_elbow_yaw_joint,right_wrist_pitch_joint,right_wrist_roll_joint,left_hip_pitch_joint,left_hip_roll_joint,left_hip_yaw_joint,left_knee_pitch_joint,left_ankle_pitch_joint,left_ankle_roll_joint,right_hip_pitch_joint,right_hip_roll_joint,right_hip_yaw_joint,right_knee_pitch_joint,right_ankle_pitch_joint,right_ankle_roll_joint
0.0,-0.6742080856716289,-1.8501713414285144,0.6124312420646161,0.0278833209666244,-0.0398889632549703,0.7554834487005867,0.6533575971562463,-0.2954495566446372,0.0199464104849093,0.0741115198455902,0.0243159750496592,-0.0341797425513587,0.3077226044389995,0.7234657338290595,0.0190173397298843,0.0,0.0,0.1862150095659506,-0.0594439101468929,0.3175376612559881,0.339098259331372,0.0143097927768174,0.0,0.0,-0.524124092635553,0.1250523764648277,0.470355701332692,0.5743951966412161,-0.2223904721093966,0.3686112310126683,-0.4179040164323649,-0.0737929515106432,0.1174839884827716,0.4625884526606684,-0.0818410451738664,0.0753485818012101
0.0333333333333333,-0.6726996842349008,-1.8410051437362327,0.6133394824783271,0.0273367319553192,-0.04009950772519,0.7548848976317418,0.6540592663464951,-0.2462414419540798,0.0204064035422204,0.0656633992774926,0.0194123955844332,-0.0428753463528455,0.2732519914997992,0.6617721223142674,0.0178835562654585,0.0,0.0,0.1727369649085909,-0.0446741321488276,0.2715517714748409,0.3069763667748068,0.0128825795520459,0.0,0.0,-0.4952817451563504,0.0970488931933208,0.4939985251486347,0.6332614780652414,-0.2056996179191116,0.3932850426944418,-0.3914346428894781,-0.0754293721118126,0.102467130399865,0.449796486165326,-0.0842726174797794,0.0673194719718755
0.0666666666666666,-0.6712416711009884,-1.8319969115758672,0.6140942285932872,0.0269136715077123,-0.0406570811273823,0.754248263532551,0.6547764603269637,-0.2001078145392378,0.020532819697912,0.0580851192254606,0.0155423987713377,-0.0507305043051149,0.2416454048916413,0.6038531713276337,0.0168777641651336,0.0,0.0,0.1595879444358857,-0.031267769060712,0.229276337230998,0.2775231172019767,0.0116959343467602,0.0,0.0,-0.4669657500783177,0.0684442374259641,0.5168162678695569,0.6915558640740262,-0.1915062867273439,0.4159370761613343,-0.3652892854878997,-0.0771923089780476,0.0880116983761055,0.4372711316034054,-0.0867300467199644,0.059560907150479
0.1,-0.6698686189167437,-1.8232626630176272,0.6147261704038196,0.0266461491495172,-0.0414687661451356,0.7534393287514043,0.6556672189918719,-0.1595592720367001,0.020046328942694,0.052081659363583,0.0135543634503434,-0.0570472711303765,0.2152020637594872,0.5527588622472429,0.0160984649439788,0.0,0.0,0.1470498420134775,-0.0203476676205715,0.1936915820897427,0.252930630603723,0.0109179172924514,0.0,0.0,-0.4395726645659364,0.0388070420834038,0.5379979975598446,0.7486664756724429,-0.1819453562686864,0.4347360538451737,-0.3397904448898585,-0.0791748383074641,0.0745769920579066,0.4252303076304782,-0.0892449699770683,0.0523160649419973
0.1333333333333333,-0.6685908246144955,-1.814850792473642,0.6153177677232631,0.026476056438784,-0.0420676356668926,0.7523157191868611,0.6569249509108358,-0.12615723570798,0.0187593476318423,0.0480816524020403,0.0139989934504737,-0.0613530691704981,0.1952785808073623,0.5103056101650328,0.015596299646714,0.0,0.0,0.1353100457739847,-0.0126313035767831,0.1665617861367946,0.2345859331812374,0.0105969513963473,0.0,0.0,-0.4132463563966402,0.0079848920166546,0.5567419439315721,0.8039780522547715,-0.1785432639365656,0.4484090517860213,-0.3151821623577353,-0.0814181126022288,0.0624172627609058,0.4138105618197642,-0.0918752821450786,0.0457785452370808
0.1666666666666666,-0.6673943019677562,-1.806738115272487,0.6159188472659223,0.0263367459509511,-0.0421114842423875,0.7509151948019135,0.6585281838488181,-0.1003924575850965,0.0165890928319362,0.0461933694559295,0.0170794699467701,-0.063433780926176,0.1821743387423169,0.476934740379779,0.0153713562744425,0.0,0.0,0.1244434491079752,-0.0083697779919065,0.148286262437792,0.2229381936282374,0.0106738555630594,0.0,0.0,-0.3878498295297099,-0.0238209216424432,0.5722919397415777,0.8568818893763318,-0.1820559615813784,0.4564150038240533,-0.2915898508940245,-0.0839042230911605,0.0515530304354386,0.4030483441139545,-0.0947034446853703,0.0400744399054256
0.2,-0.6662488407685564,-1.7988441811348834,0.6170002149266975,0.0262304763563952,-0.0417554535828926,0.7494831581935419,0.6601843983240121,-0.081811391345915,0.0135494782995983,0.0462380753512632,0.022682029140624,-0.0633143616415302,0.1752748019212135,0.4519116017727607,0.0153808096750212,0.0,0.0,0.1144145616128643,-0.0073949677077077,0.1380821877751856,0.2175822028108601,0.0110293788576558,0.0,0.0,-0.3629947442389669,-0.0560463095995825,0.5839802452828815,0.9067973620064176,-0.1924336542635001,0.4589772147445847,-0.2689855522195651,-0.0865630454970455,0.0417952929634391,0.39287862221194,-0.0978261402659191,0.0352527001726121
0.2333333333333333,-0.6651210765986642,-1.7910579243110667,0.6179848235683857,0.026238113905725,-0.0414930621427465,0.7482527419639825,0.6615948316878467,-0.0692998056097735,0.0097330939041342,0.0478416857601825,0.0304628179260469,-0.0612092900850558,0.1733608160744082,0.4337409753854815,0.015551466169404,0.0,0.0,0.1050982986795199,-0.0092389447830979,0.134382186103845,0.2174993066646525,0.0115362167756109,0.0,0.0,-0.3381203130118172,-0.0878263779320585,0.5912729125360547,0.9532028291254562,-0.2089002074339283,0.4569781348677926,-0.2471781158669749,-0.0892890702795731,0.032808740613796,0.3831543839055657,-0.1013389274725649,0.0312862963373809
0.2666666666666666,-0.6639884735918448,-1.783266801895292,0.6187259894703624,0.0264531962851068,-0.0416550300094641,0.7471997897331725,0.6627650874208109,-0.0614096209369237,0.005294689759532,0.050550747921725,0.0399553876033311,-0.0574706624980034,0.1749657532188039,0.420637686771022,0.015794978859513,0.0,0.0,0.0963124850693237,-0.0132771963264264,0.1352942835751703,0.2213623270257694,0.0120917537721295,0.0,0.0,-0.3126050861652995,-0.1181162472424905,0.5938108212676267,0.9956692520731016,-0.2301162002698973,0.451791601488221,-0.2258407416573124,-0.0919633532879802,0.0241954684634874,0.3736856574256118,-0.1053197719278057,0.0280846910311682
0.3,-0.6628496178492818,-1.7753795078956172,0.6193067996841235,0.0268893438377191,-0.0421052467111291,0.7460531701035715,0.6640096224948726,-0.05663888739156,0.0004412196007009,0.0539363223352035,0.0506663975325017,-0.0525524411702665,0.1786810606947863,0.410918534809216,0.0160248215669927,0.0,0.0,0.0878516310394875,-0.0188547065337069,0.1389954326414827,0.2278153393303981,0.0126255362179603,0.0,0.0,-0.2858872042138264,-0.1458433225056945,0.5914363192276272,1.0338870364901855,-0.2543879455855652,0.4451374942553805,-0.2045736234800613,-0.094476066484182,0.0155813750853139,0.364289287534485,-0.1098136689184886,0.0255156581160401
0.3333333333333333,-0.661726988844508,-1.7673387133485785,0.6198905199160399,0.0274543617021651,-0.0424150335318309,0.7445601648224114,0.6656405816306905,-0.0536212139956387,-0.0045753323362304,0.0576592174953557,0.0621402232323393,-0.0469909208087181,0.1833528337837821,0.4032440077354195,0.0161725808034822,0.0,0.0,0.0795134124509497,-0.0253728011975844,0.1439851213238168,0.2356702955212798,0.0130903014427402,0.0,0.0,-0.2575646194429662,-0.1700573672778599,0.5841967606653862,1.0676764904818878,-0.2798883932003659,0.4389475718207772,-0.1829863550418673,-0.0967455875033017,0.0066900111116013,0.3548330688187869,-0.114818403514155,0.0234320639482554
0.3666666666666666,-0.6606613145607736,-1.7591255184055798,0.6205771122660606,0.02804691249452,-0.042279131688069,0.7427222288674916,0.6676747235513213,-0.0512238661049773,-0.0094719187198318,0.061487642053081,0.073988794082876,-0.0413855081151124,0.1881589322915152,0.3967027414712163,0.0161995460711345,0.0,0.0,0.0711149450287022,-0.0323348295037362,0.1491860025267893,0.2440025129484129,0.0134502196327887,0.0,0.0,-0.2274504375606977,-0.1900480676103012,0.5723239544219175,1.0969768100754402,-0.3048644145514054,0.4351306958687059,-0.160780346883905,-0.098730595771768,-0.0026076581225833,0.3452568096636825,-0.1202715234419265,0.0216971729725827
0.4,-0.6597006941161992,-1.75075828219913,0.6213426182576063,0.0286948480359319,-0.0417500583577679,0.7407693962517056,0.6698464300869278,-0.0485781284805616,-0.0139632652995164,0.0652765649492697,0.0858950781699747,-0.0363600162763788,0.1925930683270992,0.3907755187468058,0.0161002494247843,0.0,0.0,0.062500907155301,-0.0393621919158949,0.1539244542007976,0.2521615041247099,0.0136761315923041,0.0,0.0,-0.1955710991396876,-0.2054102084782713,0.5561986878505008,1.121817244392314,-0.3278121665075555,0.4351625515061644,-0.1378149151440919,-0.1004322866289983,-0.0122737703829375,0.3355627522422477,-0.126042341604438,0.0202013867777753
0.4333333333333333,-0.6588899130886948,-1.7422860865035033,0.6220927120995564,0.0295724863069955,-0.0411395807372337,0.7389402373326522,0.6718633258343178,-0.0450708125318803,-0.0178053075187447,0.0689301400394526,0.0976042764971189,-0.0324942082127099,0.1963988877712379,0.3852331316470646,0.0158973775277308,0.0,0.0,0.0535476964302143,-0.0461946640771469,0.1578451630101769,0.2597327849552326,0.0137502754209438,0.0,0.0,-0.1621145005425293,-0.2160515275367766,0.5363148030429741,1.1422824048147138,-0.3476054401609034,0.4395908976825597,-0.1141456642493707,-0.1018853260623402,-0.0221145883156448,0.3257830025726621,-0.1319362437380006,0.0188661191438234
0.4666666666666667,-0.6582639512735301,-1.7337761048555267,0.6227469054756581,0.0308476820578184,-0.0407662177625292,0.737309040248965,0.6736185234746354,-0.0403204534758248,-0.0208430885847259,0.0723700875328895,0.1089153446934578,-0.030232273363277,0.1994927185241891,0.3800191551364213,0.015630688836392,0.0,0.0,0.0441676242732259,-0.0526825582830767,0.160810766568945,0.2664863369705424,0.01367641648293,0.0,0.0,-0.1273535239182291,-0.222153463254864,0.5132533024649898,1.158485888614448,-0.3635639224920552,0.4476925493985736,-0.0900267051268833,-0.1031399916906631,-0.0318180582099106,0.3159423288955401,-0.1377157300848,0.0176363827433342
0.5,-0.6578462659255221,-1.725297361521713,0.6232796826527182,0.0324980506411415,-0.0407616103654545,0.7357802144873247,0.6752109624361317,-0.03415309703998,-0.0230473958620804,0.0755239931377932,0.1196789801864778,-0.0297901164968342,0.2018976681005542,0.3751525712560625,0.0153443011531894,0.0,0.0,0.0343148771152409,-0.0587710199174741,0.1628195993982509,0.2723334720719251,0.0134874071203444,0.0,0.0,-0.0915769198516291,-0.224104012647676,0.4876661840409487,1.1705608050300014,-0.3754536331178137,0.4575176655983128,-0.065871171929353,-0.1042429484965104,-0.0410119359969351,0.3060357217503472,-0.1431343899104503,0.0164686742577128
0.5333333333333333,-0.6576502925446384,-1.7169075854271276,0.6237228677627228,0.0342660049353011,-0.0409881211927025,0.7341598812372614,0.676871541437928,-0.0265822998147255,-0.0245259918808827,0.0783336655009576,0.1298014246349891,-0.0310892511619773,0.2036961793818957,0.3706647303017518,0.0150758921560984,0.0,0.0,0.0239906914834747,-0.0644756834955133,0.1639530379149222,0.2772974713066435,0.0132424416048985,0.0,0.0,-0.0550498943023803,-0.2224216802667943,0.4602600641883761,1.1786662547224291,-0.3834225122386405,0.4663996638452557,-0.042171098687029,-0.105225506910902,-0.0493343734009346,0.2960317803203953,-0.1479739855882597,0.0153214577812551
0.5666666666666667,-0.6576825954601238,-1.7086492525916428,0.6242640940073418,0.0357843170425225,-0.0410609091202496,0.7322050206398211,0.6789030064345408,-0.0177877956294836,-0.0255036963327102,0.0807732641913408,0.1392497902080266,-0.0337404849908258,0.2049995177146833,0.3665689369864324,0.0148491484881142,0.0,0.0,0.0132418086096432,-0.0698532776833586,0.164346867460855,0.281492859407108,0.0130114076562564,0.0,0.0,-0.0180083173116572,-0.2176834461840848,0.431768464141335,1.183001204591786,-0.3878880076289285,0.4717805062552295,-0.0193891094537994,-0.1061033049340762,-0.0565054843562981,0.2858983543625983,-0.1520755246920938,0.0141521070805325
0.6,-0.6579461482785196,-1.7005541730115068,0.6248715271771501,0.0367808597256775,-0.0405239675100975,0.7297008201917584,0.6815729523877513,-0.008082771075131,-0.0262771895939811,0.0828648561630125,0.1480534263603471,-0.0370897583120344,0.205929674935875,0.3628535611185707,0.0146698297334729,0.0,0.0,0.0021484396011667,-0.0749743008303932,0.1641727810968153,0.2851043650574384,0.0128517209819939,0.0,0.0,0.0193245347935358,-0.2104628474717577,0.4029095974841276,1.1838146446785074,-0.3894045256380851,0.4720342011924603,0.0021523805336173,-0.1068842685695165,-0.0623858536595244,0.2756330847797388,-0.1553598539675265,0.0129197890360584
0.6333333333333333,-0.6584414675414879,-1.6926491292829242,0.6254382438297227,0.0372422793285829,-0.0391683094954633,0.7266281217535558,0.6849017658311148,0.0021359169172144,-0.0271589682359324,0.0846835222161679,0.1562955564544835,-0.0403251045720417,0.2066083439769015,0.3594887969677271,0.0145266191303127,0.0,0.0,-0.0091944721940274,-0.0799036832497425,0.1636180062083874,0.2883582263427101,0.012788593965777,0.0,0.0,0.056714277758558,-0.2012787382085293,0.3743366384516048,1.1814029402674502,-0.3885407446320489,0.4669673545748263,0.0223508873184656,-0.1075786426058098,-0.0670087133695273,0.2652783215696085,-0.1578371967292586,0.0115921223759136
0.6666666666666666,-0.6591639531779416,-1.6849552995540535,0.6259542842609196,0.0374291411927047,-0.0372746061756342,0.723285781343148,0.6885254836466548,0.0124509622630435,-0.0284256396844202,0.0863494769935133,0.1640916347386337,-0.0426286176050092,0.2071486024425629,0.3564382224515168,0.0143978403802913,0.0,0.0,-0.0206930706861946,-0.0846910633952051,0.1628602275961687,0.2914851076953769,0.0128085221808311,0.0,0.0,0.093896636474263,-0.1905526633291944,0.3465917613343768,1.1760904588125782,-0.3857888839231468,0.4578265652513048,0.0413444721806077,-0.108206671422762,-0.0705776831117655,0.2549104858847891,-0.1596061271926222,0.0101546805877791
0.7,-0.6600987708337551,-1.6774811380431272,0.6264160095913426,0.0377034659045729,-0.0355086592809751,0.7201440966953464,0.6918887654599502,0.0224900539598288,-0.0302798480157881,0.0880079090664129,0.1715574070918859,-0.043343028451681,0.207648136992792,0.3536680528639162,0.014262140824712,0.0,0.0,-0.0322598903406426,-0.0893684695069069,0.1620440305230801,0.2946817665329481,0.0128688480202548,0.0,0.0,0.1305697160680086,-0.1785757551959514,0.3200725239818525,1.168196382194347,-0.381514811035649,0.4468506460883086,0.0594653828671981,-0.1088024400282488,-0.0734311843404088,0.2446100871461106,-0.1608413189484708,0.0086227603878837
0.7333333333333333,-0.6612170003391524,-1.670214517212826,0.6268299929282256,0.0382840686161154,-0.0344761464999952,0.7174679537856026,0.6946837127091782,0.0319798958030657,-0.0328280352601848,0.0898000617419761,0.1787769522377073,-0.0421150086282843,0.2081855995063426,0.3511512115166393,0.014107830980226,0.0,0.0,-0.0438089300737528,-0.0939515711942257,0.1612673878910025,0.2980812378509775,0.0129182069763842,0.0,0.0,0.1663984507714569,-0.1654937450280867,0.2950139756938004,1.1579964322973415,-0.3759459398477296,0.4365709348638589,0.0771443548441118,-0.1094140082645402,-0.0759846315595712,0.2344292857469301,-0.1617687839248786,0.0070521573482658
0.7666666666666667,-0.6624758670362784,-1.6631198891560863,0.6272047653959689,0.0391366171926764,-0.0342896624929896,0.7150910984703758,0.697092006215293,0.0407780521439293,-0.0360723231244896,0.0918329660655401,0.1857823815701429,-0.0389813860253633,0.2088210243335036,0.3488684006235441,0.013936151913648,0.0,0.0,-0.0552478143927241,-0.0984412849848952,0.1605817937332761,0.3017375961932265,0.0129177235149868,0.0,0.0,0.2010283145679368,-0.1513236648266929,0.2714854578388986,1.1456898282029957,-0.3691870421934747,0.42912114162964,0.0948000116694369,-0.1101004927885199,-0.0786665589149214,0.2243745074371936,-0.1626302069850371,0.0055426969003812
0.8,-0.6638228983596028,-1.656142079510976,0.6275428930287282,0.0400691472754556,-0.0345180621939225,0.7126336890244591,0.6995399860525379,0.0488780706863562,-0.039914629157884,0.0941576004234969,0.1925507192817296,-0.0343786392634582,0.2095981350890955,0.3468092850231048,0.0137583499650739,0.0,0.0,-0.0664759720464675,-0.1028244570219179,0.1600025932302029,0.3056268464436897,0.0128535940790713,0.0,0.0,0.2341036450629233,-0.1360097214180498,0.2493983113929213,1.1313785782671657,-0.3612524286624751,0.4257490160862185,0.1127479757106773,-0.1109269301116014,-0.0818621976387999,0.21441337780791,-0.1636433880353376,0.0042286345626012
0.8333333333333334,-0.6652016669948205,-1.6492149918971488,0.6278439420406269,0.0408924055073545,-0.0345525516056028,0.7099475376683438,0.7022167942366658,0.0563892770912836,-0.0441724209179748,0.096762417707331,0.1990153528739023,-0.0290739574447605,0.2105447303070713,0.3449728451785292,0.0135899370511168,0.0,0.0,-0.0773934234936219,-0.1070740560905991,0.1595225118518233,0.3096630912068145,0.0127377211195775,0.0,0.0,0.2652875829699645,-0.1195088079917885,0.2285215228891411,1.115061671847306,-0.352104512171726,0.426585531535858,0.1311511541018238,-0.1119578984041783,-0.0858710374484438,0.2045022932027202,-0.1649689936912044,0.0032541697731399
0.8666666666666667,-0.666556663327631,-1.6422726099374352,0.6281039628728701,0.0415076003133877,-0.0340807241093662,0.7072869749775164,0.7048835069623628,0.0634962768751176,-0.0486056204511837,0.0995817441629713,0.2050857799585988,-0.0240322039456732,0.211669323504225,0.3433626322405126,0.0134447420276081,0.0,0.0,-0.0879173713122477,-0.1111501528130922,0.1591226751103115,0.3137261813139203,0.0125995742520207,0.0,0.0,0.2942839407333862,-0.1018792082285395,0.2085072806870885,1.096644361885194,-0.3416912726935138,0.4306364250667136,0.1500153511861001,-0.1132507790580863,-0.090878881283914,0.1946204375135209,-0.1666918027391082,0.0027381336296084
0.9,-0.6678363757317411,-1.6352598923048858,0.6283161843482414,0.0419419933050984,-0.0332943700948018,0.705020646436235,0.7071621046239815,0.0704063132802251,-0.052952617830675,0.1025117572461784,0.2106707909239126,-0.0202448379186245,0.2129561815131691,0.3419752073511967,0.0133295279637242,0.0,0.0,-0.0979984048613454,-0.1150035999032,0.1587786155842748,0.3176932376126014,0.0124747652495136,0.0,0.0,0.3208627624810948,-0.0833412366658919,0.1889325296021334,1.0759612948031765,-0.3299770866878413,0.4359631602247104,0.1692200067551922,-0.114849071071017,-0.0969421957663581,0.1847945031980308,-0.1688191177236846,0.0027372462680809
0.9333333333333332,-0.6689955729303386,-1.62814146183073,0.6284724264655139,0.0423594779526014,-0.0326769106243526,0.7032245332339802,0.7089521493002767,0.0772967873688115,-0.0569714597974815,0.1054254154399287,0.2157021798677437,-0.0185524665833376,0.2143636656112534,0.340786484071016,0.0132409772545873,0.0,0.0,-0.1076282056986141,-0.1185841993562152,0.158461692988012,0.3214654444510975,0.0123945582607518,0.0,0.0,0.3448884125184431,-0.0642880900857438,0.1693598367065287,1.05280889450743,-0.3169628276870508,0.4400518733006432,0.1885661973506721,-0.1167761310412365,-0.1039828384135555,0.1751051956821294,-0.1712935374230152,0.0032202327282434
0.9666666666666668,-0.6699984840779427,-1.620906178985761,0.6285652675812465,0.042953896786379,-0.0325552235676558,0.7016030385996466,0.7105267738777111,0.0842769995670368,-0.0604804769927016,0.1081817137317068,0.2201552899847187,-0.0194911173587004,0.2158301795216399,0.3397443789599059,0.0131683978430789,0.0,0.0,-0.1168351236796466,-0.1218521652139297,0.1581391798471073,0.3249840956093041,0.0123787476836331,0.0,0.0,0.3663428283875992,-0.0452429641735334,0.1494114439131905,1.0269787956977188,-0.3026931059585155,0.4403486323554785,0.2078245808913657,-0.1190307588756893,-0.111793553455795,0.165675380632709,-0.1740136304863785,0.0040634800642929
1.0,-0.6708232941798906,-1.6135657147903963,0.6285909469579914,0.043719147134158,-0.0328169404287505,0.6997884622085636,0.712255426623435,0.0913730470108947,-0.0633903985415243,0.1106304192382823,0.2240608167207139,-0.0231859671790719,0.217287972148602,0.3387732928785752,0.013102283757343,0.0,0.0,-0.1256692191787045,-0.1247871627952987,0.1577778954001201,0.3282333485320923,0.0124327147122959,0.0,0.0,0.385332014478127,-0.0267772547306336,0.1288406069547099,0.9982842252655434,-0.2872512876573846,0.4348605059875056,0.2267727349109037,-0.1215871024194527,-0.1200574556268299,0.156645757530481,-0.1768550614272233,0.0050720997567916
1.0333333333333334,-0.6714661619862662,-1.6061461114802995,0.6285517240325346,0.0443525086387587,-0.0330627453724467,0.6976737887786207,0.714276553092127,0.0985349026152037,-0.0657189397716104,0.1126179285107911,0.2275030409704916,-0.0293092400831546,0.2186801114542424,0.3377892302973115,0.0130421846987594,0.0,0.0,-0.1341818222996811,-0.127388897718421,0.157354083761072,0.3312308254847701,0.0125479018445948,0.0,0.0,0.40206575906965,-0.0094173557937443,0.1075805364610386,0.9665753866403178,-0.2707454753078428,0.422644990758343,0.2452193840754162,-0.1244004518405899,-0.1283854595519619,0.1481467928728122,-0.1796875554828156,0.0060206656597681
1.0666666666666669,-0.6719419997713387,-1.598674307856616,0.6284557587331331,0.0445088319817168,-0.0330311907050118,0.6954622622081625,0.7164217655547167,0.1056573890125761,-0.0675823047419565,0.114000762937432,0.2306041707667585,-0.0371117844536573,0.2199738419618509,0.3367193112511358,0.0129957927841849,0.0,0.0,-0.1424062341881559,-0.1296690776410065,0.156866300068511,0.3340113243430991,0.0127042469767548,0.0,0.0,0.4168093078481791,0.0064320764076431,0.0857553444386334,0.931745507795504,-0.2532896676350198,0.404005137712323,0.2630182349357949,-0.1274172246896881,-0.1363718411283691,0.1402758810388607,-0.18238849688094,0.00670051454542
1.1,-0.6722807094266958,-1.5911654465778613,0.628314158033344,0.0441707610551656,-0.0328342720685363,0.6934458369567512,0.7184035952393946,0.1126063298782901,-0.0691659751102715,0.1146688542105857,0.2334998445714582,-0.045528008421369,0.2211653133461765,0.3355183060592739,0.0129689155775126,0.0,0.0,-0.1503460262894423,-0.1316404884224047,0.1563427297360098,0.3366112069256974,0.0128735104698753,0.0,0.0,0.4298169385303029,0.0205318052084789,0.0636473254878939,0.8937339557993528,-0.2349839782167247,0.3803029374662046,0.2800752267402184,-0.1305844446808312,-0.1436603449361468,0.1330861264489674,-0.1848572901468954,0.006959436343804
1.1333333333333333,-0.6725203405231398,-1.5836178103158127,0.6281369498703012,0.0436484247932134,-0.0327577421892965,0.6917520536469824,0.7200700254939885,0.119244990155896,-0.0706841293281392,0.1145730253054953,0.2363131528541857,-0.0533416606916958,0.2222742483365305,0.3341766377085209,0.0129557050567938,0.0,0.0,-0.1579744957480051,-0.133309525402601,0.1558349981437174,0.3390595002282339,0.01302352410592,0.0,0.0,0.4412652951728776,0.0328159150674915,0.041627599787781,0.8525341641833306,-0.2158979689101046,0.3534620752745778,0.2963507677435821,-0.1338549361273558,-0.1500059850613775,0.1265885241330333,-0.1870323678232534,0.0067247100622998
1.1666666666666667,-0.6727003240076559,-1.576018301029576,0.6279299415444644,0.0431460531592294,-0.0328916224201935,0.6902529432292638,0.7215313116107209,0.1254585093051734,-0.0723381833643124,0.113745428989425,0.2391330986542424,-0.0593893690682433,0.2233308573143524,0.3327182793121432,0.0129398291524343,0.0,0.0,-0.165243831222171,-0.1346754057097552,0.1553984311587823,0.3413775685342606,0.0131244867695871,0.0,0.0,0.4512057962840255,0.043369596061845,0.0200688147328752,0.8082097488068567,-0.1960627867855404,0.3253656236938792,0.3118553201139185,-0.1371888903730241,-0.1553161256766257,0.1207649181719773,-0.1889066192653461,0.0060076497393367
1.2,-0.6728569062321145,-1.568354987674124,0.6276932580469419,0.04244205212202,-0.0330387645865493,0.6886691234575815,0.7230781082583214,0.1311729583965283,-0.0742814378182087,0.1123024670182258,0.2420010251861643,-0.0627720624542672,0.2243606681044646,0.3311917633981586,0.0129084215290359,0.0,0.0,-0.1720990418555021,-0.1357357926119266,0.1550687408338623,0.3435848941857543,0.0131576279136531,0.0,0.0,0.4595510274592231,0.0523851510299101,-0.000736089652598,0.7609138164896514,-0.1754781118927061,0.2973841270789038,0.3266355997793341,-0.1405553356121054,-0.1596595726550284,0.11558658023125,-0.1905330111863637,0.0048928035719486
1.2333333333333334,-0.673019966824399,-1.5606294722246652,0.6274216199798847,0.0411557016884506,-0.0329800195638217,0.6867919998982854,0.7249381183272231,0.1363635832661057,-0.0765933735141847,0.1104263623398094,0.2449069905817548,-0.0630392217155941,0.225373904941056,0.3296595709170559,0.0128690244998054,0.0,0.0,-0.1784919093879351,-0.1364956456762939,0.1548490641966049,0.345705946111663,0.0131230394685559,0.0,0.0,0.4661019294563572,0.0601053108241469,-0.0206296140504859,0.7109005097820713,-0.1541355837572899,0.2701816810035569,0.3407516063417943,-0.1439351919834391,-0.1632408606387359,0.1110325635838761,-0.1920149545235186,0.0035165743446754
1.2666666666666666,-0.6732088923475134,-1.5528627819161682,0.6271061754231836,0.0393239810813251,-0.0327404943397315,0.6846838773148902,0.727041726923121,0.1410482493723277,-0.0792665074703884,0.1083300115585652,0.2477962692066529,-0.0603065895960322,0.2263626386314187,0.3281887601673502,0.0128549955289958,0.0,0.0,-0.1843920671247445,-0.1369744625836037,0.1547148672260022,0.3477734452425783,0.0130407556887284,0.0,0.0,0.4706124071620085,0.0667639126199598,-0.0396118759126055,0.6585202243573843,-0.1320532006009188,0.243804652615475,0.3542506619922819,-0.1473238809693062,-0.1663456344673217,0.1071025619517723,-0.1934837163463174,0.0020401444211086
1.3,-0.6734277095689343,-1.5450921952144243,0.6267372601376155,0.0375495592970012,-0.032544331257922,0.6826936740904023,0.7290131990962326,0.145268311119078,-0.0822096106623231,0.1062156206949493,0.2505836764797507,-0.0552707300583244,0.2273034768778362,0.3268421144123874,0.0129117134413265,0.0,0.0,-0.189793396687375,-0.1372075868135383,0.1546318334557601,0.349826075798439,0.0129421390487937,0.0,0.0,0.4728771494363473,0.0725348731922253,-0.0578316711296661,0.6042004362087726,-0.1093108905178907,0.2179453727770668,0.3671491929039136,-0.1507301793147321,-0.1692712019733068,0.1038204944595111,-0.1950712756106642,0.0006219234418452
1.3333333333333333,-0.673663778853265,-1.537360546830105,0.6263070462610376,0.0364540290378999,-0.0325575696199728,0.6812226918068853,0.7304428469050306,0.1490662622960415,-0.08526955198503,0.1042386606066651,0.2531721634321435,-0.0491014410294483,0.2281612268749697,0.3256683299407247,0.0130700805394106,0.0,0.0,-0.1947148288827345,-0.1372398800027152,0.1545739380910644,0.3519016208172615,0.0128564037921276,0.0,0.0,0.4728197199752159,0.0774996907402339,-0.0755537186943055,0.548425176638376,-0.0860786437684552,0.1922387065187208,0.3794311932963807,-0.1541694493480871,-0.1722617141774428,0.101227562628031,-0.1968870094296001,-0.0006049956010003
1.3666666666666667,-0.673894040347582,-1.529702781001484,0.6258112551382605,0.0360230924539232,-0.0327465821955527,0.6804041722413962,0.7312182714901663,0.1524718051770592,-0.0882677319179876,0.1024856838815255,0.2554724061818516,-0.0432240982240825,0.2288916151225139,0.3246918844034411,0.0133242375565509,0.0,0.0,-0.1991961730715142,-0.1371140213706934,0.1545317213978287,0.3540277101112864,0.0128018297590315,0.0,0.0,0.4705555289955725,0.0816400666384387,-0.093109678927666,0.4917287813247284,-0.0626324587697766,0.1664837921222998,0.3910641099064804,-0.1576513957829276,-0.1754656780282495,0.0993671282467646,-0.1990019442284681,-0.0015457004736162
1.4,-0.6740967188247469,-1.5221352130218906,0.6252498144486862,0.0355979878801035,-0.0329800559992033,0.6799966765043683,0.7316075581267535,0.1555024233560344,-0.0910395934669053,0.1009700555203139,0.2574194787454552,-0.0390362405590801,0.229445258651443,0.3239058361684647,0.0136284213957246,0.0,0.0,-0.2032906972133648,-0.1368589247680193,0.1545097108589703,0.3562122189441551,0.0127868692138106,0.0,0.0,0.4664111559017708,0.0848563886425172,-0.1108392408459028,0.4347112302019442,-0.0393564023742788,0.1407462595433701,0.4020243908877955,-0.1611647331525857,-0.1789240807165616,0.0982672072561798,-0.2014401998737935,-0.0021440907094119
1.4333333333333331,-0.67426110112497,-1.5146506252926129,0.6246267358971039,0.0345341070484031,-0.0331960374680027,0.6795994854781472,0.7320177305807763,0.1581741917001504,-0.0934639760510536,0.0996453562516987,0.258981413750087,-0.0376218662832467,0.2297760555362369,0.3232719842815635,0.0139152538306368,0.0,0.0,-0.2070561499587443,-0.1364835992295791,0.154517818071795,0.3584354137026152,0.0128169975440759,0.0,0.0,0.4608957148229843,0.0870078660103804,-0.1290267632238801,0.378068727593006,-0.0167309187608909,0.1153503013812497,0.4123220525941161,-0.1646642996320395,-0.1825858155124534,0.0979278351319439,-0.2041771907447364,-0.0023721357196386
1.4666666666666666,-0.6743898762673348,-1.507219099043314,0.6239493123301236,0.0328053166072125,-0.0334287830705356,0.6789677591685045,0.7326725801300492,0.1605116681503523,-0.0954754484651007,0.0984322847622843,0.2601566377405822,-0.0395264174609147,0.2298543317413081,0.3227314657920276,0.0141247764278862,0.0,0.0,-0.2105456510440814,-0.1359783461362104,0.1545612762316954,0.3606463270755836,0.01289888548754,0.0,0.0,0.4546342624892102,0.0879674335714346,-0.1478398934206207,0.3226213595741417,0.0046913052324179,0.0907979445950415,0.4220160360929598,-0.1680684220948908,-0.1863395174609076,0.0983195595178239,-0.207146165363515,-0.00221319409405
1.5,-0.6744951992059715,-1.4997928080886598,0.6232266946983533,0.0309426803339213,-0.0337073210828481,0.6781336889966912,0.7335128266682932,0.1625486800733504,-0.0970622739171119,0.0972512443585705,0.2609634565449448,-0.0446387036746954,0.2296811707669373,0.3222248515292973,0.0142290085778542,0.0,0.0,-0.2137996097414916,-0.1353216885474232,0.1546315443944508,0.3627656353805748,0.0130383485202252,0.0,0.0,0.448280684977679,0.0876814741948207,-0.1672788026464153,0.269315228754567,0.0243211547279797,0.0676576873469776,0.4312160534278023,-0.1712720406333293,-0.1900495118244299,0.0993961298346709,-0.2102538674205523,-0.0016486038186119
1.5333333333333334,-0.6745935264876426,-1.4923129433003892,0.6224683724416997,0.0294582952065087,-0.0339822537850339,0.6772757617943443,0.7343534283688655,0.1643215837809277,-0.0982579924183694,0.0960504987440397,0.2614291168083154,-0.0522013437404752,0.2292977536302675,0.3217156736879845,0.0142411540072277,0.0,0.0,-0.2168391315243583,-0.1344902487985762,0.1547007272792723,0.3646963496379014,0.0132361521609479,0.0,0.0,0.4424270159052942,0.0862194289883646,-0.1871459421004286,0.2191829908000402,0.0415820864991048,0.0464578999836719,0.4400703629510041,-0.174173193588225,-0.1935867125118355,0.1011188741669934,-0.2134013380987058,-0.0006562678191259
1.5666666666666669,-0.6747023502636786,-1.4847173167016956,0.6216832903508533,0.028400871254607,-0.0341666967409303,0.6765194858738824,0.7350832691462447,0.1658634624735697,-0.0991322523938223,0.0948208923391843,0.261583905298588,-0.0609458464209984,0.2287835881842665,0.3212080818705724,0.0142068334446547,0.0,0.0,-0.2196613713665212,-0.1334692514661643,0.1547233976598372,0.3663413817032626,0.0134876048594029,0.0,0.0,0.4375217725616805,0.0837959112067985,-0.2070452326228815,0.1732623517363937,0.0559741669190041,0.0276102925843742,0.4487424180791803,-0.1767011050920487,-0.196849579764946,0.1034835049527409,-0.2165018423890896,0.0007760653388776
1.6,-0.6748383912448203,-1.476947760078418,0.620879882338387,0.0274379638760369,-0.0342345792719854,0.6758536418572278,0.7357288947083223,0.167206082148946,-0.0997799678589339,0.093593166301626,0.261459849755717,-0.0693264331806286,0.2282413612197897,0.3207505681379021,0.0141823413298532,0.0,0.0,-0.2222385553995825,-0.1322613998794974,0.1546486054551975,0.367623032471454,0.0137869673670656,0.0,0.0,0.4338063406808397,0.0807538361510799,-0.2264164157382967,0.1324883132121732,0.0671502556351425,0.0113771371827976,0.4573813539311277,-0.1788305383222132,-0.1997732906546331,0.1065364798644221,-0.2194895035195947,0.0026284093284128
1.6333333333333333,-0.6750164600833131,-1.4689571099699663,0.6200668174972155,0.0262746140424853,-0.0342701143103427,0.6751786922809494,0.7363891209217186,0.1683892229245479,-0.1003044011983954,0.0924200067924144,0.2610899046975421,-0.0758098840728006,0.2277728737577379,0.3204231317660896,0.0142097038850034,0.0,0.0,-0.2245222147223424,-0.1308911074636809,0.1544400077015958,0.3684968765887259,0.0141319341205113,0.0,0.0,0.4312777373461274,0.0775105500776985,-0.2446035830584443,0.0975832760098181,0.0749939584525169,-0.0021171096265768,0.4660912257985596,-0.1805736044994011,-0.2023274936494299,0.1103716343977135,-0.2223186210728075,0.0048276492936089
1.6666666666666667,-0.6752499680810493,-1.4607155302658223,0.6192539799917055,0.0249565620363706,-0.0344153830358675,0.6744002870513752,0.7371411019925846,0.1694706561966497,-0.100792617339763,0.0913490594362344,0.260504669658565,-0.0791675444840829,0.2274556209218242,0.3203116006824868,0.0142993140256485,0.0,0.0,-0.2264510188154877,-0.1294012931295571,0.1540958287764547,0.3689555854957789,0.0145223297603321,0.0,0.0,0.4296865529954935,0.074482521815782,-0.2609452073348278,0.068967842139011,0.0796840628925993,-0.0128418798889902,0.4749039829934042,-0.1819530362260891,-0.2045054417249091,0.115107406060896,-0.2249589928232799,0.0072377484378366
1.7,-0.6755531695407649,-1.452215169651813,0.6184528699198688,0.0238176394915112,-0.0347512841566192,0.6734968713121845,0.7379885044031628,0.1705284654067224,-0.1012877292107245,0.0903952069323873,0.2597268947318326,-0.0787120403280571,0.2273286553363163,0.3204771287278947,0.0144276279620969,0.0,0.0,-0.2279580215862561,-0.1278427324806326,0.1536572609587234,0.3690245284873558,0.0149518088504282,0.0,0.0,0.4285769735687252,0.0720109099939207,-0.2748606911335396,0.0467088331919226,0.0817300288319876,-0.0208058492843835,0.4837626395240385,-0.1829707507479891,-0.2063093758982903,0.120854679819763,-0.2273920971716788,0.0096658468340255
1.7333333333333334,-0.675941672638184,-1.443471871160452,0.6176756861413566,0.0231831689547192,-0.0352158991873796,0.6725231791700329,0.7388741128234723,0.1716511437268352,-0.1017669430173136,0.0895208770532976,0.2587656475340995,-0.0744291139587971,0.2273903193010847,0.3209306392643295,0.0145503420085757,0.0,0.0,-0.2289747302795484,-0.1262600240906274,0.1531977807266535,0.3687536076038842,0.0153981528932276,0.0,0.0,0.4273692673375389,0.0703083816087826,-0.2859054416151445,0.0305143564897924,0.0819658479932307,-0.0260156412267901,0.4925211230000922,-0.1835863560621306,-0.2077381856167878,0.1276898818441327,-0.2296079111749334,0.0118845172253502
1.7666666666666666,-0.6764274237616471,-1.4345230362827956,0.6169333438046974,0.0231078788944719,-0.0356501378177641,0.6715373468047207,0.7397517728623901,0.1729177527350063,-0.1021348613537053,0.0886305917391652,0.2576121408789729,-0.0669761643990057,0.2276048525666618,0.3216210415342415,0.014623582475237,0.0,0.0,-0.2294333130147173,-0.1246805750286101,0.1527958793875103,0.3682075217248,0.0158203028455396,0.0,0.0,0.4254743576449551,0.0694388124100211,-0.2937787923958396,0.0197785573984874,0.0814928205142043,-0.0284646042771688,0.5009628269251782,-0.1837135604358004,-0.208783887572297,0.1356454562418056,-0.2315982609725764,0.0136676276514056
1.8,-0.677009529906187,-1.4254209243606304,0.6162336759066359,0.0233422754284603,-0.0359341022011162,0.6705057962960922,0.7406658191182883,0.1743759980383976,-0.1022366185657373,0.087580647980911,0.2562394654879371,-0.0575493762867038,0.2279137600339765,0.322441366392909,0.0146218465899915,0.0,0.0,-0.2292699298285735,-0.1231120313371206,0.1525035097507911,0.3674545616572862,0.01616555315908,0.0,0.0,0.4224181662472225,0.0693299806877859,-0.2982918837005612,0.0136685776600804,0.0815659785385777,-0.028153636246737,0.5088329855840185,-0.1832338765228533,-0.2094424309579821,0.1447211553728997,-0.233343668248362,0.0148353406146383
1.8333333333333333,-0.6776674970172808,-1.4162210934901622,0.6155808575940586,0.0235116874034188,-0.0360581692627375,0.6692982840700186,0.7417457892875379,0.1760267265422115,-0.1018874130360679,0.0862002978288885,0.2546083616137566,-0.0476513718777753,0.2282494348204821,0.3232494210580558,0.0145445520987287,0.0,0.0,-0.2284301765478075,-0.1215498086473533,0.1523254155201145,0.3665540955857202,0.016383429990666,0.0,0.0,0.4179452490119529,0.0698108110761186,-0.2993234953927234,0.0112352226347396,0.0834276166757155,-0.0251317333570499,0.5158756764620375,-0.182021614926081,-0.2097397565759625,0.1549093450136917,-0.2347944528318545,0.0153022248956385
1.8666666666666667,-0.6783632773351195,-1.4069678806406023,0.614976173380708,0.0233417487872512,-0.0360365701218714,0.6678222375610221,0.7430814137067311,0.1778192847363277,-0.100909343683501,0.0843191306079405,0.252679482001718,-0.0388113059087144,0.2285490702352709,0.3238933409888529,0.0144105495914626,0.0,0.0,-0.2268746719008025,-0.1199913495869988,0.1522189079392482,0.3655428079323551,0.0164404396601404,0.0,0.0,0.4120709133970041,0.0706626346566932,-0.2967995872581838,0.0115231221774202,0.0881067530689787,-0.0195368831729384,0.5218667423566571,-0.179972950819155,-0.2097660744969035,0.1662224522521649,-0.2358497787558053,0.0151206458774976
1.9,-0.6790534909867935,-1.3976822226774186,0.6144199260949241,0.0227833742504066,-0.0357756055151707,0.6661829109164419,0.744581327398616,0.1796567041709171,-0.0991662054885073,0.0817952227503549,0.2504293785718737,-0.0323145471405536,0.2287661119878088,0.3242321552366524,0.014246399602485,0.0,0.0,-0.2245820225585761,-0.1184500750460795,0.1521133560198229,0.364419965777763,0.0163316339158855,0.0,0.0,0.4050601534819716,0.0716755582940862,-0.2907224580886876,0.0136590466581823,0.0962207092964358,-0.0116192733384647,0.5266370736739414,-0.1770316615874367,-0.2097037015811398,0.1787129829081434,-0.2363403146113105,0.0145082795166015
1.933333333333333,-0.6797072863472797,-1.3883583137208193,0.6139144213393989,0.0220110594814148,-0.0350853317976383,0.6646824954698157,0.745977019062366,0.181406082771349,-0.0965895385557596,0.0785390082859107,0.2478638488513406,-0.0289919756727791,0.2288768232806151,0.3241479095160722,0.0140760189746479,0.0,0.0,-0.2215480330132808,-0.1169624548076272,0.1519395778150735,0.3631350503741242,0.0160857081439221,0.0,0.0,0.3973307011030572,0.0727016950810133,-0.2812505858479366,0.0169057858155424,0.1078255180186071,-0.0017365977038137,0.5300832057058043,-0.1732029026948111,-0.2098314719915145,0.1924819611939717,-0.2360218208011441,0.0138451421440064
1.9666666666666663,-0.6803220826583003,-1.3789719439810002,0.613467583474125,0.0213298241574283,-0.0338506365603496,0.6636105242494574,0.7470075268102944,0.1829093826260294,-0.093191130918099,0.0745288886140708,0.2450208442434492,-0.029104880836428,0.2288812845346884,0.3235535172836504,0.0139162481450833,0.0,0.0,-0.2177819926215244,-0.1155860583339419,0.1516560721599484,0.3615849301780956,0.015759410457309,0.0,0.0,0.3893038106304014,0.0736967525829699,-0.2687994516864018,0.0206786029330182,0.1223594657406359,0.0096769481665611,0.5321631476541854,-0.1685471555255565,-0.2104946280969417,0.2076755653476825,-0.2345860998356514,0.0136276910036245
2.0,-0.6809305116509092,-1.369497074608978,0.6130960894234956,0.021005112435877,-0.0321763057908738,0.6630055447991969,0.7476276601107856,0.1839930581410995,-0.0890581112260924,0.0698157834695669,0.2419588410005611,-0.0323428583719267,0.2287994380896147,0.3224020467446772,0.0137777687316905,0.0,0.0,-0.2133016840994285,-0.1143915291975152,0.1512622252540751,0.3596270796035218,0.0154192927441295,0.0,0.0,0.3812504588911601,0.0747427619658358,-0.2541116505733894,0.0245291467008348,0.1387072880288092,0.022155051044496,0.5328767684585445,-0.1631527923461561,-0.2120422193436537,0.2244718983011928,-0.2316903332146594,0.0143794955807458
2.033333333333333,-0.6815960763225565,-1.3599233691254504,0.6127899830531001,0.0210638727799579,-0.0303433622420958,0.6626315283562347,0.7480341243951609,0.1844789474561396,-0.0843290720298196,0.0645151863767218,0.2387348027960616,-0.0379285244077695,0.2286632472953541,0.3206980449588318,0.0136677756551359,0.0,0.0,-0.2081288736969162,-0.1134534857192701,0.1507952318060363,0.3571089324252488,0.015116468403624,0.0,0.0,0.3731879967325957,0.0760470749650379,-0.2382455326288477,0.0281084750901695,0.155383247811186,0.0352397541193316,0.532233578897185,-0.1570953308249917,-0.2147489588359875,0.2430617832435242,-0.2269978305619155,0.0165352715300003
2.066666666666667,-0.6823994166632601,-1.3502676562217226,0.6125535865421107,0.0212318788281763,-0.0286065856535184,0.662219972157102,0.7484621426998969,0.1841995547174007,-0.0791554312337347,0.0587881447444,0.2353824894230609,-0.0447979813272262,0.2285070217036449,0.3185064205087927,0.0135914773344325,0.0,0.0,-0.2022870376861217,-0.1128428997819403,0.1503139840323367,0.3539054281147249,0.014866841281406,0.0,0.0,0.3648656390912774,0.0779147665494405,-0.222459278734778,0.031127053799912,0.1707966972100754,0.0485064929239841,0.530214850462474,-0.1503986624003078,-0.2187472865063583,0.2636288496173028,-0.2202178457192929,0.0203274713738458
2.1,-0.6834196837494484,-1.3405746126776592,0.6124342009088346,0.0211617487228055,-0.0269969715800822,0.6617633508906026,0.7489276409203618,0.183017406270905,-0.0736601640140232,0.0528163150705448,0.2319008346840686,-0.0518102277270172,0.2283592222698212,0.3159544908229564,0.0135513616205015,0.0,0.0,-0.1958023242284904,-0.1126189065423654,0.1498774746560199,0.3499521263405502,0.0146475110505164,0.0,0.0,0.3558442530500184,0.0806948779982258,-0.2080101003100779,0.0333322446530668,0.1835366947694043,0.061573650200399,0.5267388909457411,-0.1430149914630175,-0.2239930620553984,0.2863338670526226,-0.2111335286873852,0.0257054200923103
2.1333333333333333,-0.684716379269267,-1.3309060183917942,0.6124732108528526,0.02082933860326,-0.0252765337913047,0.6615724598089072,0.7491656131425413,0.1808447530131426,-0.0679098991444781,0.0467778692704469,0.2282546410565099,-0.0579401216304728,0.2282384932890055,0.3132263662214565,0.0135441939267415,0.0,0.0,-0.1887069611425786,-0.1128163584066486,0.1495260561084666,0.3452624711570828,0.0144106730799775,0.0,0.0,0.3456424965162657,0.084707589507157,-0.1959249985269039,0.0345178533243876,0.1926050700600912,0.0741059008059146,0.521637659570694,-0.1348352210963869,-0.2302769011045432,0.3113066061019937,-0.1996140106485586,0.0323071325638078
2.1666666666666665,-0.6863162883712273,-1.3213236778674713,0.6126949852899755,0.0206970409545771,-0.0230870077293144,0.6620155223113104,0.7488484965523494,0.1776597250291702,-0.0619108652310505,0.0408294252589498,0.2243827646425352,-0.0624239763333835,0.2281539320312781,0.3105512438360853,0.0135573230093983,0.0,0.0,-0.1810427024619912,-0.1134292236305147,0.1492711237987099,0.3399241397107013,0.014107215694314,0.0,0.0,0.3339000816435705,0.0901675460230594,-0.1868127344109951,0.0345649452700782,0.1975437080134933,0.0858228480290284,0.5146518670271185,-0.1257302389806575,-0.2372790381668525,0.3386462868022806,-0.1856133991180365,0.0394889883539722
2.2,-0.6882077101378766,-1.3118741891712604,0.613098590554929,0.0213817044522789,-0.0201996937427253,0.6631690053540233,0.7478914797115762,0.1735165881804906,-0.0556279554972211,0.0350965409756068,0.2202073355493443,-0.0648424732393663,0.2281075463633325,0.3081868534796205,0.013568337678531,0.0,0.0,-0.1728619829244658,-0.114395692504551,0.1490944713444549,0.3340773551547647,0.0137089149523251,0.0,0.0,0.3205056552994786,0.09712346483959,-0.1807726295850159,0.0334955573038708,0.1984351255264166,0.0965187646650296,0.5054505375383823,-0.1156090076477098,-0.2446536970538612,0.36842912150099,-0.169162317100502,0.046403986803729
2.2333333333333334,-0.6903411805445083,-1.3025809752592912,0.6136563552678349,0.0230869949436439,-0.0166800840132766,0.6647288450599649,0.7465415782171998,0.1685481054193724,-0.0490184823401301,0.0296734339850847,0.2156409834487598,-0.0651358102934477,0.2280975533014709,0.3063984261073657,0.013551757325451,0.0,0.0,-0.1642266148892404,-0.1155933633007636,0.1489552875097677,0.3278838496441807,0.0132204509032829,0.0,0.0,0.3056509766532057,0.1054322085212182,-0.1774231132915313,0.0315114160786141,0.195792207911892,0.1060884205466878,0.4936767719468101,-0.10446858439335,-0.2521214815765268,0.4007187399450123,-0.1503576984924805,0.0521090897100613
2.2666666666666666,-0.6926343051155959,-1.2934444114279466,0.6143199931581153,0.0253774713985792,-0.0128369294677976,0.6662930580983089,0.7451474739387209,0.1629569529246056,-0.0420712367945824,0.0246305715547484,0.2105931449911615,-0.0635544085112611,0.2281224657517066,0.305434139089932,0.0134913200623328,0.0,0.0,-0.1552065787560929,-0.1168504874939481,0.1488015995744089,0.321497297680115,0.0126777752772668,0.0,0.0,0.2897981986147329,0.1147760611031082,-0.1760342853485688,0.0289932015913196,0.1903797177641041,0.1145451275967766,0.4790132478147544,-0.0924110148221234,-0.2595467924878598,0.4355729868939196,-0.1293562940185333,0.0556782259956992
2.3,-0.694979231396359,-1.2844491077018187,0.6150315425332126,0.027548470718358,-0.0090233652578417,0.6677342389214942,0.7438350938295641,0.1569934933255752,-0.0348422983385928,0.0200260418234388,0.2049773623184619,-0.060559905141761,0.228184959234813,0.3054995996983965,0.0133906440685986,0.0,0.0,-0.145881867804896,-0.1179737953740255,0.1485833418395051,0.3150445924513244,0.0121351644769374,0.0,0.0,0.2735736934541235,0.1247181276638847,-0.1757172074277778,0.0264495268873879,0.1830204300119185,0.122017497164738,0.4612531814897035,-0.0796136942489938,-0.2669822008363191,0.473039695733586,-0.1063767841045717,0.0563003785341807
2.333333333333333,-0.6972539738856226,-1.2755764436640178,0.6157348097835225,0.0292124138305624,-0.005489199755352,0.6692705677721421,0.7424240100361735,0.1509213868381285,-0.0274778739601426,0.0159153582661971,0.1987195059843248,-0.0567030919730741,0.2282928526186569,0.3067351277401746,0.013274298638394,0.0,0.0,-0.1363471075847052,-0.1187872344774404,0.1482646980040998,0.3086229771763402,0.011647572088172,0.0,0.0,0.2576217701827996,0.1347789692670152,-0.1756104034491338,0.0244223716379689,0.1744341836187034,0.1287207709586787,0.4403597182359683,-0.0662582358317516,-0.2746707294158082,0.513135773479631,-0.0817133547714445,0.0533504231488059
2.3666666666666667,-0.6993405801789476,-1.2668173253162305,0.6163835719122024,0.0305140513814464,-0.0023859054204957,0.6711733658815492,0.7406682881390609,0.1449786516642856,-0.0202141299911986,0.0123563859478404,0.1917654696060918,-0.0525107241308926,0.2284553716647774,0.3091992924287312,0.0131770049124005,0.0,0.0,-0.1267141636010593,-0.1191705082796777,0.1478330373294032,0.3023117622582705,0.0112561180601125,0.0,0.0,0.2424597967176435,0.144513523064784,-0.1750161582322985,0.0233710331658555,0.1651428190814515,0.1349094422062288,0.416499492862817,-0.0524404103683405,-0.2830063946560566,0.5558085745951984,-0.0557602626983835,0.0464310664868104
2.4,-0.701150956357399,-1.2581778178852194,0.6169450323821298,0.0318296052396047,0.0001676559302871,0.6734439917143806,0.738552664436045,0.1393449266007503,-0.0133487585052658,0.0094094264522449,0.1840876070281062,-0.0484074200737101,0.2286756349051341,0.3128601023575914,0.0131267674584294,0.0,0.0,-0.1171067142490139,-0.1190836621425128,0.1473016265626801,0.2961903617480015,0.0109819632335351,0.0,0.0,0.2283714654999856,0.1535717029815944,-0.1734671486408234,0.0235651832912585,0.1554514175939427,0.1408237258981364,0.390042562824215,-0.038093517818391,-0.29246090536228,0.6008849402694577,-0.029043243031052,0.0353931225370917
2.433333333333333,-0.7026554465795171,-1.2496733548261063,0.6173996179343625,0.0333477338168217,0.0020853766812974,0.6757937756825496,0.7363330446218636,0.1341230647632017,-0.0071881513068026,0.0071339315577392,0.1756905521688593,-0.0446840359702537,0.228942069857271,0.3175935733440677,0.0131320840545507,0.0,0.0,-0.1076450701315369,-0.1185675557811658,0.1467051652018974,0.2903499197812496,0.0108284220076466,0.0,0.0,0.215359916553662,0.1617342008726636,-0.1707309870416033,0.0250170638026146,0.1454926148823929,0.1466432557514871,0.3615293943774073,-0.0229557168906789,-0.3034897396898509,0.6480197982933035,-0.0022496287751163,0.0203441654626669
2.466666666666667,-0.7039043108042025,-1.241314328819088,0.6177393073274758,0.0349625778363058,0.0033679177191266,0.677890935989198,0.734322922279406,0.1293367847480037,-0.0019828173648069,0.0055827325440437,0.1666172112965599,-0.0415071475578434,0.2292215969924503,0.32319124684177,0.0131806396254042,0.0,0.0,-0.098426396762523,-0.1177201799070459,0.1460907701439032,0.2848890876102376,0.0107865847197856,0.0,0.0,0.2031633563495627,0.1689216127926987,-0.1667744291327356,0.0274732813599367,0.1353046964333649,0.1524602611107767,0.3316144026756001,-0.0065989759229769,-0.3164339752562006,0.6966607327262198,0.0237552625159444,0.0016510503979013
2.5,-0.7050321590249773,-1.2330912886831082,0.6179660296376992,0.0364843913569759,0.0041102526040063,0.6795665258824009,0.7326945693199634,0.1249404277478791,0.0021316618438846,0.0047942097447152,0.1569539407662267,-0.038953990858484,0.229457437125902,0.329381620574799,0.0132492144598855,0.0,0.0,-0.0895090358086209,-0.1166592340358315,0.145509184226647,0.2798956099572917,0.0108397050133488,0.0,0.0,0.1913203095732986,0.1751788984755123,-0.1617095690181247,0.0304709386313488,0.1249107767451816,0.1582809926548024,0.3010019019007906,0.011481466023572,-0.3314349078655448,0.7460443906831155,0.0479409455731039,-0.0200665554496372
2.533333333333333,-0.7062407769093114,-1.224968232084273,0.6180906927483729,0.037849934311636,0.0044407666200908,0.6808072661262882,0.7314705246652664,0.1208346837986969,0.00517119166877,0.0047832706309027,0.1468309184906128,-0.037056062795099,0.2295742127277778,0.3358682680198689,0.0133178181652163,0.0,0.0,-0.0809067688925046,-0.1154855875776988,0.1450092513742265,0.2754254851333432,0.0109654175208823,0.0,0.0,0.179264662923563,0.1806405374460589,-0.1557378783119931,0.033445990674513,0.1143739625455494,0.1640551494691184,0.2703904630872952,0.0317361993281968,-0.3483765382675767,0.7952334458395317,0.0691678703095388,-0.0439609327819095
2.566666666666667,-0.7077632622537154,-1.2168884800284057,0.618132795568817,0.0391205441070451,0.0044717861854716,0.6816665187870918,0.7306027260568958,0.1168826724757918,0.0073052347598104,0.0055326511755115,0.136412216432846,-0.0358380621354523,0.2294907636215616,0.3423778276270606,0.0133799912146253,0.0,0.0,-0.0725924268493469,-0.1142595315056645,0.1446348212160063,0.2714922974262682,0.0111377553240545,0.0,0.0,0.1664318196447947,0.1854854579078185,-0.1491015195468164,0.0358678682318275,0.1038169212482385,0.1697205047857424,0.2404338942241806,0.0544203561824122,-0.3668667217772549,0.8431917892006497,0.0862922694640154,-0.0690087702978543
2.6,-0.7098173904132891,-1.2087915897902584,0.6181199743355107,0.0403570667837622,0.0043067804284016,0.6822706955663697,0.7299722301391571,0.112922301194409,0.0088211410429726,0.0069862896241471,0.1258733534540453,-0.0353417178521994,0.2291370572511178,0.3487022813190132,0.0134451671195789,0.0,0.0,-0.0645058355606538,-0.1129949818719108,0.1444213976751742,0.2680720506329421,0.0113304074378413,0.0,0.0,0.1523618012852616,0.189892879324947,-0.1420479415522834,0.0373660079965152,0.0934085774832662,0.1752426446080762,0.2117148586587287,0.079476514431079,-0.3862611309194132,0.8888854056164811,0.0983095800404983,-0.0940935823867385
2.6333333333333333,-0.7125578380688014,-1.2006339658566496,0.6180865335925716,0.0415651393963608,0.0040438624510178,0.6828711704495969,0.7293441923620397,0.1087736569235255,0.0100582893479755,0.0090459911959981,0.1153714773711764,-0.0356257466188307,0.2284688670513809,0.3547209111579154,0.0135335668729198,0.0,0.0,-0.0565615451070475,-0.1116691871111462,0.14439182769456,0.2651197587939359,0.0115208046982842,0.0,0.0,0.1367872762479288,0.1940086646939016,-0.1348111763298998,0.0378139097406495,0.083330989208633,0.1806339200890948,0.1847182718375865,0.1064715392004489,-0.4057257624021045,0.931389703082549,0.1045088952416626,-0.1181097486160725
2.6666666666666665,-0.7160378170655574,-1.1924032622321332,0.6180706113017584,0.0427572347636346,0.0037148762319131,0.6837689268985737,0.7284353596427908,0.1042446418683752,0.0113293562693912,0.0115717451319568,0.1050190299469666,-0.0367372766190678,0.227474636166147,0.3603977958398106,0.0136667885403458,0.0,0.0,-0.0486552720665286,-0.1102403646244841,0.1445535960156588,0.262587555905175,0.0116937505796749,0.0,0.0,0.1196921704764521,0.1979268781808447,-0.1276087043227046,0.0373468488058117,0.0737427280838176,0.1859476485739524,0.1597927420479679,0.1346053227946319,-0.4243264543278688,0.9699817264439992,0.104600425752586,-0.1400714716256137
2.7,-0.7201903341882412,-1.1841194688771346,0.6181105889224674,0.0440255561969607,0.0032163921929798,0.6851216534572968,0.7270899017224411,0.0991412754789357,0.0128510067536868,0.0143860536114006,0.0948704565044409,-0.0386597117423207,0.2261725193340291,0.3657626459708251,0.0138586165101978,0.0,0.0,-0.0406710613830331,-0.1086646550148108,0.1449007408814457,0.2604331456690399,0.0118431427978648,0.0,0.0,0.1013240395362509,0.2016852137824426,-0.1206476060144913,0.0363082283707199,0.0647518652641429,0.1912544683633366,0.1370995236178067,0.162792559597509,-0.4411305903652031,1.0041983478455307,0.098780619386988,-0.1592066217948726
2.7333333333333334,-0.7248346415558704,-1.17582253680625,0.618241673137573,0.0455235778283053,0.0023497761889751,0.6868592331138632,0.7253595496716146,0.0932871811925387,0.0147036395458044,0.0172833300002476,0.0849238679542789,-0.0412548102025935,0.2246004527420441,0.3708879598323485,0.0141105259787943,0.0,0.0,-0.0324918887274367,-0.1069058071164303,0.1454196872906136,0.2586139171902492,0.0119704739615523,0.0,0.0,0.0821484545862791,0.2052692236364166,-0.1141310916676692,0.0351407102217514,0.0564048997768784,0.1966127846917426,0.1165627285983029,0.1898008564828341,-0.4553056957776498,1.0338485837077405,0.087714558131336,-0.175017485196007
2.7666666666666666,-0.7297056065319633,-1.1675533663712858,0.6184381930658586,0.0473470519679811,0.0009843225649056,0.6888395197404634,0.723365332195812,0.0865499556600818,0.0168297060741748,0.0200452767395514,0.0751316648606921,-0.0442249891865811,0.2228056977571231,0.3758715298645772,0.0144138453880423,0.0,0.0,-0.0240145958994003,-0.1049354623775711,0.1460937157767126,0.2570724175799474,0.0120799683658432,0.0,0.0,0.0627492582450862,0.2086212032006354,-0.1082569527906307,0.0342548720314777,0.0486904782563534,0.2020452255416331,0.0978431139020459,0.2144157836808642,-0.4661991631535966,1.0589778645759882,0.0724360954012808,-0.1872979132791803
2.8,-0.7344978029204265,-1.1593374716716105,0.6186619876870387,0.0493869734713984,-0.0007950634709989,0.6910718173788908,0.7210964137686788,0.0788655055139334,0.0190669603400072,0.0224617886998398,0.0654126636173062,-0.0471190307499998,0.220838941371946,0.3808248624609229,0.0147564595503262,0.0,0.0,-0.0151667251136437,-0.1027281883629369,0.1469007284946145,0.2557249368702773,0.0121721745237491,0.0,0.0,0.0436977593191437,0.2116535101403885,-0.1032023257495737,0.0339145443137277,0.0415514255681387,0.2075295049195782,0.0803553434121261,0.2355997607475738,-0.4733838163638059,1.0797936189124446,0.0541859966393569,-0.1961073290923415
2.833333333333333,-0.7389145702343543,-1.151177310294458,0.6189177677161083,0.0512789670984469,-0.0027065711177333,0.6937335507888138,0.7183988464050075,0.0702506778845263,0.021203019946999,0.0243552471785952,0.0556643673499071,-0.0493906371591134,0.2187521621438251,0.3858621994752644,0.0151289089235624,0.0,0.0,-0.0059200523053818,-0.1002590464068107,0.1478050007760768,0.2544624728298723,0.0122390625985203,0.0,0.0,0.0254252136327474,0.2142682069535839,-0.0990946117105087,0.0341712944306686,0.0348981513835781,0.2130055493887304,0.0633356657980897,0.2526157090170611,-0.476659739482755,1.0965736187904551,0.0342226732283078,-0.2017117335293067
2.8666666666666667,-0.7427131611380609,-1.1430537460790116,0.619200044945077,0.0525561384299737,-0.0044548592380879,0.6969503877794236,0.7151770155119705,0.0608000633483048,0.0230342734509298,0.0256041189725316,0.0457805297632991,-0.0505010779475368,0.216595933771177,0.3910849545682675,0.0155248049424379,0.0,0.0,0.0037042350474942,-0.0975077187650692,0.1487503903555217,0.2531655077292759,0.0122632222756663,0.0,0.0,0.0081309263555489,0.216382267700507,-0.0959757760009828,0.0348626258401721,0.0286202257555252,0.2183934246627062,0.0459498774669976,0.2650947343853091,-0.4760157119015293,1.1095855828233687,0.0136468503829616,-0.2045070013257409
2.9,-0.7457378747080283,-1.13493400965478,0.6194952010056687,0.0529596227836547,-0.0059232068749915,0.7005930921459521,0.7115683475340246,0.0506693819845855,0.0244145401868958,0.0261594523230147,0.0356771662057118,-0.0500425743252192,0.2144145461560523,0.3965610693706623,0.0159341833326729,0.0,0.0,0.0136402118418958,-0.094465613520087,0.1496629725868043,0.2517263719251869,0.0122220629503763,0.0,0.0,-0.0082527889420856,0.2179523799106525,-0.0937732979138433,0.0356666576839037,0.0225965409792837,0.2236130905704262,0.0274188839929898,0.2730376963264715,-0.4715688797419639,1.119041925449786,-0.0067208177300636,-0.2049413325392456
2.933333333333333,-0.7479338955038756,-1.1267829466581505,0.6197861327829364,0.052664356095834,-0.0072187442826596,0.7043205512153189,0.7078890566068542,0.0400507741456481,0.02528417004647,0.0260476001465449,0.0253202737434259,-0.0478527076035434,0.2122411257928431,0.4023047462009687,0.0163340416593909,0.0,0.0,0.0237890225293131,-0.0911400844814001,0.15046442205401,0.2500693583478737,0.0120960614126469,0.0,0.0,-0.0240312851542884,0.2189909081556007,-0.0922916272018057,0.0361901107921144,0.0167051074285903,0.2285994938208725,0.0071354071912515,0.2767532123730457,-0.4635092630442602,1.125097837105966,-0.0263832180752667,-0.2034532398482841
2.966666666666667,-0.7493381290452418,-1.1185738207735012,0.6200582222218682,0.0521831211256771,-0.0085527856834478,0.7078117079764056,0.7044191634092299,0.0291452498379335,0.0256761996743204,0.0253574177174231,0.0147413487225492,-0.0440917077419602,0.2100947312863136,0.4082656918845649,0.016683797900157,0.0,0.0,0.0340334990727283,-0.08755513279104,0.1510897059400754,0.248161109105792,0.0118785721146416,0.0,0.0,-0.0396609700759454,0.2195676245888348,-0.0912317637320469,0.0360625408319309,0.0108321876488266,0.2333114460930217,-0.0152509346288577,0.2767492059213708,-0.4520698390166692,1.1278826324338516,-0.0451281769201764,-0.2004369139943262
3.0,-0.7500511129549243,-1.1102949501435009,0.6203041347544369,0.0519943359917901,-0.0100673507550173,0.7109347208932298,0.7012610498965516,0.0181369888112414,0.0257015979045198,0.0242182938353558,0.004030573123957,-0.0392615260102049,0.2079796971136805,0.4143356212209119,0.0169315321998409,0.0,0.0,0.0442523329596027,-0.0837529954714643,0.151500280568694,0.246010378239585,0.0115834234067657,0.0,0.0,-0.0556279430041734,0.2197974294562416,-0.0902367537157607,0.0350161599129648,0.0048793799349596,0.2377351527287143,-0.0397945294371003,0.2736083205425821,-0.4375265011274915,1.1275426645432631,-0.0629300986553497,-0.1962360375678376
3.033333333333333,-0.7502021321994944,-1.1019508256745916,0.6205252245479215,0.052218027132897,-0.011734845032844,0.7137127344360773,0.6983907958716099,0.0071737753177023,0.0255200167419255,0.0227794280788179,-0.00669056185858,-0.0341559617017999,0.2058875469923073,0.4203731654571269,0.0170307214897872,0.0,0.0,0.0543321409340383,-0.0797991943754689,0.151688104442337,0.2436614558522278,0.0112463239801415,0.0,0.0,-0.0723256584797773,0.219817760281999,-0.0889526548111503,0.0329394999377325,-0.0012324887648574,0.2418827760447458,-0.0662642988928381,0.2678828930061534,-0.4202158387873369,1.1242730009744724,-0.0798310783813474,-0.1911542439707767
3.066666666666667,-0.7499210845995196,-1.0935595636754096,0.6207292061632609,0.052618058825191,-0.0133859336520789,0.7161925894526735,0.6957875620322665,-0.0036427386014968,0.0253049213655581,0.0211962834623312,-0.0173048440355002,-0.0297435571108775,0.2038015390938428,0.4262396208872185,0.0169608984049038,0.0,0.0,0.0641768364955154,-0.0757872934436325,0.1516718964452482,0.241185200617995,0.0109184263880117,0.0,0.0,-0.0899643226031424,0.2197602996279556,-0.0870907520334888,0.0298985032305679,-0.0075621200456083,0.2457862785059194,-0.094197744256905,0.2600376616036401,-0.4005519338988058,1.11832247998471,-0.0958416425953712,-0.1854642605287344
3.1,-0.7493239065611642,-1.0851496934304112,0.6209254899652986,0.0528873037056588,-0.0148414373727256,0.7184016514093415,0.6934563663964648,-0.0142545571437264,0.0252116101460539,0.0196215688858693,-0.0277284914055521,-0.0269991453081783,0.2017018328215556,0.4318321857999432,0.0167423450660251,0.0,0.0,0.0737144359947805,-0.071835824714724,0.1514900820097576,0.2386676251728726,0.0106543582291117,0.0,0.0,-0.1085304239046828,0.2197230046893941,-0.0844771459443816,0.0261218210166788,-0.0141465781300189,0.2494884805896137,-0.1229859300207922,0.2504494297123293,-0.3790281310369318,1.1099677691187977,-0.1108875304782595,-0.1794025587121998
3.1333333333333333,-0.7485097052743509,-1.0767580597521875,0.6211199254170323,0.0529287654233053,-0.0160688867386175,0.7204217116590448,0.691326908227937,-0.0246331463651927,0.025354377480247,0.0181944357288396,-0.0379254183304064,-0.0267141970427938,0.1995684731091578,0.4371026350229562,0.0164357062856438,0.0,0.0,0.0829014237354126,-0.0680717895037656,0.1511941761926899,0.2361936750710436,0.0104992995348636,0.0,0.0,-0.1277968025633325,0.21975063343623,-0.081078618878743,0.0219533418419411,-0.0209977882128497,0.2530349221399364,-0.151972585380518,0.2394502252748846,-0.3562003804853678,1.0994632500529409,-0.1248080964547068,-0.1731479310040194
3.1666666666666665,-0.7475635693307754,-1.0684283993379842,0.6213104713157704,0.0528997495605158,-0.0172505413657629,0.7224335159294621,0.6891979761874075,-0.0347581736376321,0.0257965338819025,0.0170261374917935,-0.0479075016986727,-0.0293254860085991,0.1973816330613784,0.4420572748708622,0.0161232673150659,0.0,0.0,0.0917235820222112,-0.0646006973396422,0.1508443858384416,0.2338264684033165,0.0104786236831594,0.0,0.0,-0.1473720850093773,0.2198311638340988,-0.0769980860797151,0.0177842801408911,-0.0280978639113527,0.2564695176994379,-0.1805468691411642,0.2273840837780391,-0.3326573693463592,1.086983524621682,-0.1373929533435462,-0.1667934150162185
3.2,-0.7465598504030545,-1.0602083034498395,0.6214853527824946,0.0530238445391806,-0.0186761105331592,0.7246140419563598,0.686858184056436,-0.0445970932068781,0.0265537578377318,0.0161875133141895,-0.0577275613035889,-0.0348010815994648,0.1951209620321402,0.446742721735858,0.0158787957839566,0.0,0.0,0.1001909992731936,-0.0614694341587455,0.150506519128743,0.2315877605180938,0.0105914858304946,0.0,0.0,-0.166774856327788,0.2199101077513478,-0.0724396458971645,0.0139834574490771,-0.0353980921959875,0.2598342290058881,-0.2082087152738599,0.2146449670918863,-0.3089849784251871,1.072581002103668,-0.1484332567318031,-0.1603259065347662
3.2333333333333334,-0.7455633653788178,-1.0521423882759966,0.6216247098612,0.0533593442745685,-0.0205033636212234,0.7269716302576739,0.6842840355139844,-0.0540934541407806,0.027606889694353,0.015705925603578,-0.067470911636312,-0.042612223150257,0.1927657100921546,0.4512259404024721,0.0157413111464429,0.0,0.0,0.1083262324943758,-0.058633929767454,0.1502458315901119,0.2294481592918313,0.0108091063493237,0.0,0.0,-0.1855184727253877,0.2199177434075457,-0.0676523622515182,0.0108433184921538,-0.0428256634889707,0.2631699929547195,-0.2345928614515596,0.2016754754118648,-0.2857303022765038,1.0561776991448046,-0.1577645301169506,-0.1536251199832618
3.2666666666666666,-0.744627707721635,-1.0442621388477225,0.621705027518933,0.0537255857636441,-0.0225831854363238,0.7293257771148997,0.6816798896884443,-0.063167908753979,0.0289173936503478,0.0155751554789163,-0.0772462527301999,-0.0518025030567735,0.1902951334080808,0.4555756665272364,0.015707069696553,0.0,0.0,0.1161486603643032,-0.0559467038388806,0.1501127160374876,0.2273321322665623,0.0110788202156425,0.0,0.0,-0.2031933221096198,0.2197996558977292,-0.0628699209160794,0.0085521313112612,-0.0502978912895132,0.2665149142226308,-0.259452697353366,0.1889262849902458,-0.2633682653577928,1.037596953337745,-0.1652862713792759,-0.1464856078827218
3.3,-0.7437902536700137,-1.036575971240674,0.6217042663899027,0.0538496939467274,-0.0245372091245605,0.731495571917626,0.6792734089415887,-0.0717303112021639,0.0304398201292828,0.0157750219805195,-0.0871728115843245,-0.0611445225052496,0.1876869580624888,0.4598488416946852,0.0157426135509346,0.0,0.0,0.1236616498915274,-0.0531767838906139,0.150120352110656,0.2251357404289515,0.0113346454068599,0.0,0.0,-0.2195335313853902,0.2195402440656821,-0.0582647900938273,0.0071936680379533,-0.0577404457492015,0.2698974021267625,-0.2826202883868268,0.17679412083885,-0.2422740757317326,1.0166234763193682,-0.1709552361194606,-0.1386564692339234
3.333333333333333,-0.743064680646304,-1.0290638509607928,0.6216059046017296,0.0536019781800935,-0.0260490064180546,0.7334982334421161,0.6770735696636726,-0.0796975834064384,0.0321293655192631,0.0162924302444241,-0.0973611627917277,-0.0693525014376131,0.1849124044688529,0.4640824406521512,0.0158086512392418,0.0,0.0,0.1308486082477542,-0.050064662974678,0.1502221369310632,0.2227501176663421,0.0115137048430659,0.0,0.0,-0.2344554393650734,0.2191717685625193,-0.0539292548440308,0.0067678965517032,-0.0651057456173534,0.2733261630293661,-0.3039653349652509,0.1655633669117361,-0.2227051123995234,0.9930692206392472,-0.1747603571000919,-0.1298873067976169
3.3666666666666667,-0.7424349250579132,-1.0216792987184438,0.6214011820642771,0.0530973204411243,-0.027101257588482,0.7355083275277078,0.6748879140542445,-0.0870117150153069,0.0339460356306141,0.0171339889801009,-0.1078890633714249,-0.0753046640965383,0.1819289570982792,0.4682893343502488,0.015879768954926,0.0,0.0,0.1376793432801533,-0.0464012017609799,0.1502998458018011,0.2200831982344765,0.0115748848421718,0.0,0.0,-0.2480576294586892,0.2187670600949949,-0.0498855892610115,0.0072222665869433,-0.072387809432062,0.2767828626395197,-0.3233711651442237,0.1553718699802943,-0.2047933735197027,0.9668234387847752,-0.1766947085835939,-0.1199686198504307
3.4,-0.7418560988647767,-1.0143593771884831,0.6210894948725527,0.0525701246934803,-0.0279357363976905,0.7375947586737144,0.6726142643437588,-0.0936535443676042,0.0358585368872921,0.0183221927963128,-0.1187781341449861,-0.0782282158306315,0.1786739136698593,0.4724571430557387,0.0159505017665824,0.0,0.0,0.1441228336923125,-0.0421084816458114,0.1501694762911236,0.2170736036047569,0.0115123635598044,0.0,0.0,-0.26057893199305,0.2184200531029509,-0.0461172228604729,0.0084835258793372,-0.0796292719908741,0.280223069447272,-0.3407348574186633,0.1462098940601689,-0.1885455060213663,0.9378750593318732,-0.1767412061698351,-0.1087593362719082
3.433333333333333,-0.7412646450037708,-1.0070406236539513,0.6206771391914216,0.0521755993352103,-0.0288040065781381,0.7395543007412045,0.6704531842673628,-0.0996489239901073,0.0378508785044127,0.0198724520381276,-0.1299794010918203,-0.0778125220790104,0.1750615289672815,0.4765505569429026,0.0160280479451056,0.0,0.0,0.1501599083457426,-0.037297634912085,0.1496047042348708,0.2136926810584017,0.0113561481972449,0.0,0.0,-0.2723218590009891,0.2182216394182834,-0.0426042984972601,0.0104826445263609,-0.08691665902098,0.2835865656346623,-0.3559876322555764,0.13794843260936,-0.1738464458989363,0.9063071701235108,-0.1748821888748544,-0.0962001827540861
3.466666666666667,-0.7405944373441385,-0.9996759523678064,0.6201747368949587,0.0519415230339804,-0.0297805188765511,0.7411100650834902,0.6687085092267773,-0.1050650922777813,0.0399329402868065,0.0217567734563843,-0.1413736376697822,-0.0742364305760876,0.170986319856553,0.4805187956635885,0.0161187545421323,0.0,0.0,0.1557907747820325,-0.0322843304972262,0.1483731564755011,0.2099357793407285,0.0111576807636263,0.0,0.0,-0.2835615089530975,0.2182372889655159,-0.0393454973374546,0.0131680270829126,-0.0943632153421717,0.2868132860600932,-0.3691250082557186,0.1303837972353696,-0.1604673177955047,0.872271829918021,-0.1711305177139907,-0.0823160981289633
3.5,-0.7397930222480207,-0.9922458124623108,0.6195937190427747,0.0518791448719716,-0.030792430412956,0.7423143606743658,0.6673303308656245,-0.1099980397028527,0.0421528264972012,0.0238689323744164,-0.1527868979613103,-0.0681147703066197,0.1663363614913077,0.484310303744449,0.016216875048967,0.0,0.0,0.1610367816859266,-0.0275543118399712,0.146279969768243,0.2058124365349936,0.0109672411656702,0.0,0.0,-0.2944678868237559,0.2184902046400073,-0.0363574463407268,0.0165047317665579,-0.1020836970253687,0.2898591608482435,-0.3802344944806624,0.1232831970955261,-0.1480838797204879,0.835956906131618,-0.1655679833358241,-0.0672120123591527
3.533333333333333,-0.7390851749741176,-0.98514288716549,0.6184586089844006,0.0520403997425895,-0.0317496299109312,0.7436635069260374,0.6657689886601943,-0.1207551349673286,0.0445738640240347,0.0292258418544038,-0.1614650228343765,-0.0572991307594621,0.1688171763871816,0.4989586133568235,0.0164189487303873,0.0,0.0,0.1670229022285423,-0.0304742548632904,0.1533537567182252,0.2107045219763914,0.011039192534346,0.0,0.0,-0.3043385644206792,0.2190587752219085,-0.0341473733981586,0.01999667646211,-0.1088913535682518,0.2930046861944726,-0.3945459554775506,0.1168590555866796,-0.1314661764405116,0.8024079098609215,-0.1604698287300623,-0.0505023298932261
3.566666666666667,-0.7379706246397779,-0.977821858789594,0.617382363840469,0.0523796567993903,-0.0325923338739468,0.7456581189006439,0.663466714345023,-0.1278523508194931,0.0482590258290887,0.032484212182974,-0.171064789269159,-0.0484179522777215,0.1656923839399738,0.5078538743421528,0.0164981601187245,0.0,0.0,0.1720781855394804,-0.0335291767662071,0.1533207362045727,0.2101672529283261,0.0109123938395804,0.0,0.0,-0.3140732515713832,0.2198007804607929,-0.0320264059371625,0.0244827092064358,-0.1167258500293578,0.2958153447383581,-0.4044735813402731,0.1102278671758182,-0.1178412073189622,0.7643204180044588,-0.1527995209431535,-0.0332206808670209
3.6,-0.7365792916494772,-0.9703244480520474,0.6163822907330724,0.0526713571867075,-0.0332447791797609,0.7482409324359077,0.6604967977339804,-0.132244652406443,0.0528869736453975,0.0338147048875117,-0.1811386767957325,-0.0418595137891834,0.1584024183515676,0.5123221567121885,0.0164416692551504,0.0,0.0,0.1764238072089036,-0.0362066675771304,0.1480256429817755,0.2055773818000174,0.0106203971066102,0.0,0.0,-0.3234439014360221,0.2205810088809189,-0.0299801667437388,0.0297278597030292,-0.1254516628117341,0.2983871741015707,-0.4111502934951283,0.1032713725287017,-0.1061738368232204,0.722547236097502,-0.1433062788800581,-0.0156908232222586
3.633333333333333,-0.7350650290408355,-0.9626855362819526,0.615468315524869,0.0526205455621476,-0.0336063674221569,0.7506820016015691,0.6577067908459597,-0.1351986553360262,0.0579381811465104,0.0336419309807133,-0.1911569332306408,-0.0373888141469698,0.1489507307012532,0.5142046620893512,0.0162663995779557,0.0,0.0,0.1803166104030222,-0.0377233144327294,0.1399828728555438,0.1988299151955215,0.0102202416226158,0.0,0.0,-0.3322056806202355,0.2212892633508332,-0.0280047605735001,0.035469789079759,-0.134871374783894,0.3008243916929214,-0.415814864141881,0.0959782289702448,-0.0953136197433857,0.6780397517613158,-0.1327489170215371,0.001852713048509
3.6666666666666665,-0.7335615362662,-0.9549355336360328,0.614872069241401,0.0521404181022093,-0.033664101109752,0.7522023187528276,0.656002878621328,-0.1380656920031056,0.062788936663994,0.0325518191281726,-0.2006110102739633,-0.0343544456138291,0.1394767709183751,0.5154497096341686,0.0160249531263068,0.0,0.0,0.1840125959449517,-0.0374782133109055,0.1318406608092679,0.1919354847563437,0.009790751581622,0.0,0.0,-0.3401944710907794,0.2218683791496809,-0.0261013569078144,0.0414472874010844,-0.144754211749544,0.3032188042390883,-0.4195988939730117,0.0884442216537901,-0.0841864048648281,0.6317806916584097,-0.1218115935297774,0.019261716959387
3.7,-0.7321522034497256,-0.9471079663572972,0.6156312134927627,0.0514514975354905,-0.0335423243644685,0.7526921972152326,0.6555014203866302,-0.1420518077139461,0.0668239889600367,0.0311545674776793,-0.2091047754200642,-0.0319663604377291,0.1318327636556415,0.5177145559242646,0.0157957078798494,0.0,0.0,0.1877247992460635,-0.0354413574279837,0.125855445567484,0.1866146614544896,0.0094248389331928,0.0,0.0,-0.3473751165435144,0.2223183550339645,-0.0242760745927783,0.0474278583498258,-0.154864547237832,0.3056378830521771,-0.4233548414883512,0.0808555007687901,-0.071932779956398,0.5847053124894279,-0.1110432852635699,0.0364585082800132
3.733333333333333,-0.7308630182477915,-0.9392427419229434,0.6155400665479357,0.0508280385086762,-0.0333658180991225,0.7527888618354738,0.655448062153203,-0.1480130539492739,0.0695553801414522,0.0299333650661115,-0.2164162684314211,-0.02956918626125,0.1272549968163751,0.522052655404903,0.0156617885368118,0.0,0.0,0.1915879700641933,-0.0322731020762358,0.1234844256669526,0.183978495302308,0.0092162980102619,0.0,0.0,-0.3538396241684891,0.2226802701814363,-0.022539941424521,0.053225405085885,-0.1649866132786385,0.3081189916792512,-0.4275608777467254,0.0734528458141619,-0.0579656680397083,0.5376178548565258,-0.1008289555812609,0.0534132929126458
3.7666666666666666,-0.7296762105103923,-0.931379989480966,0.6156897034051022,0.0502844362587106,-0.0330754400437525,0.7532762492247312,0.6549445648984167,-0.156287323987934,0.0707351605308062,0.0291148735236067,-0.2225242085986776,-0.0268501329102309,0.1261704868858393,0.528719457621617,0.0156867593478785,0.0,0.0,0.1956414817820655,-0.0290904303323946,0.1251546621594402,0.1843408574332006,0.0092421925656365,0.0,0.0,-0.359771940174139,0.2230118934981847,-0.0209007847937424,0.0587044752715393,-0.1749433257592918,0.3106663176180123,-0.432309795293113,0.066484260156031,-0.0419595269373268,0.491112790632223,-0.0913886052265925,0.070119472894535
3.8,-0.7285541058628626,-0.9235455205748018,0.6194450777824887,0.0495929136615927,-0.0324476548743168,0.7544373921437729,0.653690992704515,-0.1665755277041036,0.070441481004847,0.0285949988521492,-0.22760167257171,-0.0239384877637108,0.128142189173279,0.5371073142038358,0.0158938959546432,0.0,0.0,0.1998349553552535,-0.0269917620706067,0.1302244466885566,0.1871721153158723,0.0095419061306315,0.0,0.0,-0.3654022572714775,0.2233667970598462,-0.019342689702162,0.0637719186921047,-0.1846078166514453,0.3132500945753462,-0.4373679995505367,0.0601571417507416,-0.0238097998215051,0.4455148576442754,-0.0827946306581772,0.0865714437584885
3.8333333333333335,-0.7274624500812927,-0.915733720882329,0.6224878426705764,0.048605738602496,-0.0313457150945167,0.7559470631485425,0.6520728226488302,-0.1779014208303086,0.0691087388804447,0.0279431921332992,-0.2319822725739946,-0.0213730430081966,0.1319448254063464,0.5458171214859981,0.0162543120745714,0.0,0.0,0.2040524240204687,-0.0265911114198514,0.1371245622358037,0.191187715707809,0.0100950270649367,0.0,0.0,-0.3709693633312235,0.2237831100770111,-0.0177980567585689,0.0683602924340226,-0.19390612401823,0.315810622996096,-0.4422810408843268,0.0545996189538611,-0.0036041308974333,0.400858723523409,-0.0750001703559644,0.1027496958231012
3.866666666666666,-0.7263872484433187,-0.9078961362611492,0.6249041449567884,0.0474748679469964,-0.0299288776480512,0.7572757826209782,0.6506794819662968,-0.1886926552157828,0.0674743346321768,0.0264918611151499,-0.2361040122640536,-0.0199402031236609,0.1357681028155264,0.5528719751480413,0.0166882905636607,0.0,0.0,0.208144490447535,-0.0277886211520287,0.1436507196941542,0.1945612959619528,0.0108048603778238,0.0,0.0,-0.3766994933291752,0.2242810904987016,-0.0161247142577421,0.0724092886017142,-0.2028104752629851,0.318269434612089,-0.4465027739789984,0.0498374630500946,0.0183729607534425,0.356935010289546,-0.0678765946243106,0.1186149183638247
3.9,-0.7253419453753969,-0.8999431268278019,0.6267107037419328,0.046501793254132,-0.0285534839103432,0.7581233360975351,0.6498240446806162,-0.1970134721334617,0.0664333563483895,0.0234963511854748,-0.240435663938193,-0.0204194281154657,0.1375411753747543,0.5560596808079357,0.0170819623210891,0.0,0.0,0.2119557601734298,-0.0298480991868509,0.147366170637928,0.1952430457683994,0.0114999724933293,0.0,0.0,-0.3828007254200869,0.224864869263342,-0.0140991640204197,0.0758499523861449,-0.2113246121667996,0.3205463353288561,-0.4495294243884506,0.045790754861075,0.0416099454134154,0.3134261665555358,-0.0612597173087465,0.1341049537294675
3.933333333333333,-0.7243619870258339,-0.8917611233638391,0.6278872228777341,0.045800413616364,-0.0274376231816312,0.7585210226599797,0.6494577408342836,-0.200932289473436,0.0668247361188374,0.0183295238592483,-0.2453918793088129,-0.0233043674601808,0.1353450233345596,0.5533548497452219,0.0173165676417969,0.0,0.0,0.2153380435927339,-0.031690051138913,0.1460568109797925,0.1913400079662874,0.0119644153959845,0.0,0.0,-0.3894667122120118,0.2255258006510177,-0.0114299279097154,0.0785931380105728,-0.2194627844807797,0.3225773308726548,-0.451020470224221,0.0422932594090842,0.0653393142965508,0.2701365743593568,-0.0550004929876356,0.1491211411429614
3.966666666666667,-0.7234875209117567,-0.8832412256560356,0.6284818946993804,0.0451594811520492,-0.0264471091961634,0.758644081285975,0.6493999765991703,-0.1989405380404089,0.0692060813160976,0.0106593158161878,-0.2512470062450069,-0.0285849989076892,0.1278328529049757,0.5433313775012899,0.0173013798120479,0.0,0.0,0.2181478943253081,-0.0322383647503206,0.1381583162108813,0.1814831202867794,0.0119931544779347,0.0,0.0,-0.3968823140025036,0.2262496311582532,-0.0077905421478666,0.0805247325813143,-0.2272219754880685,0.3243279663227645,-0.4508838785669638,0.039135592497298,0.0885318164546084,0.227287608808857,-0.0490130339127801,0.1634916173650782
4.0,-0.7227112843874693,-0.8749810287659295,0.6284989056359839,0.044280402792057,-0.0252778687138056,0.7585988854930487,0.6495598557566233,-0.2046521931747891,0.0707296963575923,0.0063034259363923,-0.2544435706961865,-0.0337726737139927,0.1268287270555362,0.5451715259047898,0.0175354165715646,0.0,0.0,0.2209957710093312,-0.0366103934687174,0.1383681391227712,0.1808186611591973,0.0119064075810315,0.0,0.0,-0.4043281899357815,0.2270687896997658,-0.0036854398373024,0.081530298240762,-0.2339436508178196,0.3260004387772365,-0.4527455588782881,0.0359371563837953,0.1119856123460787,0.1890491775418156,-0.0442758924130949,0.1766855402600792
4.033333333333333,-0.7219925783690131,-0.8665885180083989,0.6282146288221272,0.0431188250316253,-0.0238447218031662,0.7584376402359411,0.6498804059543254,-0.2093344426111125,0.0723754335122747,0.0021316994790407,-0.2572731238014994,-0.0383343683782487,0.1254418510783534,0.5465482148314558,0.0177317953372731,0.0,0.0,0.2232824887627711,-0.0395795262056206,0.1377586291340978,0.1795536513638722,0.0115412058103078,0.0,0.0,-0.4123899665748829,0.2279846774812123,0.0013605736780053,0.0818189681922664,-0.240041358546841,0.3275980862723209,-0.4548649726264331,0.0326938726685572,0.1325938605022722,0.1551398712316483,-0.0401715373751024,0.1883728254696778
4.066666666666666,-0.7213122817662292,-0.8580633056629162,0.6278355436717853,0.0419406312841716,-0.0224285165053199,0.7582407219690668,0.650237612448468,-0.2129971483062938,0.0739736483964093,-0.0016039764319523,-0.2597059206867517,-0.0415594197265764,0.1238539013780706,0.5475446380766676,0.0178785491014699,0.0,0.0,0.2250161355171197,-0.0413502856122417,0.1365341457849356,0.1777147849550316,0.0109134603782223,0.0,0.0,-0.4211013978732064,0.2289993617665202,0.0072395548972842,0.0817422487019551,-0.2455418162202937,0.3291834965812202,-0.4575196566799154,0.0293594769374834,0.1489067708865932,0.1269937381282761,-0.0366632747239843,0.1982263942588043
4.1,-0.7206493395649193,-0.8494216020646519,0.6274617462006387,0.0410400603170947,-0.021377882044359,0.7581213492714425,0.650469614499643,-0.2157182899060113,0.0754202106303836,-0.0047284792993296,-0.2616947991074637,-0.043010203850711,0.122221608161781,0.5482356176535303,0.0179599523102812,0.0,0.0,0.2262434472116254,-0.0422612487201153,0.1349016908188025,0.1753422901877918,0.0100579380087219,0.0,0.0,-0.4304635524456058,0.2301281423349334,0.0137006263489987,0.0817631794183977,-0.2504871768482958,0.3308029986301584,-0.4607878832631328,0.0260122467167733,0.1600846793927726,0.1057203852886429,-0.0337267910738533,0.2059563735578473
4.133333333333334,-0.7199873498808825,-0.8406897696131848,0.6271031267697246,0.0404861459118206,-0.02075757028514,0.7581367367715118,0.6505064823831562,-0.2176332589929689,0.0766877683511949,-0.0071602684864433,-0.2631689723263535,-0.0425837553212517,0.1206701217944605,0.5486804141875488,0.0179650340240226,0.0,0.0,0.2270434868110106,-0.0426383236877551,0.1330500577149797,0.1725003642236137,0.0090190530478119,0.0,0.0,-0.4404286950344341,0.231382660826843,0.0204485668105589,0.0823292784716781,-0.2549514434961399,0.3324814385539482,-0.4645380245156044,0.0228011540314859,0.1660865538476942,0.0917946541121994,-0.0313336240366607,0.2113656256043998
4.166666666666667,-0.7193151272565121,-0.8318884262916322,0.6267677410023024,0.0401590772169623,-0.020365758035735,0.7582403855667914,0.650418328548816,-0.218914632356069,0.0778156877798667,-0.0089121178573837,-0.2640361399689054,-0.0405094699478348,0.1192966123043076,0.5489152624436918,0.0178968927201288,0.0,0.0,0.2275145140755123,-0.0427154554519335,0.1311337926401804,0.1692853160412075,0.007844214026119,0.0,0.0,-0.4508891944896545,0.2327539322503953,0.0272640242072093,0.0837492195272248,-0.25904019115223,0.3342282807799023,-0.4685065868223852,0.0198615225901416,0.1676014122769037,0.0849415515685787,-0.0294195235119865,0.2144043960114199
4.2,-0.7186227410894143,-0.823019514901793,0.6264598360470061,0.0399464417747797,-0.0200136776539912,0.7583694476878804,0.6502918693247484,-0.2197419434366203,0.0788849621302617,-0.0100819813734005,-0.2641965553288724,-0.0372882415886556,0.1181756481109351,0.5489471377519027,0.0177763756258893,0.0,0.0,0.2277570487764895,-0.0426212354415083,0.1292598376456514,0.1658214326163273,0.0065775857065304,0.0,0.0,-0.4616898027660425,0.2342058255239932,0.0340786484510337,0.0861388894258537,-0.2628673491461663,0.3360455066669294,-0.4724125588352421,0.0172417762747192,0.1657559394580861,0.0842741833841423,-0.0278576669581878,0.2151944640091493
4.233333333333333,-0.7178987347788987,-0.8140671732602232,0.6261781017169151,0.0398341495428449,-0.019680159309993,0.7585386914793697,0.6501115176556227,-0.2202670629366707,0.0799869113897156,-0.0108382311948293,-0.2635657396407878,-0.0335895271512931,0.1173623707901767,0.5487538203525569,0.0176374578659802,0.0,0.0,0.2278580802907408,-0.042408439253568,0.127482725596375,0.1622432756716216,0.0052541977314532,0.0,0.0,-0.4726666509434098,0.2356803017543075,0.0409661542063784,0.0894602935104177,-0.266523870695761,0.3379295737689287,-0.4760426304071138,0.0148804377987643,0.1617344132925185,0.0886197973083536,-0.0264609751709553,0.2140008520634502
4.266666666666667,-0.7171311071915574,-0.8050095294047208,0.6259171270449815,0.039833658301364,-0.0194206278355495,0.7587962718329803,0.6498186952782855,-0.2205846488990369,0.0811936304843258,-0.0113983112391109,-0.2620968973833897,-0.0301287114061059,0.1168926416482476,0.5482930219135529,0.0175169317423345,0.0,0.0,0.2278801360807743,-0.0420962007829029,0.1258147090567557,0.1586703022017208,0.0038981720125607,0.0,0.0,-0.4836922877475471,0.2371104114605838,0.0480663073437173,0.0936203759434789,-0.2700576685672658,0.3398676987434407,-0.4792724204473578,0.0126462972914376,0.1564794198635763,0.0968775956557785,-0.0250225573981278,0.2111537273259503
4.3,-0.716309708894038,-0.7958295592816266,0.6256708791821963,0.0399059490509182,-0.0192473741513765,0.7591209390256405,0.649440107901762,-0.2207164770131312,0.082535812290141,-0.011995755234597,-0.2597933320164428,-0.0275458986393221,0.1167805398229936,0.5475174664132282,0.0174434562610306,0.0,0.0,0.2278562731353222,-0.0417012655871567,0.124247987665744,0.155183483040564,0.0025277834961255,0.0,0.0,-0.4946955057117576,0.238434262718884,0.0555016327642651,0.0985658225908814,-0.2734732774854167,0.3418345374389665,-0.4820363701038896,0.0104133623096456,0.1505836261102429,0.1082453247523595,-0.0233757664627798,0.206954788028362
4.333333333333333,-0.715427356575825,-0.7865179318543868,0.6256459532151971,0.0399939966423366,-0.0191424784833461,0.7594383146083387,0.6490666314446718,-0.2206136693169744,0.0839908689336118,-0.0128325933004917,-0.2567051063717411,-0.026302403376872,0.1170142249649713,0.5463883590356676,0.0174299382066836,0.0,0.0,0.2277904338132876,-0.0412491358485071,0.1227753800129784,0.1518129715144731,0.0011643620750007,0.0,0.0,-0.5056425882199135,0.239601928789596,0.0633436088355598,0.1043218054326484,-0.2767472516065685,0.3437948076954568,-0.4842857496538229,0.008114101797022,0.1443731009390492,0.1222339070490825,-0.0214337620171228,0.2016187741277823
4.366666666666666,-0.7144708444189855,-0.7770535605917187,0.6257913927172276,0.0400698044359415,-0.0191143399996703,0.7597105843953023,0.6487440795387582,-0.2201741877071842,0.0854818162246696,-0.0140234563933647,-0.2529106848963719,-0.0266077928282556,0.1175525223434331,0.5448804407341697,0.017470900432366,0.0,0.0,0.227662640233151,-0.0407688104446507,0.1213952314414228,0.1485408975955101,-0.0001616626915395,0.0,0.0,-0.5164790007478424,0.2405446184497037,0.0716992298992625,0.111041597930203,-0.2798370353109256,0.3457073822486835,-0.485895530276917,0.0057036529989742,0.1381734707268593,0.1386359015903919,-0.0191139622354431,0.1952163120219617
4.4,-0.7134231446836063,-0.7674101016000711,0.6258669515656108,0.0400944838040232,-0.019184692211817,0.7598971514417433,0.648521934235035,-0.2192675894286782,0.086886079774837,-0.0155483275248843,-0.2484910582784431,-0.028388382246338,0.1183262525389138,0.5429773973173669,0.0175447040595015,0.0,0.0,0.2274383981375345,-0.0402805665856542,0.1200987186538752,0.1453166224112146,-0.0014119460441061,0.0,0.0,-0.5271183148665678,0.2411580895701178,0.0807421289602277,0.1189185678791875,-0.2826682126830488,0.3475059350774464,-0.486711633166204,0.0031038344385689,0.1324728787295166,0.1570006672694563,-0.0163178554567436,0.1879203082490242
4.433333333333334,-0.7122759108310606,-0.7575825413035705,0.6258160989845588,0.0400352921504,-0.0193825721851491,0.7599625127627563,0.6484431127502528,-0.2177577528793673,0.0880526343592775,-0.017234190242738,-0.2435073333395017,-0.0313035851165411,0.1192483243315529,0.5406629947125109,0.0176197438555519,0.0,0.0,0.2270802072022586,-0.0397851451163098,0.1188523091758669,0.1420773682331019,-0.0025474921003785,0.0,0.0,-0.5374828270459234,0.2413444246802416,0.0906158790804369,0.1281427090656427,-0.2851259341837844,0.3491044446489257,-0.4866594645146899,0.0002708548185805,0.1275967869059695,0.1767304995162473,-0.0130752397822349,0.1800091772076288
4.466666666666667,-0.7110250151844709,-0.7475795436337218,0.625596947424646,0.0398829605797606,-0.0197512633631357,0.7599024202890841,0.6485117953358639,-0.2155175910814587,0.088824104997958,-0.0187782848863372,-0.2379899983332893,-0.0348081065395234,0.1202334853776087,0.5379163151396315,0.0176636663762427,0.0,0.0,0.2265569532695174,-0.0392581269501298,0.117592109881813,0.138767299829616,-0.0035370613235912,0.0,0.0,-0.5474787200978846,0.2410045223513599,0.1014606357068621,0.1389844154983079,-0.2870504889441989,0.3504123459719277,-0.4856935449481008,-0.0027968877664463,0.1236670848875012,0.1973780078794013,-0.0095437840178461,0.1717106266608345
4.5,-0.7096709552612193,-0.7374254692202493,0.6251832693353092,0.0396571479474349,-0.0203446831743986,0.7597515718483989,0.648684016727016,-0.2124352527251727,0.089058540616746,-0.0198114723136903,-0.2319411825380698,-0.0382490026480549,0.1212233610541098,0.5347159605319235,0.017653776126075,0.0,0.0,0.2258461395666639,-0.0386488420183082,0.1162380470756651,0.1353517424252255,-0.0043617725389266,0.0,0.0,-0.5569733197264407,0.2400391664105822,0.1134174388051729,0.1517842697676626,-0.2882444633020362,0.3513520384330102,-0.4837966134064265,-0.0060674851911717,0.120626748314251,0.2186273189211542,-0.0060108289621613,0.163186316034209
4.533333333333333,-0.7082188694498026,-0.7271597544759414,0.6245654773473444,0.0394044152117282,-0.0212183846565478,0.7595786038331722,0.6488739606527891,-0.2084154502104921,0.0886460008792142,-0.0199861372168516,-0.2253460245780101,-0.0409807547521877,0.1222081729460337,0.5310501889463786,0.0175847078195617,0.0,0.0,0.2249268927665213,-0.0378822836239734,0.1147226588349551,0.1318269806177642,-0.0050138840288181,0.0,0.0,-0.5657734816019397,0.2383489195837888,0.1266350403800864,0.1669259742912717,-0.2884851844354653,0.35188203945447,-0.4809771647305852,-0.0094971351174915,0.1182868811157982,0.2402477116194245,-0.0028696037092197,0.154529424314004
4.566666666666666,-0.7066784404953131,-0.7168333850433931,0.6241765524383314,0.0391851430077969,-0.0224152730341394,0.7594661301670682,0.6489786415833123,-0.2033806105787381,0.0875178192210513,-0.0190642568145338,-0.2181882414639858,-0.0424788723256065,0.1232366193958556,0.5269244829226016,0.0174689737843163,0.0,0.0,0.2237680163238564,-0.0368657832991507,0.1130210221466766,0.1282269546065452,-0.0054916154846237,0.0,0.0,-0.5736118794002903,0.2358332457916993,0.1412733149733658,0.1847980747613454,-0.2875420792883204,0.3520225467510696,-0.4772643759448983,-0.0130577393790795,0.1163844036114668,0.2620345262981812,-0.0005710390698238,0.1457743707328468
4.6,-0.7050639820301737,-0.7065029402180865,0.624104482750338,0.0390486012500477,-0.0239490529627387,0.7594778398618708,0.6489183772720181,-0.1972756154012853,0.0856490917578083,-0.0169807909121258,-0.2104651963044827,-0.0424315774763956,0.1244102674126257,0.5223599054603955,0.017329422178983,0.0,0.0,0.222319659283999,-0.0355046062319462,0.1111682945045053,0.1246260674439297,-0.0057943963240161,0.0,0.0,-0.5801471427611221,0.232389232365878,0.1574977570128367,0.2057529779566992,-0.2851982271749567,0.3518783248365791,-0.4726994540350759,-0.0167606015087718,0.1146379777417524,0.2837542200411684,0.0004415286473614,0.1369155313359327
4.633333333333334,-0.7033947767018778,-0.6962233999145377,0.6240821240599224,0.0390023455179788,-0.0257913975477552,0.7596218502745041,0.6486819447480936,-0.1900783829916905,0.0830560390303796,-0.0138656103097279,-0.2021967505025627,-0.040790609790076,0.1258648622523711,0.5173827697518484,0.0171876174065864,0.0,0.0,0.2205151616525121,-0.0337266285345129,0.1092574834402624,0.1211358296337807,-0.0059223430672544,0.0,0.0,-0.5849811872401657,0.2279100117938844,0.1754621419523423,0.2300721192113104,-0.2812750133363607,0.3516527668005077,-0.4673232415231036,-0.0206667841971024,0.1127919214500157,0.3051079064679882,-0.0001972758459302,0.1279303550800171
4.666666666666667,-0.701695349880527,-0.6860413253784696,0.6241090571298668,0.0389902805900559,-0.0278696552583561,0.7598271668248215,0.6483561651517273,-0.1818158660993071,0.0797896180059874,-0.0100201159181078,-0.1934228045890553,-0.0377688821595165,0.1277440913454868,0.5120126012254101,0.017054683435544,0.0,0.0,0.2182834281466356,-0.0315081983390347,0.1074187370601031,0.1178954245612158,-0.0058802399810126,0.0,0.0,-0.587693190770763,0.222282703441171,0.1952803326485196,0.2579437922880868,-0.2756583838119044,0.3516471953776695,-0.4611612629783432,-0.0248785974206556,0.110642250132372,0.3257215400953069,-0.0027134582008774,0.1188019756550618
4.7,-0.6999950428484958,-0.6759899784252517,0.6241776527644592,0.038895899661762,-0.0300787015481219,0.759951051359837,0.6481178752663436,-0.1725810394354734,0.0759264732957398,-0.0058571716632079,-0.1841902478902598,-0.0337849164113966,0.1301711994345216,0.5062566222374489,0.0169296526254222,0.0,0.0,0.2155661941075768,-0.0288898505244156,0.1057892658052011,0.1150604235660029,-0.0056822987426783,0.0,0.0,-0.5878854578229638,0.2153857001403937,0.2169922010523618,0.2894558689201463,-0.2683247753057389,0.3522412286051921,-0.4542088873909903,-0.0295128617316917,0.1080443235155664,0.3451630919599899,-0.0071538378648814,0.1095371170276889
4.733333333333333,-0.6983262383589769,-0.6660874337005681,0.6242741955164751,0.0385777066529804,-0.0323039261526041,0.7598233117963283,0.6481795675238331,-0.1625438851221424,0.0715589582904703,-0.0018207631998727,-0.1745378553911449,-0.0293678558076594,0.133222883063454,0.5001149006445967,0.0168055108780853,0.0,0.0,0.212331287043925,-0.0259763788469477,0.1044864841774732,0.1127945079015229,-0.0053524621069105,0.0,0.0,-0.5852330366219979,0.2070855905169804,0.2405314098677125,0.3246008850589623,-0.2593643863608724,0.3538532850633346,-0.4464203680676494,-0.0346629296146584,0.1049062847807724,0.3629800250050851,-0.0133759937446136,0.1001764993991264
4.766666666666667,-0.6967209983791555,-0.6563379276829936,0.6243817709569147,0.0379254835859723,-0.0344460894692354,0.759312431359485,0.6487062171722997,-0.1519506502417666,0.0667864626911272,0.0016966988870242,-0.164489667651606,-0.0250471788348554,0.1369095444274194,0.4935945076501173,0.0166779449934,0.0,0.0,0.2085744021696152,-0.0229257769967104,0.103593772166932,0.1112645481554776,-0.0049174262687249,0.0,0.0,-0.5795274313838531,0.1972348638381476,0.2657034081324935,0.3632874165979423,-0.2489991184648803,0.3568845877122453,-0.4377056387136555,-0.0403607111851468,0.1011752005173796,0.3787461005072103,-0.0210697431209533,0.0907966979919719
4.8,-0.6952065729172611,-0.646735827632478,0.6244840766488018,0.0369107499806426,-0.0364374231670547,0.7583816494464642,0.6497439376490339,-0.1411092676675736,0.0617089084732999,0.0044241111145359,-0.1540608244876367,-0.0212543776831735,0.141166035653206,0.4867274647255319,0.0165507498166094,0.0,0.0,0.2043087332865286,-0.0199361367811916,0.1031602082904058,0.1106338972143943,-0.0043949047744658,0.0,0.0,-0.5707055959926902,0.1856724536474708,0.292180125173208,0.4053505153544641,-0.2375923113375317,0.3616544955124719,-0.4279375382094658,-0.0465505912005104,0.0968229332333546,0.3921059344521599,-0.029805212825,0.0815041310694019
4.833333333333333,-0.6938009065712419,-0.6372709436308236,0.6245690335118755,0.0356048320552316,-0.0382434030038692,0.7571042401562186,0.6512011268406078,-0.1303619151178359,0.0564210415812378,0.006256047501775,-0.1432705537071098,-0.0182587978466586,0.1458565447077285,0.479586885109857,0.0164354704360525,0.0,0.0,0.1995499401639566,-0.0172348308012514,0.1032082058514336,0.1110476241109606,-0.0037841596968858,0.0,0.0,-0.5588584189499288,0.1722296649908203,0.3195139400593071,0.4505555248770253,-0.2256474191198983,0.3683385167362999,-0.416969701578426,-0.05308387228955,0.0918366518678944,0.4028083764334019,-0.0390972052282241,0.0724232568150943
4.866666666666666,-0.6925095496134983,-0.6279336271692516,0.6246311999356893,0.0341553176291259,-0.03985287540476,0.7556283583355371,0.652894284458646,-0.1200476871443031,0.0510061563081274,0.0072626212501937,-0.1321529660205647,-0.0161483407010046,0.1507947375021986,0.4722967815396576,0.0163464559166944,0.0,0.0,0.1943066588735293,-0.0150661820735825,0.1037404431717086,0.1126082547329411,-0.0030653507778781,0.0,0.0,-0.5442172560413961,0.1567436974607603,0.3471686608460965,0.4985931559902225,-0.2137931598471023,0.3769217795492958,-0.4046623283837295,-0.0597363423329059,0.0862156292935863,0.4107242876861479,-0.0484728341590611,0.0636819325449206
4.9,-0.6913250826943237,-0.6187182674634992,0.6246724452061092,0.0327349122303025,-0.0412650660812765,0.7541106105766462,0.6546318101484988,-0.1104606155558585,0.0455304879453636,0.007662724026957,-0.1207598647945465,-0.0148523619248959,0.1557754446995482,0.4650316997222664,0.0162933769118116,0.0,0.0,0.1885818892163523,-0.0136710101025347,0.1047401390130519,0.1153480924341298,-0.0022089677664584,0.0,0.0,-0.5271214984997624,0.1390796914049742,0.374560927737921,0.5490679078647588,-0.202753580546927,0.3871792438968152,-0.3909104403025975,-0.0662447952938377,0.0799729734376662,0.4158488608657588,-0.0575298471254919,0.0553971319374085
4.933333333333334,-0.6902293768456285,-0.6096243516242121,0.6247009172357787,0.0314898070784643,-0.0424817792039323,0.7526549734365109,0.6562881847535535,-0.1018112984324643,0.0400414376589474,0.0077691186187044,-0.1091564850997742,-0.0141944994352558,0.1606100352933881,0.4580030615765382,0.0162739287493195,0.0,0.0,0.1823825364124352,-0.0132559626092299,0.1061647782685758,0.1192089995145227,-0.0011909290471605,0.0,0.0,-0.5079734907458827,0.1191602065095377,0.4011030108732943,0.601485277242547,-0.1933030333860753,0.3986894366237035,-0.3756680696181194,-0.0723530459248053,0.0731392686652977,0.4182917996347681,-0.0659763258168401,0.0476638303609547
4.966666666666667,-0.6891980617551909,-0.6006550269754484,0.6247288179132183,0.0305098368815687,-0.0435076748689326,0.7512875573995604,0.6578322264662637,-0.094201905007651,0.0345718135715539,0.0079218837269264,-0.0974145997822783,-0.0139598655895837,0.1651569869171025,0.4514321606172573,0.016271265593513,0.0,0.0,0.1757293593427114,-0.0139579136297979,0.1079400087757715,0.1240396651153632,-6.560529704272553e-06,0.0,0.0,-0.4871886018167024,0.0969987902094353,0.426238180623021,0.6552446269323864,-0.1862082260328846,0.4108817799608974,-0.3589626212428651,-0.0778557319196808,0.0657651575021155,0.4182598206443697,-0.0736474791476503,0.0405489524657523
5.0,-0.6882058710404144,-0.5918138623258655,0.6247697291846133,0.0298259984421268,-0.0443552013044749,0.7499727930660571,0.6593055707294356,-0.0876208177247192,0.029149454209415,0.0084269438184123,-0.0856059011770705,-0.0139616875992577,0.169340987568158,0.4455155356601433,0.0162601293219441,0.0,0.0,0.1686606476074722,-0.0158140918450713,0.1099632445424957,0.1296150684108089,0.001322045037414,0.0,0.0,-0.465147852279049,0.0727324088481251,0.4494625792305468,0.7096437454393817,-0.1821620216671824,0.4231102404871176,-0.3408962413199978,-0.082629412888418,0.0579213160432701,0.4160353048158127,-0.0805005339551904,0.0340910070714265
5.033333333333333,-0.6872313630707699,-0.5831010252251373,0.6248361866237752,0.0294258069464474,-0.0450478384824361,0.7486517938487889,0.6607762902076626,-0.0819553126222207,0.023808822845424,0.0095106669766534,-0.0737956141221978,-0.0140939138708432,0.1731562743972931,0.4403930089966724,0.0162200514226067,0.0,0.0,0.1612282348665002,-0.0187493510543329,0.1121220245810884,0.1356755338100504,0.0027475601246195,0.0,0.0,-0.4421587548518051,0.0466465050561965,0.4703318575492078,0.7638984353604734,-0.1817159946837888,0.4347399805825552,-0.3216345627505713,-0.0866444277526032,0.0496962085585359,0.4119533625433192,-0.0865929018500486,0.0283046574519057
5.066666666666666,-0.6862599263222637,-0.5745102196428193,0.6249379527906079,0.02927267678431,-0.0456171153339435,0.7472759851299049,0.6622996234564996,-0.0770148697131545,0.018599561702505,0.0112958581361548,-0.0620358131437628,-0.0143583835123417,0.1766534643310569,0.4361276483827838,0.0161474728858763,0.0,0.0,0.1534890181881786,-0.0225873878013631,0.1143223353369097,0.141974927357651,0.0042065192239062,0.0,0.0,-0.4184277885781703,0.01918660526813,0.4884553155660817,0.817176836262229,-0.1852202291863331,0.4452306317993826,-0.3013865209065046,-0.0899562066672673,0.0411934712084699,0.4063780757892287,-0.092050982052115,0.0231882864444132
