Yinzhen01/f1_train/resources/motions/f1/v1.5/raw/motion_walk_0.6ms.csv
time,root_pos_x,root_pos_y,root_pos_z,root_quat_w,root_quat_x,root_quat_y,root_quat_z,root_lin_vel_x,root_lin_vel_y,root_lin_vel_z,root_ang_vel_x,root_ang_vel_y,root_ang_vel_z,lumbar_yaw_joint,lumbar_roll_joint,lumbar_pitch_joint,left_shoulder_pitch_joint,left_shoulder_roll_joint,left_shoulder_yaw_joint,left_elbow_pitch_joint,left_elbow_yaw_joint,left_wrist_pitch_joint,left_wrist_roll_joint,right_shoulder_pitch_joint,right_shoulder_roll_joint,right_shoulder_yaw_joint,right_elbow_pitch_joint,right_elbow_yaw_joint,right_wrist_pitch_joint,right_wrist_roll_joint,left_hip_pitch_joint,left_hip_roll_joint,left_hip_yaw_joint,left_knee_pitch_joint,left_ankle_pitch_joint,left_ankle_roll_joint,right_hip_pitch_joint,right_hip_roll_joint,right_hip_yaw_joint,right_knee_pitch_joint,right_ankle_pitch_joint,right_ankle_roll_joint,lumbar_yaw_vel,lumbar_roll_vel,lumbar_pitch_vel,left_shoulder_pitch_vel,left_shoulder_roll_vel,left_shoulder_yaw_vel,left_elbow_pitch_vel,left_elbow_yaw_vel,left_wrist_pitch_vel,left_wrist_roll_vel,right_shoulder_pitch_vel,right_shoulder_roll_vel,right_shoulder_yaw_vel,right_elbow_pitch_vel,right_elbow_yaw_vel,right_wrist_pitch_vel,right_wrist_roll_vel,left_hip_pitch_vel,left_hip_roll_vel,left_hip_yaw_vel,left_knee_pitch_vel,left_ankle_pitch_vel,left_ankle_roll_vel,right_hip_pitch_vel,right_hip_roll_vel,right_hip_yaw_vel,right_knee_pitch_vel,right_ankle_pitch_vel,right_ankle_roll_vel
0.0,-0.002182,0.022327,0.617897,0.9060384041516144,0.0353720151620802,0.0305970141402004,0.4206032019272719,0.06346,0.205146,0.097037,-0.179583,-0.041533,-0.171358,0.704135,0.016613,-0.110219,0.154395,-0.072362,0.470767,0.198862,0.007941,0.0,0.0,-0.156507,-0.080209,0.654353,0.177029,0.004934,0.0,0.0,0.370413,-0.13779,0.709049,0.126784,-0.00863,-0.241372667,0.560208,0.096614,-0.190644,0.050529,0.160375765,-0.146468667,-0.714062,0.198449,-0.177513,-0.055255,0.910064,0.548979,-0.082897,0.028275,0.0,0.0,0.527775,0.812951,-1.095849,-0.213651,0.05505,0.0,0.0,-0.470755,0.05838,-0.739721,0.377078,0.914128,1.170601,1.127242,0.548501,-2.429901,-0.243772,-0.273832,-0.040772
0.02,-0.0009128007537574,0.026429917527275,0.6198377327585117,0.9068325004957136,0.0336225509097235,0.0309153337902311,0.4190090479353078,0.067971,0.222093,0.098987,-0.179971,-0.043738,-0.160102,0.6898537695113545,0.0205819797795703,-0.1137692654887111,0.1532899026764463,-0.0541607251601785,0.4817465758033631,0.1972040625119273,0.0085064914798569,0.0,0.0,-0.145951508413741,-0.0639499738458046,0.6324360142730686,0.172755981718469,0.0060349946207958,0.0,0.0,0.3609979023332614,-0.1366224027941172,0.6942545856200623,0.1343255520652773,0.0096525526196504,-0.2179606378817285,0.582752844714689,0.1075840183606358,-0.2392420264811215,0.0456535661724168,0.1548991174620922,-0.1472841163532721,-0.769315,0.207156,-0.164112,-0.072613,0.871016,0.562397,-0.083542,0.027153,0.0,0.0,0.550234,0.767388,-1.173404,-0.23778,0.052945,0.0,0.0,-0.531204,0.072756,-0.746463,0.390507,0.934877,1.22069,1.078797,0.57333,-2.45256,-0.0601,-0.274393,-0.044041
0.04,0.0005368592430318,0.0312107127708885,0.621856480449722,0.90752845116798,0.0318404059150449,0.0312042877569202,0.4176177574019044,0.072494,0.238799,0.100578,-0.181152,-0.050313,-0.126328,0.6733623815565465,0.0248992496915192,-0.1167834640336742,0.1514904800807211,-0.0375213771049914,0.4932628818284041,0.1955203299239686,0.009027102774402,0.0,0.0,-0.134497638269188,-0.0495134865352134,0.6074168339435067,0.1675178161563833,0.0070518078928697,0.0,0.0,0.3491648550609915,-0.1348797654900623,0.6791904724402382,0.1424042656038314,0.028765073468712,-0.1925450781732829,0.6033598933713015,0.1195472126376252,-0.2887464101527017,0.0481250169591362,0.1494000406193796,-0.148230324749889,-0.82313,0.218129,-0.151142,-0.092051,0.79676,0.575341,-0.084042,0.025212,0.0,0.0,0.570928,0.665324,-1.254015,-0.262652,0.050316,0.0,0.0,-0.590321,0.088354,-0.752047,0.405732,0.955332,1.271492,1.066937,0.597853,-2.476136,0.099164,-0.274171,-0.047256
0.06,0.0019869683779812,0.0359818579693449,0.6238608446836706,0.9080348463156724,0.0299931581889232,0.031434738653577,0.416635314806737,0.069663,0.227358,0.098318,-0.183699,-0.064054,-0.055023,0.6569285531561071,0.0293071516630084,-0.119814962126414,0.1496078724877239,-0.0222903420977611,0.5047602163871296,0.193842393882714,0.0095149742656034,0.0,0.0,-0.1231143741205173,-0.0373369944510116,0.5822753987101028,0.1622498829688867,0.0080476473977101,0.0,0.0,0.337385074398156,-0.1330882282029679,0.6641727026297027,0.1505548306298676,0.047865828267963,-0.1671009425560892,0.6254303283823557,0.1314981353136873,-0.3382874816887747,0.0496201129094006,0.1439322847803399,-0.1491743428151334,-0.783975,0.219043,-0.160877,-0.086945,0.721485,0.565478,-0.083221,0.023598,0.0,0.0,0.551659,0.533676,-1.213483,-0.249455,0.050162,0.0,0.0,-0.548174,0.082705,-0.744475,0.402314,0.941328,1.241735,1.201592,0.581224,-2.464363,-0.086708,-0.27159,-0.045026
0.08,0.0033233825538436,0.040305030357179,0.6257891835864811,0.9081377250984896,0.0280051709299286,0.0315387318222404,0.4165415838174749,0.080267,0.266426,0.101914,-0.186347,-0.078066,0.018165,0.6420033800596183,0.0336609511228157,-0.1232185245608611,0.1480126843823867,-0.0086619824192718,0.5158819884633125,0.1921915012057018,0.0099710258370643,0.0,0.0,-0.1124312899848783,-0.0281664648456077,0.5588775033440886,0.1575396290180457,0.0090582795495286,0.0,0.0,0.3272378974243851,-0.1315715609540613,0.6494114648505007,0.1584968385015087,0.0664181934744725,-0.1428756637784042,0.6514235702086203,0.1427961620165604,-0.387320930269729,0.0446566953741233,0.138536451821148,-0.1500313448356636,-0.909596,0.245537,-0.13063,-0.133215,0.535361,0.595651,-0.084344,0.018769,0.0,0.0,0.599552,0.275067,-1.40346,-0.308003,0.04382,0.0,0.0,-0.686263,0.119681,-0.757158,0.438613,0.989166,1.361043,1.185518,0.63859,-2.519931,0.279002,-0.2708,-0.05254
0.1,0.005197668,0.046638917,0.6279374,0.9080369560448384,0.0259467601727286,0.0315794302102255,0.4168913427752622,0.124238,0.43241,0.119609,-0.115548,-0.208933,0.62412,0.6205447300000001,0.03912865,-0.12504017,0.14427929,-0.000875884,0.5285862700000001,0.1904686399999999,0.010265739,0.0,0.0,-0.09913231,-0.026334306,0.526137,0.14992978,0.009800467,0.0,0.0,0.30993456,-0.1283009799999999,0.6338863999999998,0.16809936,0.08743246,-0.112659227,0.67285105,0.15704174,-0.43908474,0.06078019,0.133100293,-0.151275943,-1.450433,0.327381,0.0073,-0.304548,0.139659,0.720056,-0.089478,0.007497,0.0,0.0,0.815652,-0.169815,-2.156428,-0.544768,0.022088,0.0,0.0,-1.28343,0.261707,-0.811583,0.564672,1.180077,1.839843,0.668086,0.87678,-2.700713,2.120052,-0.271665,-0.084423
0.12,0.0082928827217988,0.0576014501080091,0.6305735435676711,0.9030566413106912,0.0237685168836193,0.0290292499451842,0.4278797294070226,0.156624,0.560228,0.125142,-0.021222,-0.330661,1.199695,0.5839860517037989,0.0467561758426853,-0.1229265268077354,0.1358307806531001,-0.0030756025688108,0.5446842386799418,0.1886123970746827,0.0102708956616115,0.0,0.0,-0.079805229002691,-0.0349590557172453,0.4726203855912265,0.1357489021716885,0.0099417808435667,0.0,0.0,0.2759007119687935,-0.1211032919922977,0.6169481571779881,0.1810837134062717,0.1136212824006981,-0.0692819448262788,0.6781470170715695,0.1778673515245331,-0.4953494672563345,0.1294587807245636,0.1276698336406787,-0.1534082471933022,-1.865864,0.365655,0.155135,-0.441303,-0.195498,0.772778,-0.086288,-0.001734,0.0,0.0,0.960153,-0.421655,-2.689012,-0.728225,-0.000782,0.0,0.0,-1.775602,0.376586,-0.783241,0.624981,1.250856,2.133476,-0.033279,1.029069,-2.58332,3.814559,-0.244816,-0.108133
0.14,0.0114626203684864,0.069048022221216,0.6329430686483312,0.8979741658291184,0.0220373302042225,0.0263592870738877,0.4387048456148226,0.138671,0.5063,0.097988,0.046605,-0.316626,1.181909,0.5459101869145652,0.0537548399877151,-0.1188347819891553,0.1266271625413825,-0.008695788556633,0.5594973934971645,0.1870171343838416,0.0101963817859421,0.0,0.0,-0.0607261939500475,-0.043200525813203,0.4185765007167182,0.1208007904457029,0.0097691881365545,0.0,0.0,0.2389104926782079,-0.1132375338076678,0.6025567525179831,0.1930986127498936,0.1374666996594875,-0.0273201920090132,0.6715199063069461,0.1982045105907098,-0.5424175277593244,0.2133625509609635,0.1233076533673563,-0.1556012519761363,-1.686422,0.281181,0.215525,-0.404692,-0.241256,0.620073,-0.066008,-0.001799,0.0,0.0,0.830157,-0.213586,-2.328962,-0.655563,-0.010853,0.0,0.0,-1.662605,0.348096,-0.58334,0.492873,0.993772,1.785854,-0.502953,0.865323,-1.865855,3.790303,-0.172443,-0.094992
0.16,0.0138397179306733,0.0778534454045903,0.6344930666241511,0.8928355034318827,0.0212043884191598,0.0234548956137549,0.4492716389836486,0.105932,0.400826,0.061171,0.134282,-0.298208,1.152327,0.5165291875397204,0.0580034230814726,-0.114305518237208,0.1196431135491816,-0.0127258431595475,0.5694871674995363,0.1859720931203969,0.010198921263636,0.0,0.0,-0.046598930604707,-0.0435025071756984,0.3794619051699264,0.1095263713981483,0.0095076605285347,0.0,0.0,0.2093965273036708,-0.1071794511953665,0.5936145507933205,0.200798614430055,0.1533721495600112,0.0021522167402049,0.6580288972052081,0.21248027340787,-0.569983683015703,0.2810709073679956,0.1207721106187881,-0.1572079094918394,-1.340426,0.154808,0.255059,-0.319774,-0.196741,0.399985,-0.040153,0.000802,0.0,0.0,0.62047,0.11469,-1.691361,-0.505477,-0.017699,0.0,0.0,-1.381259,0.278272,-0.327105,0.293712,0.633705,1.235186,-0.828216,0.588877,-0.928793,3.090822,-0.084873,-0.069533
0.18,0.0156998971271841,0.085081067165696,0.6353898923192256,0.8877060659463989,0.0212151613048139,0.020316469540708,0.4594726308260154,0.087463,0.345484,0.035951,0.197981,-0.284628,1.125734,0.4922931518197217,0.0599471599625625,-0.1086324060728612,0.1138361863771943,-0.0165654245604847,0.5754967893596918,0.1854110051410595,0.0102284472471068,0.0,0.0,-0.0359074084674214,-0.0386129093825566,0.3509220564823725,0.1005817120371977,0.0090612440909948,0.0,0.0,0.1836601369301433,-0.1021066675621332,0.5894725598752805,0.2048470903299262,0.1628148829557031,0.0220872577687516,0.6383912701740876,0.2217595836949283,-0.5795692322007537,0.3369954332641836,0.1199127138452676,-0.1583825818693288,-1.160221,0.064848,0.309207,-0.274883,-0.180121,0.252408,-0.022426,0.002781,0.0,0.0,0.495876,0.356685,-1.305294,-0.423383,-0.024861,0.0,0.0,-1.257974,0.243764,-0.141645,0.156898,0.387921,0.88445,-0.977576,0.416985,-0.240807,2.609755,-0.018071,-0.054255
0.2,0.017338244,0.09167279,0.6359311,0.8825235298141636,0.0216464067501633,0.0170599238030991,0.4694599145816266,0.083735,0.340165,0.025881,0.268673,-0.30987,1.206035,0.4701203400000001,0.0605973269999999,-0.10193725,0.1086478,-0.019930685,0.5795835000000001,0.18507507,0.010310163,0.0,0.0,-0.026763879,-0.029235115,0.32725015,0.092591055,0.00851321,0.0,0.0,0.15907757,-0.09742891,0.58794874,0.2070745199999999,0.168889001,0.037530219,0.6189258500000001,0.22915967,-0.57961595,0.3854611,0.12004926,-0.15937809,-1.14788,0.014925,0.364412,-0.260086,-0.125782,0.198177,-0.017373,0.006532,0.0,0.0,0.468782,0.554206,-1.176489,-0.405211,-0.028067,0.0,0.0,-1.280025,0.238897,-0.05882,0.0944,0.288763,0.763489,-1.033163,0.370144,0.086597,2.397213,0.016655,-0.048962
0.22,0.019049282816622,0.0986876494564673,0.6364251311736875,0.8763488217007761,0.0226358752032157,0.0128461680232194,0.4809733213230907,0.099567,0.429479,0.02778,0.336672,-0.375425,1.379957,0.446377951754338,0.0605441468322343,-0.0940559133855892,0.1034327373546949,-0.0215966992000102,0.5834238590084768,0.1847160698490198,0.0104897160492367,0.0,0.0,-0.0171561382420911,-0.0164446797555839,0.3038624868611376,0.0843732913546154,0.0079385517223468,0.0,0.0,0.132459146705706,-0.0925507887739002,0.5871197544934806,0.2086230778109604,0.1743653991875167,0.052626803859011,0.5970647560339679,0.2365653304121301,-0.5761053572913841,0.4328839457528553,0.1205788997748105,-0.1603410743739087,-1.474798,-0.069005,0.520645,-0.338619,-0.060531,0.136379,-0.013273,0.008619,0.0,0.0,0.564052,0.474535,-1.186896,-0.456031,-0.041524,0.0,0.0,-1.661356,0.296842,0.032051,-0.03144,0.231168,0.703174,-2.468946,0.20106,0.734591,2.908458,0.057733,-0.038627
0.24,0.0213209416499052,0.1088519543618952,0.6370423000382446,0.8691691648511614,0.0235806932990564,0.0078656376660242,0.4938897098741553,0.127939,0.593065,0.034064,0.392583,-0.482322,1.63426,0.411128439295544,0.0578371219117389,-0.0811114667783679,0.0951030419428342,-0.0223519172466704,0.585038646885251,0.1845441629496476,0.0106549116908312,0.0,0.0,-0.0042017934430492,-0.0102537324231533,0.2797742976213965,0.0743498017639743,0.006852261235813,0.0,0.0,0.0926233376824402,-0.0855552469499618,0.5892307656745742,0.2058169134820432,0.1781357356665041,0.0656571851188263,0.520167997550675,0.2372020554832943,-0.5502323098661175,0.5017994325625638,0.1223585782450741,-0.1609231674471792,-2.074349,-0.210468,0.781259,-0.510346,-0.034508,0.003797,-0.000648,0.006066,0.0,0.0,0.73351,0.0479,-1.197712,-0.543677,-0.069888,0.0,0.0,-2.349905,0.407747,0.194822,-0.275525,0.130073,0.5631,-5.439383,-0.203331,1.973452,3.976105,0.122944,-0.016953
0.26,0.0241668565130655,0.1224102608495759,0.6377876806969985,0.8600399749800983,0.0244373867585793,0.0013541600167263,0.5096393056027886,0.137604,0.661485,0.035718,0.391927,-0.523785,1.677659,0.3634039873712956,0.0521254385108069,-0.0628055365068753,0.0830188875611962,-0.0229770348801781,0.5835757527440183,0.1846901534080441,0.0107323666333773,0.0,0.0,0.0121842608055518,-0.0145286896792565,0.2559540120872572,0.062626206309171,0.0051430484137088,0.0,0.0,0.0384629586537776,-0.0762409203481639,0.5949126289828669,0.1976020604952342,0.1795683292645419,0.0751507878469101,0.3794894342494481,0.2284320809767492,-0.4971672902945497,0.5919281576068945,0.1254966513605349,-0.1610192052809496,-2.331526,-0.286897,0.889958,-0.600706,-0.027615,-0.096217,0.011435,0.002772,0.0,0.0,0.795512,-0.262179,-1.119937,-0.559587,-0.084815,0.0,0.0,-2.646439,0.452864,0.291255,-0.431125,0.050513,0.412109,-6.767689,-0.506884,2.708627,4.039989,0.152307,-0.003137
0.28,0.0268250951553772,0.135311343162971,0.6384710055438753,0.8519334256418656,0.0249390689635998,-0.0043186842726845,0.5230380770837796,0.118538,0.580943,0.029691,0.334939,-0.479126,1.488465,0.3178673988792935,0.046361257128214,-0.0455131555613215,0.0710747996223647,-0.0234565055881634,0.5811899528129899,0.1850015437480088,0.0107657741873073,0.0,0.0,0.0276186919016118,-0.0207408886819993,0.234976814548294,0.0519663130568098,0.0034596694817016,0.0,0.0,-0.0132342104852437,-0.0674407054430377,0.6008809520689451,0.1885719273772454,0.1801562671420832,0.0821415590048484,0.2494604301301014,0.2169267009209476,-0.4418872355442622,0.6633989787335839,0.1284508773380397,-0.1610486406900605,-2.050106,-0.259678,0.765248,-0.552979,-0.02074,-0.13208,0.020838,0.000429,0.0,0.0,0.693586,-0.309675,-0.919881,-0.466192,-0.07733,0.0,0.0,-2.326185,0.393847,0.279846,-0.434858,0.012418,0.269284,-5.53751,-0.602673,2.597116,2.661264,0.125388,0.002041
0.3,0.0289083809999999,0.14564799,0.63897534,0.8442793485305815,0.025261386956034,-0.0095709019833424,0.5352220490684776,0.089802,0.456549,0.020455,0.225046,-0.386807,1.114668,0.28139976,0.041738316,-0.03219562,0.060899727,-0.023806622,0.57829255,0.18552369,0.010749533,0.0,0.0,0.039927687,-0.026915686,0.21915877,0.04397851,0.002049853,0.0,0.0,-0.054584447,-0.06048706,0.60610646,0.1802077599999999,0.180065065,0.0859221529999999,0.15798903,0.2043251799999999,-0.39328265,0.6983787,0.130512189,-0.160937547,-1.611981,-0.210766,0.572944,-0.473686,-0.014576,-0.174215,0.033972,-0.002747,0.0,0.0,0.538696,-0.360088,-0.637433,-0.328115,-0.0654,0.0,0.0,-1.826581,0.303911,0.256384,-0.422999,-0.03548,0.07816,-3.874423,-0.70439,2.357159,0.916978,0.082788,0.013048
0.32,0.0304171601376189,0.1535732891010647,0.6392892193320596,0.8398807845998133,0.0248139296619079,-0.0126967413626122,0.5420547290758626,0.071323,0.383439,0.015223,0.126576,-0.320281,0.817166,0.2533881632476344,0.0379306223299256,-0.0225953985597203,0.0521273723555244,-0.0240395517928413,0.5742213524052802,0.1863604295902397,0.0106559107456147,0.0,0.0,0.0491665369290431,-0.0351444113807163,0.2094794865719222,0.038841702007305,0.0008436500930602,0.0,0.0,-0.0862974463131179,-0.0552842676191642,0.6111363230318332,0.1716519570376474,0.1787370552802657,0.0852679653560008,0.0944835051585749,0.1887511100077788,-0.3476008770021266,0.7000781011013957,0.1317623880511041,-0.160526710030739,-1.363664,-0.197177,0.456682,-0.441229,-0.001823,-0.228112,0.044335,-0.005637,0.0,0.0,0.442178,-0.428216,-0.415201,-0.233953,-0.058684,0.0,0.0,-1.546185,0.247662,0.250997,-0.455878,-0.086127,-0.099954,-3.112576,-0.876142,2.365994,-0.219289,0.059525,0.006573
0.34,0.0317613188536409,0.1609855462044145,0.6395842765462749,0.8352739842505286,0.0241228049235656,-0.0159175018654333,0.5490738517278267,0.077786,0.433497,0.011626,0.104111,-0.353298,0.856693,0.2268531991781645,0.0338512210484438,-0.0139283252080336,0.0432505689717436,-0.0238795589279774,0.5691680799762374,0.1872970847195391,0.0105240346619512,0.0,0.0,0.0576148180347092,-0.0440443075268362,0.2025507344016086,0.034620375498623,-0.000297525101265,0.0,0.0,-0.1164318407485182,-0.0505805909589708,0.6161463408860033,0.1619726579411649,0.1766199992095208,0.0819239745012792,0.0334859934658357,0.1692795156893497,-0.2986429031216596,0.6896071591394161,0.1328932076860166,-0.1606746153434341,-1.531847,-0.198205,0.459213,-0.544038,0.043904,-0.320328,0.076177,-0.003637,0.0,0.0,0.508654,-0.39198,-0.465433,-0.219737,-0.067486,0.0,0.0,-1.734593,0.266806,0.301875,-0.586629,-0.126238,-0.213171,-3.478827,-1.218261,2.938848,-0.789801,0.03158,0.003621
0.36,0.0335286194444502,0.1709131671156692,0.6397542474605548,0.8303055228949455,0.0229460169751008,-0.0193286369264148,0.5565003349052869,0.113765,0.645432,-0.008232,0.052561,-0.400687,0.969686,0.1921143007076598,0.0300024330569673,-0.0042268589258262,0.0303658583279193,-0.0222834019156284,0.561408225679403,0.189407511979072,0.0105104206742514,0.0,0.0,0.0695127123755062,-0.0508235953723004,0.1908621644068646,0.030052228117035,-0.0018557751422883,0.0,0.0,-0.1556811821718216,-0.0446120465427078,0.6232113170796225,0.1481867807027471,0.1736875445117811,0.0767411074625678,-0.0446695695687779,0.1400206565757605,-0.2300469477283648,0.6684860537697851,0.1330255790076884,-0.1603818748183641,-2.17734,-0.112805,0.500734,-0.896541,0.159937,-0.562487,0.204506,0.009079,0.0,0.0,0.817367,-0.206465,-0.968821,-0.222058,-0.109611,0.0,0.0,-2.435195,0.374224,0.516544,-0.919799,-0.190725,-0.338294,-4.405859,-1.997968,4.573533,-2.100217,-0.097046,0.122497
0.38,0.0363119009243891,0.1868028139396607,0.6392550004685774,0.8242870314576969,0.0209104211912431,-0.0227110002858962,0.565329863462277,0.146416,0.83668,-0.03733,-0.002397,-0.438877,1.099607,0.1397596177317693,0.029339019422965,0.0061010290004518,0.0073889221611722,-0.0174820947890192,0.5466685975396917,0.1954773137938826,0.0108872043718931,0.0,0.0,0.0903094962745468,-0.0523029054149371,0.1637978953935419,0.0257380375171369,-0.0046819695761642,0.0,0.0,-0.2138396397814431,-0.035611638607223,0.6368080974669887,0.1251806978228462,0.1689910121947642,0.0683922287978691,-0.1427483788195935,0.0893608045805749,-0.115701585242863,0.6055984643835335,0.1290113774275736,-0.1557747223206943,-2.706044,0.036542,0.476912,-1.235957,0.263163,-0.800331,0.355006,0.023873,0.0,0.0,1.116137,0.01724,-1.544503,-0.190824,-0.154349,0.0,0.0,-2.993256,0.468489,0.755645,-1.210788,-0.243119,-0.425617,-4.763366,-2.678789,6.036057,-3.677207,-0.269941,0.321337
0.4,0.0393852629999999,0.20438036,0.6382610400000001,0.817665580985241,0.0184435415710966,-0.0260766463935893,0.5748067866329062,0.130376,0.741555,-0.048526,-0.039551,-0.33136,0.874578,0.08387255,0.031464115,0.0148496289999999,-0.019072413,-0.01175689,0.529395,0.20360775,0.011465359,0.0,0.0,0.11415818,-0.050134003,0.12908205,0.0224192759999999,-0.00802974,0.0,0.0,-0.27541143,-0.0258725,0.6534371000000001,0.09975526,0.163962788,0.059716433,-0.23520422,0.032869108,0.011395325,0.52139777,0.1222279339999999,-0.14752839,-2.320466,0.119391,0.33934,-1.119964,0.215961,-0.728343,0.358675,0.024274,0.0,0.0,1.011983,0.102956,-1.535992,-0.128863,-0.145133,0.0,0.0,-2.553875,0.410076,0.734269,-1.049403,-0.202009,-0.3347,-3.679157,-2.326203,5.287886,-3.647641,-0.318731,0.422567
0.42,0.0415269473018165,0.2164650322970979,0.6373139588500852,0.8141193094922579,0.0169114108301596,-0.027353967480097,0.5798064457719322,0.08902,0.498595,-0.044905,-0.060483,-0.189992,0.558574,0.0469409864801022,0.0341146518228909,0.0196746102069986,-0.0374096562670917,-0.0088436588212853,0.5175348707950613,0.2098243327390281,0.0118581754760282,0.0,0.0,0.1307888019099369,-0.0481846704009762,0.1023582031521068,0.0205835147518789,-0.0104872724076107,0.0,0.0,-0.3159946527649671,-0.0192085804477704,0.6661788620564532,0.0832045600945526,0.1609106517231179,0.055004219185049,-0.289914676984824,-0.0036873157884791,0.0958138578229072,0.4596928285136782,0.1162621271601159,-0.1388720301544235,-1.488555,0.133204,0.173606,-0.756909,0.102165,-0.487158,0.268791,0.016046,0.0,0.0,0.689718,0.088408,-1.157979,-0.066585,-0.104226,0.0,0.0,-1.634828,0.271701,0.554604,-0.656743,-0.117077,-0.165593,-2.067361,-1.455629,3.403569,-2.611349,-0.272914,0.418
0.44,0.0429460471474121,0.2243241632298107,0.6364648303175899,0.8111097670506124,0.0155612479416837,-0.0282800475351157,0.5840025961149578,0.06546,0.360402,-0.042994,-0.066927,-0.127114,0.415375,0.0243303442453514,0.036792288658785,0.0217938826108086,-0.0493487686359552,-0.0076703046392452,0.509908660009857,0.2143594060409447,0.012107213776009,0.0,0.0,0.1417468827583861,-0.0465977010967334,0.0827629065424738,0.019755892616641,-0.0121987679554855,0.0,0.0,-0.3408045668106499,-0.0150044595166296,0.6756212748136141,0.073485555978043,0.1592797231746198,0.0530927086254764,-0.3178986703340107,-0.0253560587034602,0.1475381047237449,0.4169438198114163,0.1113113595798444,-0.1308083944187107,-1.014451,0.142051,0.078218,-0.550591,0.040234,-0.350588,0.21802,0.011522,0.0,0.0,0.506604,0.082377,-0.942452,-0.030324,-0.080866,0.0,0.0,-1.110976,0.19218,0.452588,-0.433081,-0.069164,-0.070075,-1.14428,-0.963032,2.332605,-2.029775,-0.247208,0.413868
0.46,0.0441453595906192,0.2308811173253925,0.6355941830750342,0.8092238942172342,0.014576086969891,-0.0285053124099905,0.5866273722568269,0.064854,0.351228,-0.049773,-0.103181,-0.0768,0.337081,0.0063629337936376,0.0397966806984747,0.0228033490132314,-0.0594333005857811,-0.0072343009780039,0.5035113500099808,0.2185451504592098,0.012319057995388,0.0,0.0,0.1510529674300477,-0.0448895734846659,0.0646601340561539,0.0193705534696729,-0.0137219213308949,0.0,0.0,-0.3604336792163974,-0.0115213931549075,0.6842823879676017,0.0658813204318093,0.1581440786318868,0.0522012057150033,-0.3356858941364748,-0.0422085918094378,0.1891180467867821,0.378501825557927,0.1063738147535625,-0.1223173076938415,-0.946819,0.177206,0.039722,-0.547027,-0.01727,-0.343216,0.235777,0.01069,0.0,0.0,0.503965,0.084256,-1.032869,-0.016189,-0.085661,0.0,0.0,-1.032148,0.195338,0.486159,-0.405133,-0.052647,-0.027578,-0.826856,-0.856666,2.201914,-2.129752,-0.288245,0.52567
0.48,0.0455402049008776,0.2383732781336082,0.6344738935158329,0.8071398810960212,0.0131823976761221,-0.0282141239888777,0.5895382938735615,0.089935,0.468736,-0.078941,-0.151114,-0.064211,0.36284,-0.0135423966346131,0.043880521212581,0.0233827782285018,-0.0712298305420849,-0.0083611102156156,0.4961800282497088,0.2237904976947212,0.0125348207720057,0.0,0.0,0.1619054721374,-0.0432274768518256,0.0414481357348833,0.0191083511914697,-0.0156251998939683,0.0,0.0,-0.3820904940280195,-0.007190925492434,0.6950676272040294,0.0572802387012782,0.157173834959073,0.0519896005654042,-0.3509729044553926,-0.059622715272873,0.2356146784884414,0.3317537266252566,0.0997815690403619,-0.1097816090619442,-1.117008,0.22578,0.001047,-0.685218,-0.071366,-0.414994,0.330552,0.012337,0.0,0.0,0.651183,0.031493,-1.466686,-0.013464,-0.112994,0.0,0.0,-1.271084,0.225192,0.763592,-0.377456,-0.037129,0.076544,-0.7281,-0.891993,2.421348,-2.661763,-0.454023,0.92052
0.5,0.047742773,0.24963057,0.63243653,0.8049484965318863,0.011584316950089,-0.027664419880808,0.5925861974468475,0.139502,0.695133,-0.135801,-0.300192,-0.043347,0.435547,-0.038317405,0.048827868,0.022845231,-0.08684203,-0.010088928,0.4869116,0.23176722,0.01281253,0.0,0.0,0.1771002899999999,-0.043629844,0.0059927,0.018832004,-0.0182416939999999,0.0,0.0,-0.41127703,-0.0025137279999999,0.7148260500000001,0.050783083,0.156658913,0.05526296,-0.3648099000000001,-0.077888325,0.28597197,0.2720313,0.088212913,-0.0854965,-1.338333,0.246289,-0.078392,-0.8724,-0.058231,-0.503196,0.484346,0.01625,0.0,0.0,0.888376,-0.120797,-2.142363,-0.014786,-0.147368,0.0,0.0,-1.682753,0.203249,1.338121,-0.14435,-0.003553,0.323393,-0.600273,-0.868389,2.357836,-3.209765,-0.755535,1.632101
0.52,0.0511202741539948,0.2661785899138192,0.6290418335361011,0.8020126474020277,0.0080767173525698,-0.0252528890657026,0.5967183352619833,0.169999,0.826603,-0.164491,-0.421509,-0.025092,0.474742,-0.0670757366038229,0.0537320833482369,0.0202470998265723,-0.1061258483686021,-0.0106903316976136,0.4760521999488191,0.243164337501198,0.0131848196253849,0.0,0.0,0.1974405216634055,-0.0480593401693634,-0.0442463970085424,0.0185168998053072,-0.0215199054924994,0.0,0.0,-0.4494006178295784,0.0009390240703889,0.7485924838708506,0.0515062455235889,0.1570317197497619,0.0649253011108493,-0.3749838383506473,-0.0943582861567247,0.329928132233045,0.2033631150404029,0.0695601528992608,-0.0444975720031229,-1.354112,0.217802,-0.147691,-0.918056,-0.007953,-0.51018,0.558615,0.017823,0.0,0.0,0.989339,-0.250129,-2.460453,-0.016477,-0.156218,0.0,0.0,-1.849617,0.128579,1.733018,0.15415,0.029228,0.531001,-0.416287,-0.722343,1.863248,-3.193601,-0.939378,2.071604
0.54,0.0545427476498991,0.2826946839670741,0.6258569022398961,0.7993408690894553,0.0047635436359048,-0.0229598653637698,0.6004201264429939,0.152457,0.732678,-0.123949,-0.386203,-0.020523,0.399919,-0.0924818774637762,0.0575399589807565,0.0169375907751046,-0.1235642860540377,-0.0104070409920656,0.4665043845352574,0.2541118340750379,0.0135254511949589,0.0,0.0,0.2166738612722188,-0.0536349953971894,-0.0924254105572994,0.018172921552239,-0.0244904038334963,0.0,0.0,-0.4852617285310539,0.002629412624603,0.7841467853023831,0.0569490931422134,0.1578280142649185,0.0765030040915814,-0.3814613718189342,-0.1067820409059914,0.3605019035181738,0.1442872557010314,0.0506377914392185,-0.0026323205366989,-1.059332,0.14696,-0.157452,-0.72605,0.022028,-0.393801,0.463732,0.013702,0.0,0.0,0.818325,-0.246064,-2.047414,-0.017877,-0.12375,0.0,0.0,-1.538209,0.027814,1.596927,0.350047,0.041168,0.541432,-0.232947,-0.492258,1.106364,-2.401332,-0.827082,1.818998
0.56,0.0572185524012884,0.2954857263700095,0.6240838817530096,0.7972422768140155,0.0018397724881885,-0.0209053392851219,0.6032945665982502,0.122261,0.580499,-0.057667,-0.329261,-0.018388,0.301117,-0.1094490216989506,0.059610467214427,0.0139490171392318,-0.135167866615746,-0.0098092219232544,0.4603001751604559,0.2617136030757033,0.0137328961940076,0.0,0.0,0.2301735138282009,-0.0579018802243615,-0.1261429520650057,0.0178018044101719,-0.0264699159175381,0.0,0.0,-0.5109289631859867,0.0020515658176439,0.8124695657297388,0.0655081427263962,0.1586784309407211,0.08658259841065,-0.3843017359076132,-0.1140485884351853,0.374182679751058,0.1073098399455057,0.0364768657842931,0.0282623450066475,-0.664331,0.062945,-0.148933,-0.449761,0.030936,-0.236291,0.307661,0.007161,0.0,0.0,0.550498,-0.183491,-1.380149,-0.019735,-0.077562,0.0,0.0,-1.080145,-0.100698,1.296958,0.558351,0.046421,0.490529,-0.041607,-0.24959,0.289457,-1.368211,-0.618275,1.331738
0.58,0.0594331945690709,0.3059146250033661,0.6235502155522915,0.7957161564853475,-0.0005824368690527,-0.0192692553114668,0.6053628291159121,0.09917,0.464681,-0.009817,-0.279147,-0.019735,0.227743,-0.1190551056699379,0.0600577544946846,0.0109802891529318,-0.1415547142559783,-0.0091695925883616,0.4570527249346088,0.2664182932124146,0.013811878596892,0.0,0.0,0.2386937939608939,-0.0609746165436889,-0.1476313625458673,0.0173835390104061,-0.027592901313072,0.0,0.0,-0.5284675421333792,-0.0013984985139449,0.8360250924075763,0.0792831135616324,0.1596848577569855,0.0961241564840751,-0.3831256385291165,-0.1167656430662055,0.3720801637958579,0.0895588337636815,0.0259067998166073,0.0506371991364516,-0.38535,0.00381,-0.141762,-0.256144,0.036725,-0.12459,0.196728,0.002779,0.0,0.0,0.362826,-0.136238,-0.906341,-0.021577,-0.044512,0.0,0.0,-0.749771,-0.183827,1.078816,0.682643,0.049785,0.450846,0.085883,-0.075352,-0.300481,-0.620293,-0.466075,0.977714
0.6,0.061185334,0.3140729699999999,0.6236912,0.7944757020587571,-0.0027538370071361,-0.0178423970462357,0.607027531573015,0.081918,0.381345,0.015526,-0.249704,-0.034681,0.185258,-0.12486301,0.05976287,0.008278556,-0.14541362,-0.008340225,0.45531657,0.26958272,0.013844063,0.0,0.0,0.24468654,-0.063351415,-0.16239658,0.016938744,-0.02825039,0.0,0.0,-0.5409198,-0.005301523,0.8556222000000001,0.09281387,0.160669842,0.104616453,-0.3808664,-0.11706268,0.36216345,0.082498126,0.017833878,0.06737092,-0.270169,-0.016509,-0.130008,-0.178618,0.031125,-0.077244,0.143889,0.001486,0.0,0.0,0.282847,-0.098357,-0.682644,-0.023686,-0.029317,0.0,0.0,-0.579971,-0.187498,0.938684,0.638799,0.047768,0.406928,0.104389,-0.005677,-0.538087,-0.26649,-0.375612,0.770872
0.62,0.0627099080915035,0.3211684403043122,0.6241712588696675,0.7934418451437274,-0.0049050625838962,-0.0167990008919197,0.6083944216583504,0.123511,0.575344,0.063968,-0.237398,-0.080946,0.173105,-0.1298618491444558,0.0593973769207129,0.0057799711681568,-0.1486994276806741,-0.0079246065458083,0.4539629617026514,0.2721738480998762,0.0138713302316305,0.0,0.0,0.2500076830263856,-0.0649088847704187,-0.1749371120100734,0.0164360811336293,-0.0287655634621478,0.0,0.0,-0.5516663901890301,-0.0088984095459489,0.8735724508093585,0.1048350931676062,0.1615955902238955,0.1124012587471395,-0.378950064627414,-0.1169927297708522,0.3505566973788207,0.0788992187120524,0.0108823263855661,0.0814720910475843,-0.122476,-0.068601,-0.193849,-0.019493,-0.103059,-0.000746,0.061248,-0.005938,0.0,0.0,0.157663,0.016725,-0.454535,-0.035072,-0.011651,0.0,0.0,-0.602896,-0.508662,1.227064,1.443314,0.077811,0.580384,0.412765,0.05684,-1.061739,0.13213,-0.419416,0.776143
0.64,0.0661257791221674,0.3370867334060258,0.6262499084895692,0.7923183028129378,-0.0074478492121461,-0.0162552557162519,0.6098458848195487,0.21751,1.013418,0.139757,-0.238581,-0.176283,0.190887,-0.1297620568301428,0.0570188206503773,0.0005246091806637,-0.1461933596685745,-0.0124625975066279,0.4552867381241581,0.2720326460899733,0.0136065255341363,0.0,0.0,0.2509930644686915,-0.062682413627531,-0.1805779809338731,0.0155358681487416,-0.028716447851927,0.0,0.0,-0.5650356427035736,-0.0256480174837992,0.9047047596151868,0.1505464333629609,0.1637822692404782,0.127831820641777,-0.3643558198502423,-0.1147890641051649,0.3196939021109845,0.0877833236600444,0.0010572451737429,0.0984166219774513,0.170234,-0.172531,-0.327799,0.300562,-0.351269,0.144184,-0.08952,-0.02136,0.0,0.0,-0.095604,0.199165,-0.043633,-0.05116,0.019249,0.0,0.0,-0.695495,-1.185775,1.831713,3.172881,0.139263,0.947118,1.079665,0.167208,-1.985027,0.754492,-0.545992,0.881708
0.66,0.071410318272616,0.3617051411201223,0.6297615387188595,0.7910186030241083,-0.0107737342630303,-0.016710878935161,0.6114689222233882,0.21774,1.013524,0.142709,-0.151018,-0.203287,0.142384,-0.1230524895804524,0.0524961487464544,-0.007332000062079,-0.1366769306760155,-0.0219753788821376,0.4597303107976113,0.268593030258584,0.0130169463735658,0.0,0.0,0.2461835283976134,-0.0569423015061233,-0.1766824505232328,0.0143896936064456,-0.0279956096705175,0.0,0.0,-0.5794861993691343,-0.0563294160365491,0.9468409685399654,0.2317503531276464,0.1671661200152701,0.1502859803709541,-0.3357634545029129,-0.1103044203135921,0.2711556174346758,0.1090789105949785,-0.0109573622315319,0.1167404122152985,0.370375,-0.194913,-0.318103,0.471723,-0.404058,0.213441,-0.18208,-0.026331,0.0,0.0,-0.289718,0.227496,0.33622,-0.039736,0.037316,0.0,0.0,-0.498799,-1.322349,1.618329,3.476183,0.13645,0.894631,1.264845,0.192809,-1.941362,0.902588,-0.451485,0.651398
0.68,0.0748353764390144,0.3776276751652685,0.6319582870785798,0.7904811925765334,-0.0122755652896748,-0.0176552582749001,0.6121087211720212,0.128119,0.593795,0.077074,-0.018505,-0.148454,0.051837,-0.1149470482964772,0.0492222978171884,-0.0121995007473841,-0.1273244538826942,-0.0286249320369028,0.4638243961479237,0.2647494574601681,0.0125533048119841,0.0,0.0,0.2394043453044881,-0.0535825862014823,-0.1671291752962793,0.0139464307414851,-0.0272238038850889,0.0,0.0,-0.5849876186959642,-0.0785419688608847,0.96943790715544,0.2895937594004195,0.1692402595433098,0.1636170576199841,-0.3137620292876438,-0.107076697699648,0.2420394059336451,0.1238868608548808,-0.0170021487990975,0.124472535598289,0.422297,-0.131097,-0.17414,0.448443,-0.252117,0.189482,-0.191088,-0.019541,0.0,0.0,-0.367976,0.098344,0.575969,-0.004404,0.037817,0.0,0.0,-0.075194,-0.89524,0.678759,2.307113,0.07247,0.454537,0.932562,0.128106,-0.984686,0.54597,-0.172079,0.163026
0.7,0.07653507,0.3854569500000001,0.6328445,0.790327852016694,-0.0128653960328288,-0.0188440770480847,0.6122591515623128,0.097355,0.447534,0.049395,0.059921,-0.132487,0.000222,-0.1061606259999999,0.0472522639999999,-0.014297606,-0.1187392299999999,-0.032060053,0.4673096,0.2609495,0.012235317,0.0,0.0,0.2314644999999999,-0.053008527,-0.1536436999999999,0.014213527,-0.026482936,0.0,0.0,-0.58249396,-0.092139035,0.97399133,0.3240348700000002,0.170064912,0.16846748,-0.2984609599999999,-0.1051801899999999,0.2317681799999999,0.13091773,-0.017840541,0.1232614599999999,0.505047,-0.110733,-0.120036,0.490482,-0.18663,0.198465,-0.214881,-0.01763,0.0,0.0,-0.453636,0.018755,0.771089,0.017945,0.042122,0.0,0.0,0.154387,-0.769706,0.244607,1.949725,0.046145,0.273314,0.878145,0.107597,-0.568495,0.371478,-0.048436,-0.066802
0.72,0.0787295899217527,0.3955290182772096,0.6339340988892482,0.7904435919209581,-0.0129506612762312,-0.0204832222806599,0.6120552638190468,0.115891,0.531563,0.056012,0.110698,-0.128469,-0.049354,-0.0947451729614105,0.0447929737645608,-0.0170009286674287,-0.1077051848791055,-0.0360901309910878,0.4717630077128374,0.2561541994921703,0.011848116907709,0.0,0.0,0.2212588994609399,-0.0528324047737986,-0.1362856183002389,0.0146642384912335,-0.0255389242890591,0.0,0.0,-0.5788121402259343,-0.1093301986759603,0.9792222031151244,0.3675827571632238,0.1710860395614309,0.1745496213904938,-0.2786362380404272,-0.1027727981559523,0.2192996117247704,0.1387459907643237,-0.0189395961448607,0.1218004727901192,0.624368,-0.12929,-0.144164,0.604238,-0.199753,0.240911,-0.26201,-0.019331,0.0,0.0,-0.562194,-0.047498,0.956042,0.026203,0.05094,0.0,0.0,0.218218,-0.921975,0.237344,2.331214,0.05108,0.312166,1.073309,0.126484,-0.616259,0.367885,-0.049551,-0.097472
0.74,0.0811707201865959,0.4067194519045054,0.6350849623564344,0.7909076671199236,-0.012708198885082,-0.0222172888728392,0.6113999966038258,0.124543,0.564482,0.054529,0.160412,-0.109396,-0.133605,-0.0811859063386788,0.0420806776030321,-0.0200641541307034,-0.094569697991735,-0.0400501652799552,0.4769460545086664,0.2504690881197907,0.011462092472315,0.0,0.0,0.2089767222975549,-0.0549084438155012,-0.1154020271263888,0.0152616607796669,-0.0244453174057598,0.0,0.0,-0.5737652444047774,-0.1290180519050025,0.9834850906676836,0.4172834472561242,0.1721081214656727,0.1809541374216804,-0.2555286130075365,-0.1001208183014712,0.2071178187003063,0.1456331189666031,-0.0198225733388244,0.119362589638483,0.794893,-0.131128,-0.153159,0.739098,-0.177121,0.290048,-0.319276,-0.015631,0.0,0.0,-0.706269,-0.159567,1.232635,0.053117,0.063777,0.0,0.0,0.432544,-1.005539,0.019357,2.501064,0.044877,0.273876,1.282524,0.139922,-0.486688,0.237047,-0.001209,-0.221488
0.76,0.0837112973058574,0.4181083142404606,0.6361152568639167,0.7920676685595124,-0.0118102689920516,-0.0241411668745527,0.6098413974395055,0.151821,0.663367,0.057907,0.260448,-0.057179,-0.388609,-0.0629494702198192,0.0395478368065312,-0.0231272884689777,-0.0781412800971692,-0.0431749676442691,0.4833649153453336,0.2433831555028531,0.0112228896404274,0.0,0.0,0.1930081592598448,-0.0592150822683592,-0.0869802032040791,0.0167889243998158,-0.0229878595690542,0.0,0.0,-0.5615103629456906,-0.1495517448095486,0.9799965024049816,0.4676253301434349,0.1728811064972939,0.1855046510730822,-0.227335277092432,-0.0971759352239676,0.1998320987210513,0.1482278545304895,-0.0189879486170828,0.1129409705101092,1.211996,-0.123687,-0.17334,1.01507,-0.155087,0.405187,-0.432073,-0.004975,0.0,0.0,-1.000006,-0.164524,1.85279,0.141466,0.098659,0.0,0.0,1.059311,-1.109266,-0.516813,2.634493,0.039695,0.183273,1.793962,0.185553,-0.276128,-0.015571,0.100667,-0.482694
0.78,0.0872435431872396,0.4332541204286378,0.6374012403530889,0.7956667315793453,-0.0094671629870245,-0.0262074868831619,0.6050933752026112,0.19824,0.839756,0.070614,0.360882,0.002178,-0.686819,-0.0327060776219946,0.0371332009634083,-0.0269977739385461,-0.0539669048903233,-0.0462536267756736,0.4931535420954948,0.233186162787941,0.0112630977007557,0.0,0.0,0.1689764748334423,-0.0614894031797732,-0.0412904431315028,0.0209202964581505,-0.0204989756469954,0.0,0.0,-0.5313927885464512,-0.1733886782520523,0.9628125867429838,0.5226631630391609,0.1736959112485705,0.1882850643115784,-0.1837701478939098,-0.0926987053268745,0.196072682355577,0.1450102674136119,-0.0157958807742925,0.1000548153949576,1.754878,-0.11867,-0.210695,1.361742,-0.157019,0.557581,-0.570267,0.007319,0.0,0.0,-1.359455,-0.049361,2.627764,0.260527,0.145401,0.0,0.0,1.871364,-1.255103,-1.127225,2.84063,0.043125,0.108319,2.492189,0.256797,-0.13553,-0.268861,0.202808,-0.766493
0.8,0.09164091,0.45169854,0.6389398,0.8004361411909185,-0.0064009160095235,-0.0283433870421703,0.5987133408907878,0.220332,0.919488,0.075798,0.402985,0.049484,-0.851894,0.007245632,0.0348010359999999,-0.03155509,-0.02367159,-0.049455713,0.50566816,0.22057246,0.0115156649999999,0.0,0.0,0.13862994,-0.0611895319999999,0.018130355,0.02720999,-0.017171834,0.0,0.0,-0.4866558000000001,-0.19975585,0.9349075,0.58125055,0.1746061199999999,0.189837413,-0.1276476999999999,-0.086904064,0.19441088,0.1374734,-0.010875612,0.08228127,2.025393,-0.111693,-0.223999,1.519131,-0.152983,0.630122,-0.629401,0.013548,0.0,0.0,-1.524762,0.047195,3.003828,0.327677,0.16841,0.0,0.0,2.318344,-1.281787,-1.469442,2.830211,0.044335,0.056014,2.826083,0.292825,-0.053042,-0.411949,0.256503,-0.90951
0.82,0.0960568267372047,0.4700336343449725,0.640433154853794,0.8059374521888819,-0.0029061796304834,-0.03013136303866,0.5912262496208043,0.200124,0.820162,0.064426,0.386585,0.086389,-0.887712,0.0483096533631034,0.0326654649595586,-0.0359577296110195,0.0067983162904406,-0.0523729420855739,0.5183584112916853,0.2080101406429865,0.0118050257626377,0.0,0.0,0.1079859987057611,-0.0596015946575005,0.07886267374489,0.034027361629281,-0.0137625870301898,0.0,0.0,-0.4386590413855258,-0.2246601423406661,0.9040349066651135,0.6358715898925873,0.17546931089691,0.190525621929317,-0.0707268171387866,-0.0809857058004715,0.1939509836772565,0.1285323055753107,-0.0055357539720094,0.063674404590125,1.888932,-0.088651,-0.190027,1.361022,-0.119793,0.574256,-0.551154,0.013007,0.0,0.0,-1.376424,0.160407,2.765471,0.337144,0.15577,0.0,0.0,2.314195,-1.021583,-1.519769,2.203752,0.037278,-0.012497,2.576792,0.272447,0.008394,-0.452195,0.254454,-0.863042
0.84,0.0996458875361527,0.484505008075816,0.6415168232285421,0.8110131480788348,0.000316888444737,-0.0314707033351709,0.5841807665924659,0.155849,0.613055,0.04261,0.311996,0.115012,-0.797887,0.0828029053657417,0.0312549998911423,-0.0391561580792763,0.0307693006202448,-0.054247435221357,0.5286384009556184,0.1985263054848462,0.0120359439662592,0.0,0.0,0.0835729812023577,-0.0547732507357151,0.1287492062080917,0.0406957512923602,-0.010941025883169,0.0,0.0,-0.3940879996580361,-0.2406191515395655,0.8741167497228534,0.6694006387786715,0.1760972243557982,0.1893375180216262,-0.0245760036579743,-0.0760061723015301,0.1947466519575824,0.119385594058564,-0.0006974346437654,0.0477596051166037,1.532625,-0.050071,-0.122328,1.007681,-0.064057,0.443751,-0.382895,0.008839,0.0,0.0,-1.035813,0.349796,2.178153,0.327889,0.123436,0.0,0.0,2.133594,-0.533814,-1.469691,1.067193,0.025382,-0.111736,1.991301,0.222954,0.073213,-0.460802,0.225517,-0.714585
0.86,0.1022908060587529,0.4945558286260746,0.642137565044781,0.8153399839521511,0.0029960269999126,-0.0319165251505037,0.5780943433501482,0.133854,0.502811,0.029855,0.266724,0.154969,-0.761633,0.1096146556368476,0.0306626339941402,-0.0408508368354409,0.0471055724970664,-0.0549352055868379,0.5361084461041653,0.1926943270878797,0.0121585843700989,0.0,0.0,0.0665534635972004,-0.0456097415046384,0.1659887755957634,0.0471429188396356,-0.0088251468420299,0.0,0.0,-0.3533152987871918,-0.2460126832262462,0.8452472809673458,0.6785593197928704,0.1764845890391291,0.1860561723020527,0.0089252205232795,-0.0720675371901195,0.1968795095717386,0.1101002209734029,0.0034849214771943,0.0350910041754225,1.364725,-0.028271,-0.071977,0.810721,-0.026191,0.376086,-0.280526,0.00318,0.0,0.0,-0.84452,0.525648,1.88817,0.336212,0.105106,0.0,0.0,2.145619,-0.201755,-1.534619,0.333269,0.019757,-0.186539,1.676101,0.203525,0.126191,-0.495671,0.215134,-0.648117
0.88,0.105000044371696,0.5046174655723319,0.6427110329469747,0.8198983452967917,0.0059718536152873,-0.0320729789212915,0.5715788347788038,0.164002,0.594576,0.027438,0.273357,0.186193,-0.79711,0.1373919114979538,0.0301241654128087,-0.0420352401999086,0.063198139510989,-0.0552950846655475,0.5436818512659911,0.1873052598356678,0.0121631533388936,0.0,0.0,0.0497921665071341,-0.0337473131926413,0.2042760023814904,0.0541442372575678,-0.0067367777161957,0.0,0.0,-0.3082632486285115,-0.2486893614136685,0.8127319710597899,0.6827314016198781,0.1768875001252619,0.1818759431992583,0.0424680223605037,-0.0678651525163128,0.1997943051845503,0.0995587494381467,0.0079079197956288,0.0218349362903747,1.628692,-0.051821,-0.08823,0.901056,-0.008745,0.434864,-0.276406,-0.002458,0.0,0.0,-0.962698,0.579537,2.1826,0.468012,0.115101,0.0,0.0,2.724981,0.005474,-1.948236,-0.134147,0.015933,-0.303327,1.917856,0.243519,0.059771,-0.618653,0.255732,-0.778655
0.9,0.10885087,0.51833886,0.6432351000000001,0.8245370373138708,0.0090956709703686,-0.0320833618954806,0.5648243981599476,0.236337,0.816021,0.018947,0.291937,0.268632,-0.939878,0.17476234,0.02858981,-0.044380028,0.08314783,-0.055284996,0.5535029999999999,0.1816381,0.012060275,0.0,0.0,0.028045535,-0.0224282479999999,0.25329277,0.06586339,-0.004221092,0.0,0.0,-0.24431604,-0.24579373,0.76731783,0.67319345,0.177121929,0.173923093,0.085639454,-0.062326796,0.19927035,0.08535409,0.013714204,0.003944817,2.217113,-0.120547,-0.181788,1.10258,0.021033,0.564069,-0.266289,-0.007047,0.0,0.0,-1.256979,0.469609,2.783104,0.805568,0.139351,0.0,0.0,3.930035,0.459224,-2.757005,-1.308572,-0.001467,-0.58336,2.482562,0.320001,-0.231424,-0.842587,0.341779,-1.06286
0.92,0.1144535058694996,0.5372583233327374,0.6434689096726558,0.8306106503761899,0.0132173557148182,-0.0311109408273742,0.5558267341090987,0.294454,0.982219,0.004178,0.291603,0.334893,-1.05313,0.2260764501727748,0.0253023021622829,-0.049306758669517,0.107301339724472,-0.0544537702010362,0.5662446223841177,0.1766536999763182,0.0118812533964955,0.0,0.0,-0.0004869811628069,-0.0149629346961102,0.3156001800447715,0.0863669420527813,-0.0011627255505414,0.0,0.0,-0.1510618628085658,-0.2303204167971494,0.7024517610140216,0.6303885023262127,0.1768288184305453,0.1585415521158241,0.1417705082104514,-0.055065110950922,0.1905373541801296,0.0658552867385498,0.0215790624889162,-0.0206794779092955,2.652298,-0.184322,-0.28508,1.20691,0.050463,0.648259,-0.222005,-0.00911,0.0,0.0,-1.466282,0.275912,3.146996,1.122932,0.154368,0.0,0.0,4.862076,0.933824,-3.357058,-2.601681,-0.024419,-0.853933,2.871468,0.370408,-0.582929,-0.994098,0.404989,-1.268755
0.94,0.1206290278459033,0.557627616464967,0.6434022192336998,0.8363797126107221,0.0170074779352808,-0.0300402030275402,0.5470624354034475,0.292085,0.956833,-0.010458,0.241609,0.317863,-0.999937,0.2808542758450016,0.0212169317790867,-0.0557832268710926,0.1314242254004353,-0.0532664732118511,0.5794333446703739,0.1727579029929914,0.0116958914972513,0.0,0.0,-0.0306057515381207,-0.0113917740274232,0.3791725944729973,0.1107806891905054,0.001953646694304,0.0,0.0,-0.0498329995535154,-0.2084407661469748,0.6330355190001655,0.5691262048813156,0.176145163951082,0.1397657760710175,0.2004981926993662,-0.0475104918968298,0.1759531950647858,0.0455901860673799,0.0299137446278384,-0.046805387581698,2.552863,-0.198577,-0.333256,1.097865,0.055687,0.606931,-0.159033,-0.007854,0.0,0.0,-1.410868,0.089551,2.902506,1.187499,0.144763,0.0,0.0,4.704222,1.085405,-3.197643,-3.113346,-0.039706,-0.914784,2.729255,0.347892,-0.804057,-0.911925,0.387016,-1.207825
0.96,0.1261368917665584,0.5755316289916668,0.6430505911220603,0.8416678792538282,0.0201361016678832,-0.0287777783834997,0.5388520742405045,0.244651,0.787239,-0.025623,0.152071,0.266497,-0.873295,0.3281909548057465,0.0173592056228156,-0.0626369883384171,0.1512159544754533,-0.0522262752738912,0.5905218722306366,0.1702923734342604,0.0115670979626152,0.0,0.0,-0.0569217110351546,-0.0113808908093421,0.431700438273705,0.133866888813511,0.0046277912194335,0.0,0.0,0.0371070235840281,-0.1869042156645642,0.574546023489146,0.5058546817581684,0.1752405928098514,0.1219501790210154,0.2509407087885982,-0.0411494395689749,0.1583750619201528,0.0293782828382699,0.0370596967172924,-0.0689924600883891,2.053534,-0.176374,-0.342061,0.824077,0.043753,0.470465,-0.077879,-0.004225,0.0,0.0,-1.155955,-0.092683,2.195712,1.069477,0.116308,0.0,0.0,3.738814,1.010782,-2.474469,-3.084559,-0.050085,-0.825419,2.177298,0.269672,-0.935135,-0.646808,0.308307,-0.946812
0.98,0.1304150590388488,0.5891171568364859,0.6423772800380388,0.8459000299943452,0.0219371643522717,-0.027545307324383,0.5321777486142695,0.193173,0.607201,-0.042971,0.067706,0.206531,-0.736521,0.3629956167669664,0.0141619621432099,-0.0694656756656135,0.1643873128513865,-0.0515163525841729,0.5982519318645062,0.1696427604478663,0.011526891744985,0.0,0.0,-0.0768439430888336,-0.0150991050344589,0.4670010943319678,0.15355976418829,0.0066059526121544,0.0,0.0,0.0997195744312118,-0.1680094850109435,0.534056746460083,0.445743856439127,0.1741417775135972,0.1067490169397896,0.2875901304197085,-0.036723601862652,0.1385477896716746,0.0197178710817005,0.042246016893527,-0.0846778738277683,1.516431,-0.143806,-0.341393,0.540694,0.028718,0.327023,-0.001563,-0.000576,0.0,0.0,-0.887151,-0.228778,1.457038,0.925602,0.086783,0.0,0.0,2.672074,0.881165,-1.68474,-2.916431,-0.059083,-0.713369,1.6128,0.192419,-1.062529,-0.369546,0.226037,-0.664408
1.0,0.1338638,0.5998196600000001,0.64133175,0.8495978524174198,0.0230741977077064,-0.0263276735254922,0.5262679205258373,0.172334,0.534798,-0.061984,-0.003395,0.174635,-0.695555,0.3888482,0.011606951,-0.0762927,0.17284372,-0.051077563,0.6036028,0.17022984,0.0115440599999999,0.0,0.0,-0.0924077399999999,-0.020532018,0.48998195,0.17089096,0.008099097,0.0,0.0,0.1439899699999999,-0.15165761,0.50715643,0.38919744,0.172877279,0.093415427,0.3154527,-0.03345267,0.115873896,0.01459643,0.0461011749999999,-0.095568777,1.257135,-0.118408,-0.348858,0.399444,0.018956,0.257628,0.036049,0.000987,0.0,0.0,-0.773733,-0.245704,1.086984,0.871505,0.07293,0.0,0.0,2.090475,0.788128,-1.247166,-2.801135,-0.066892,-0.6679,1.413142,0.167903,-1.229078,-0.241843,0.190232,-0.515865
1.02,0.1373083992686026,0.6105090713279333,0.6398979067507062,0.8533143017965626,0.0233513234087263,-0.0248631723011317,0.5202799637768403,0.176919,0.548557,-0.077815,-0.065111,0.168495,-0.713658,0.4132810185491426,0.0094256369171057,-0.0834199988967064,0.1803650752206931,-0.050758095541014,0.6085570437844829,0.1710847088958859,0.011566359575417,0.0,0.0,-0.1077932726307625,-0.0249272722727736,0.5104804614927951,0.1884199762742617,0.0095231326975921,0.0,0.0,0.1833385723350618,-0.136484377289811,0.4841701126518919,0.3336984375736955,0.1714660785010419,0.0800330064844292,0.3441158022294554,-0.0300074885107187,0.089384686278936,0.0100441691632859,0.0498553136606902,-0.1053124901902942,1.240794,-0.10538,-0.375897,0.374215,0.012293,0.250091,0.048885,0.001748,0.0,0.0,-0.799774,-0.195111,1.018087,0.915361,0.071628,0.0,0.0,1.953089,0.759112,-1.122264,-2.85577,-0.075672,-0.694903,1.502248,0.171257,-1.409756,-0.229216,0.190673,-0.48325
1.04,0.1409405691431665,0.6217619288139485,0.6382191473349489,0.8571360664356185,0.023361347968019,-0.0231078120981898,0.5140408933698047,0.197102,0.612429,-0.08896,-0.121391,0.186401,-0.75394,0.4384799513560382,0.0073917578370419,-0.0913285833578731,0.1878123051606185,-0.0505858525713865,0.6136064365442967,0.1721852363944207,0.0116139875843908,0.0,0.0,-0.1243986987441855,-0.0283364465966266,0.5307054231943861,0.2075054051675142,0.0109642302536995,0.0,0.0,0.2221135135598128,-0.1212931277752439,0.4622658757785717,0.2749666365368158,0.1698504075444452,0.0656192935598717,0.3755426165768277,-0.0266024007959706,0.0594836370647915,0.0054278092463393,0.0537280895244597,-0.1148987941528672,1.297226,-0.09214,-0.421837,0.366407,0.011635,0.260773,0.063007,0.003575,0.0,0.0,-0.867186,-0.15188,1.009726,1.020322,0.070727,0.0,0.0,1.903116,0.770698,-1.043218,-2.998515,-0.090365,-0.769728,1.754722,0.207377,-1.782448,-0.221334,0.207884,-0.477287
1.06,0.1451924630546881,0.6350062413275829,0.6363395148399568,0.8612036514017208,0.022838146181098,-0.020771887217872,0.5073216125819618,0.251171,0.792281,-0.102207,-0.225342,0.249653,-0.744348,0.4651700776604692,0.0057400505729708,-0.1002934888626931,0.1950213734626406,-0.0502926849388945,0.6189879756363431,0.1736049841615567,0.0117093603935308,0.0,0.0,-0.1424806963808054,-0.0310024913411365,0.5508695094877344,0.2292328663399691,0.0123522043885054,0.0,0.0,0.2594632197800932,-0.1056564729031268,0.4424413905802914,0.2137578437417924,0.1678514769799725,0.0492439056412498,0.4143046953084254,-0.0217124195173837,0.0180867799291108,0.0011907995586553,0.0581706576814791,-0.1244039806374498,1.379237,-0.051825,-0.469653,0.33958,0.035946,0.28607,0.0751,0.005834,0.0,0.0,-0.927185,-0.102428,1.006451,1.172563,0.063783,0.0,0.0,1.705139,0.774716,-0.841051,-2.900267,-0.116636,-0.891591,2.373713,0.390928,-2.841112,-0.135695,0.263047,-0.465336
1.08,0.1509873993113774,0.6534531602592114,0.6341308709072222,0.8648950788032879,0.0217038976837742,-0.016861350260045,0.5011996990767202,0.313973,1.007381,-0.109376,-0.324771,0.326786,-0.689682,0.4936494294651397,0.0053187750860615,-0.1101147189030549,0.2013955057801156,-0.0491480215808685,0.6250492229819584,0.1751892291470176,0.0118473642732158,0.0,0.0,-0.1614860834261763,-0.0324335707639732,0.570963467812207,0.2544079416414619,0.0135155394843226,0.0,0.0,0.2903190885412495,-0.0903044891620489,0.4286238483175466,0.1589559536212821,0.1651849800273182,0.0299556662640177,0.4704911208453609,-0.0109652675165746,-0.0541608270075512,0.0,0.0642499562654153,-0.1335122223487833,1.397865,0.00745,-0.481561,0.284814,0.077813,0.305343,0.077599,0.007046,0.0,0.0,-0.919071,-0.046362,0.965312,1.268025,0.051465,0.0,0.0,1.326276,0.72999,-0.52941,-2.450101,-0.142081,-0.982966,3.061468,0.664587,-4.176806,-0.02977,0.331538,-0.430591
1.1,0.15775138,0.6753015,0.6319644600000001,0.86836705372783,0.0202633769202372,-0.0121630223518761,0.4953585736041159,0.325734,1.05738,-0.090153,-0.334258,0.346444,-0.530805,0.52108467,0.006038042,-0.11955594,0.20641394,-0.0471801459999999,0.6312017000000001,0.17670895,0.0119911959999999,0.0,0.0,-0.1792435499999999,-0.032856986,0.5894820000000001,0.2799538699999999,0.014410824,0.0,0.0,0.3125142499999999,-0.07645688,0.421265,0.115753785,0.162168224,0.009925263,0.5367634,0.004871076,-0.14898548,0.0,0.071432163,-0.14162761,1.230746,0.048486,-0.41808,0.205817,0.106421,0.281553,0.067888,0.005989,0.0,0.0,-0.78089,-0.012323,0.826222,1.15608,0.038709,0.0,0.0,0.881866,0.616713,-0.245038,-1.797993,-0.142978,-0.9212,3.146338,0.820826,-4.692432,0.229723,0.34902,-0.36091
1.12,0.1640167589338128,0.6957483633180921,0.6305247584464085,0.8703882979498846,0.0192022208465359,-0.0077483130322216,0.4919303295707825,0.274776,0.902646,-0.03893,-0.278388,0.319556,-0.329517,0.5428792757202295,0.0072582174967294,-0.1268379180857043,0.2096281957008904,-0.0448911619471355,0.6363113583516495,0.1779047405086011,0.0120869288850673,0.0,0.0,-0.1927216687149285,-0.032926475031635,0.6040123489433283,0.3006511596917755,0.0150638884056107,0.0,0.0,0.3255937452462431,-0.0656359768118059,0.4188223114088429,0.0870362289082758,0.1594658619415719,-0.006892332426414,0.5963446393452507,0.0218677647465916,-0.2418581218504666,0.0091889132383728,0.0782107612285394,-0.1479486215109802,0.859085,0.066734,-0.276265,0.10445,0.114351,0.208014,0.045814,0.002441,0.0,0.0,-0.506262,-0.002869,0.572247,0.81988,0.025359,0.0,0.0,0.375863,0.423141,0.003581,-0.951151,-0.1156,-0.686527,2.609707,0.81403,-4.211766,0.562638,0.301367,-0.24704
1.14,0.168742400483434,0.711407325490848,0.6304072777657787,0.8717716725997788,0.0185103326913191,-0.0039879177875957,0.4895463358538803,0.197041,0.660894,0.025627,-0.18102,0.257753,-0.147662,0.5554480679037579,0.0087074143715061,-0.1306065380370926,0.2105919478555216,-0.0426060962700803,0.6395222446710642,0.1785415255083723,0.0120888477556816,0.0,0.0,-0.1994940162051898,-0.0329717393312494,0.6123718815144673,0.3127490795264738,0.0154251819499923,0.0,0.0,0.3275487548769215,-0.0595312597314547,0.4214082516003262,0.0777077599827032,0.1575442236704997,-0.0175357982809616,0.6411516969790815,0.0374322626748765,-0.317456125299234,0.0225055130350777,0.0834868300706999,-0.1515092033749762,0.392211,0.075483,-0.098412,-0.009958,0.114135,0.111826,0.01864,-0.002158,0.0,0.0,-0.168583,-0.001478,0.2645,0.380907,0.011871,0.0,0.0,-0.165155,0.194074,0.240892,-0.018488,-0.07603,-0.375121,1.870036,0.7419,-3.301341,0.743799,0.226465,-0.11388
1.16,0.1718984027981818,0.7221841048383267,0.631549829961692,0.8719286359841494,0.0185580732443736,-0.0015366274207103,0.4892787451386449,0.150874,0.521723,0.063965,-0.080135,0.198298,0.011039,0.5585677022616201,0.0102775410150518,-0.1307744169791281,0.2092298871569022,-0.0403257792368311,0.6407843922164447,0.1786503532712867,0.0120006103063745,0.0,0.0,-0.1994649728650962,-0.032985587504754,0.6145923409421067,0.3158874253047278,0.015538730227163,0.0,0.0,0.3189875489320075,-0.0578730214074795,0.4284579790170237,0.0862967086127473,0.1564246660358223,-0.0218971795096036,0.6711460620757388,0.0515437686111277,-0.3739117814854763,0.0389408581723682,0.0872693634739758,-0.1525038217701656,0.029556,0.081626,0.040845,-0.113842,0.124029,0.040408,0.002444,-0.004832,0.0,0.0,0.093277,0.00967,0.038245,0.036201,0.00464,0.0,0.0,-0.567642,0.05132,0.410329,0.58762,-0.049905,-0.154221,1.344478,0.750108,-2.708511,1.019792,0.188636,-0.034153
1.18,0.1747773576895008,0.7322762434019972,0.6329658748752816,0.8717005519065322,0.0190537167573618,0.0002583706031493,0.4896682927535832,0.149386,0.526837,0.069034,-0.026263,0.170874,0.067251,0.556630318034597,0.011972464864738,-0.1289727496342638,0.2060382675496382,-0.0376449170160385,0.6411385796544258,0.1786392655191311,0.0118955719718245,0.0,0.0,-0.1957629419807846,-0.0325849410165101,0.6139016887055727,0.3141971293558341,0.0156107685011656,0.0,0.0,0.3048430889274501,-0.0574784667733785,0.4378214278730217,0.1012125546201893,0.1555480157334056,-0.0237046219040277,0.6949308101995635,0.0674366012578365,-0.4257965601073156,0.0632971842133421,0.0910322608864802,-0.1528753248077872,-0.164306,0.089441,0.118918,-0.193286,0.147502,0.008503,-0.00048,-0.004793,0.0,0.0,0.23848,0.035272,-0.064347,-0.14952,0.004218,0.0,0.0,-0.820092,0.01635,0.505982,0.768364,-0.043666,-0.068758,1.146115,0.867883,-2.648784,1.443789,0.200545,-0.020445
1.2,0.17787386,0.7432576,0.6343112,0.8712792798114204,0.0197732925418292,0.0017252219600245,0.4903860286371712,0.159255,0.568399,0.06729,0.033371,0.131486,0.169531,0.55199546,0.0138551769999999,-0.1260177,0.2014984299999999,-0.034425717,0.6411244999999999,0.17863114,0.011808876,0.0,0.0,-0.1899257899999999,-0.031574693,0.61201847,0.30990663,0.015707454,0.0,0.0,0.28618386,-0.0572190059999999,0.44869724,0.1170312699999999,0.154678039,-0.024647482,0.71699065,0.086259104,-0.4798631400000001,0.09669243,0.0952911809999999,-0.1533216129999999,-0.312047,0.10115,0.178506,-0.266665,0.174596,-0.011979,-0.000869,-0.003635,0.0,0.0,0.352336,0.072198,-0.13522,-0.285905,0.0034,0.0,0.0,-1.109646,0.005535,0.589952,0.780626,-0.041877,-0.020979,1.001569,1.012314,-2.733064,1.927749,0.224737,-0.021703
1.22,0.1811475511171095,0.7550122093220702,0.6356574755484101,0.8700180841202937,0.0209189093339299,0.0022893335268488,0.4925704939274532,0.172568,0.628623,0.064041,0.104057,0.068317,0.341471,0.5441484357941873,0.0160184644101245,-0.121832491320249,0.1953716716824992,-0.0306610712925832,0.6406594021702449,0.1786044945479426,0.011750154189288,0.0,0.0,-0.1816695018800966,-0.0296970332589447,0.608492906416483,0.3027609465777189,0.015746777392064,0.0,0.0,0.2604572359525909,-0.0572570514107942,0.4614194961664414,0.132437585410737,0.1538729490304423,-0.0245437821803434,0.7349935814163137,0.1079291581014065,-0.5351191059583085,0.1404071491625566,0.1000217426351652,-0.1537434551380812,-0.613934,0.117231,0.268517,-0.418926,0.208445,-0.060028,0.003732,-0.001695,0.0,0.0,0.54078,0.142148,-0.328647,-0.533866,-0.006292,0.0,0.0,-1.612695,0.006528,0.707649,0.683304,-0.031945,0.069221,0.377725,1.182181,-2.592925,2.759078,0.263673,-0.028506
1.24,0.1847765775790073,0.7684025237560279,0.6368728545115968,0.8678632556032865,0.0222411846562338,0.0020317024420792,0.4963008880346063,0.192853,0.72199,0.055597,0.191506,-0.030398,0.606495,0.5274380933735638,0.0185444041221336,-0.1152770131308625,0.1847413745142101,-0.026087923097427,0.6387233616285445,0.1787804090254167,0.0117410805456717,0.0,0.0,-0.1682945735546605,-0.0258887798065403,0.5988725792701052,0.2885519954102368,0.0154557712956981,0.0,0.0,0.2216760572528776,-0.0569578874163674,0.477003198027444,0.1443634196297272,0.1534002420409643,-0.0218786609750283,0.7320996495114821,0.1335463377888472,-0.5835801418509304,0.2070555439411154,0.1058380996100483,-0.1544618361264147,-1.125566,0.134723,0.398892,-0.679445,0.250601,-0.146432,0.017554,0.00086,0.0,0.0,0.825294,0.246675,-0.693559,-0.935019,-0.026459,0.0,0.0,-2.314513,0.035381,0.856432,0.467379,-0.012009,0.214012,-0.921931,1.381625,-2.136306,4.06852,0.324732,-0.048335
1.26,0.1888616820567558,0.7838918204393435,0.6378813593477813,0.8638931724754946,0.0239160186334273,0.0001305545510731,0.5031069404793183,0.211075,0.806118,0.047134,0.266386,-0.128131,0.847826,0.4991257932971816,0.021407382585463,-0.1058768066963278,0.1681938908629739,-0.0206370406006387,0.6348021198386472,0.1793066506081452,0.0117845402973117,0.0,0.0,-0.1486577250823717,-0.0198300175284138,0.5807505399242753,0.2653601903951476,0.0146883985161511,0.0,0.0,0.1678767194345518,-0.0558418175849188,0.4956767565317808,0.1511327327487145,0.1533926062285424,-0.0159832961084026,0.6981163367242043,0.1631941461259787,-0.6205713552458528,0.3031479478985867,0.1130110279207928,-0.1556768602543837,-1.598653,0.145596,0.512506,-0.919016,0.283577,-0.228158,0.033224,0.002716,0.0,0.0,1.074414,0.328258,-1.051769,-1.295338,-0.04673,0.0,0.0,-2.90191,0.073374,0.971783,0.237876,0.007323,0.34418,-2.290604,1.522039,-1.62664,5.288825,0.376827,-0.068714
1.28,0.1932195860145199,0.800647228553861,0.6387582061389623,0.8591942846827872,0.0255519682737485,-0.0024570116043129,0.5110051283301833,0.19798,0.764607,0.037564,0.291179,-0.176041,0.944825,0.4634919780605217,0.0243682622835378,-0.0947767902961554,0.1479807407087546,-0.0147448527315486,0.6295970355079118,0.1801093530197409,0.0118497363782186,0.0,0.0,-0.1253180305521693,-0.0127584655374971,0.5568018288926018,0.2367384657032223,0.0135865671926445,0.0,0.0,0.1055996410343891,-0.0540229413847765,0.5158745344213161,0.1538784529850851,0.153693156099297,-0.0081114567801056,0.6404754958842112,0.1944279101014537,-0.6486457265509997,0.4186085601675858,0.1209111967051124,-0.1572104101688676,-1.699146,0.129549,0.515311,-0.956183,0.2639,-0.253049,0.041319,0.003086,0.0,0.0,1.087203,0.319669,-1.164828,-1.356061,-0.054461,0.0,0.0,-2.877776,0.094975,0.915269,0.051031,0.018221,0.379519,-2.772948,1.397212,-1.085654,5.202956,0.363035,-0.073409
1.3,0.19678089,0.8144761000000001,0.6393839,0.8540733617624681,0.0271666943741451,-0.005387526074198,0.5194147071534827,0.133483,0.522955,0.021159,0.221777,-0.167088,0.775492,0.43115997,0.026589332,-0.08526435,0.12994659,-0.01008104,0.62468016,0.18095943,0.0119079849999999,0.0,0.0,-0.1051695999999999,-0.007043276,0.5341574000000001,0.21111774,0.012509945,0.0,0.0,0.0527656815006554,-0.052042827,0.5322875,0.15317399,0.154121441,-0.000802542,0.5871984,0.21908262,-0.66399753,0.5112662000000001,0.127532436,-0.158613233,-1.322055,0.070142,0.368774,-0.724683,0.163805,-0.208637,0.040587,0.001947,0.0,0.0,0.782337,0.188121,-0.97038,-1.032274,-0.046551,0.0,0.0,-2.030621,0.09517,0.600537,-0.134166,0.021947,0.302321,-2.032631,0.864533,-0.283667,3.129289,0.251007,-0.056571
1.32,0.1985589058072885,0.8215654179490646,0.6396045601889773,0.8510301158537356,0.0276890155752227,-0.0071938379407476,0.5243370185502211,0.083279,0.337247,0.006999,0.150097,-0.157363,0.669692,0.4106097978755159,0.0271739464529836,-0.0800258487545057,0.1189934043971012,-0.0081926544891705,0.6212515588261044,0.1817328501224708,0.0119276248150345,0.0,0.0,-0.0940245352508601,-0.0052336207834942,0.5179866476798314,0.1954474927715436,0.0117245210995919,0.0,0.0,0.0243747842692603,-0.0502161298916713,0.5398960247707497,0.148511817673488,0.1545710558340465,0.0039813888055372,0.5591702480244384,0.2290092420686681,-0.6599924065325391,0.5437801364668527,0.1309514857320854,-0.159473258538219,-1.102891,-0.002571,0.276388,-0.552593,0.075079,-0.190429,0.052809,-0.001383,0.0,0.0,0.552676,-0.024268,-0.970412,-0.791723,-0.047045,0.0,0.0,-1.40816,0.1263,0.294578,-0.400355,0.027625,0.256417,-2.173998,0.280423,0.681422,1.632717,0.134744,-0.038209
1.34,0.2001120449135918,0.8279659625395077,0.6396638717535741,0.8469332298968192,0.0281671776291996,-0.0092690094995019,0.5308717356046043,0.101997,0.419254,0.003516,0.168144,-0.203198,0.957199,0.3870443479762658,0.0264865000157164,-0.0742088412145279,0.1078428669157129,-0.0070778782229021,0.6170629818873643,0.1830718052287166,0.0118526500626269,0.0,0.0,-0.0830625794324009,-0.008013987248047,0.4953409054317388,0.179448819209858,0.0106281606494402,0.0,0.0,-0.0035607279399353,-0.0469908161161729,0.5440706172318903,0.1371597965057614,0.1552264364517916,0.0094541247976348,0.5002384945015093,0.2302995589205926,-0.636740641213093,0.5765748831678983,0.1329222114578232,-0.1601415925471267,-1.538074,-0.05723,0.396785,-0.705577,0.075856,-0.271627,0.092215,-0.006862,0.0,0.0,0.714161,-0.255694,-1.53274,-1.011807,-0.073742,0.0,0.0,-1.831014,0.223633,0.233002,-0.779796,0.041562,0.352991,-4.278322,-0.014783,1.618764,2.337163,0.101207,-0.037249
1.36,0.2026387764931812,0.8383355855961329,0.6397451964628439,0.8407022544796406,0.0285560748750484,-0.0118814161254237,0.5406136345408196,0.140941,0.579909,0.003117,0.183795,-0.250784,1.268513,0.3490868524189933,0.0248847419021797,-0.0641544321070782,0.0907703096679784,-0.0051584291856209,0.6103864883601918,0.1854214652349351,0.0116531456114595,0.0,0.0,-0.0654580770252823,-0.0154613919038404,0.4566770551742418,0.1549752013503775,0.0087748365335571,0.0,0.0,-0.0488657882917679,-0.0412707960802381,0.5492161169754645,0.1173199766067133,0.1562335326049373,0.0181010294822844,0.3880373740504008,0.2284179272105269,-0.5952418529003743,0.6372666665392362,0.1349997800174278,-0.1609632329459485,-2.162882,-0.104534,0.576108,-0.957299,0.104057,-0.3817,0.137732,-0.012493,0.0,0.0,0.989768,-0.478971,-2.243558,-1.374748,-0.107313,0.0,0.0,-2.506686,0.336745,0.252219,-1.181267,0.057865,0.490887,-5.519674,-0.197569,2.509945,2.316548,0.099955,-0.044519
1.38,0.2057496662015308,0.8511623355336799,0.6397885566923524,0.8330268024847569,0.0288465133165131,-0.0147481073883112,0.5522831867257637,0.147288,0.608493,0.000965,0.189231,-0.276312,1.44798,0.3005290666546744,0.0223051232392919,-0.0511645079459299,0.0695509053064021,-0.0029155850502962,0.6017949836203386,0.1885810772328341,0.0113529464494365,0.0,0.0,-0.0434718652392351,-0.0271728230495973,0.4055985958971374,0.1244589111631755,0.00633564500049,0.0,0.0,-0.1038281680057304,-0.0335210255373229,0.5541593825663762,0.0899091140300384,0.1575410222413165,0.029089598411426,0.279451542585417,0.2223968059003766,-0.5363428430339574,0.6692367894042834,0.1369203977630696,-0.161922344569321,-2.345417,-0.132212,0.633212,-1.009478,0.099624,-0.416082,0.16013,-0.015764,0.0,0.0,1.05457,-0.60482,-2.521275,-1.438366,-0.120755,0.0,0.0,-2.531551,0.387651,0.195957,-1.416143,0.064196,0.532337,-4.726131,-0.411022,3.036925,0.727178,0.060441,-0.03483
1.4,0.20853028,0.8626753000000001,0.6397837999999999,0.8245027926367404,0.0290833037402702,-0.0177394668415769,0.5648314949557469,0.111568,0.461949,-0.000961,0.131503,-0.226181,1.312985,0.2552701799999996,0.0195962789999999,-0.0388259549999998,0.0503911749999998,-0.0011734679999999,0.5937431999999999,0.19182667,0.0110225819999999,0.0,0.0,-0.0232752729999998,-0.0396542060000001,0.3558260499999995,0.0974405799999997,0.0039446329999999,0.0,0.0,-0.1501278424513862,-0.0257647409999999,0.5570544,0.0606742516018981,0.158801363,0.0393945,0.1989921499999992,0.2119770599999998,-0.4737648699999993,0.6663537999999999,0.137417434,-0.162356447,-1.851236,-0.111905,0.520666,-0.762487,0.060116,-0.329487,0.147643,-0.015346,0.0,0.0,0.829351,-0.541795,-2.126531,-1.034672,-0.103219,0.0,0.0,-1.707106,0.338086,0.063427,-1.335353,0.05289,0.427009,-3.434601,-0.619617,2.845944,-0.369372,-0.041559,0.009626
1.42,0.2102123683589372,0.8696403115096694,0.6397501190786005,0.8180834208127082,0.0289273666332452,-0.0192006448950559,0.5740505720636965,0.076992,0.318387,-0.003538,0.071017,-0.171597,1.156477,0.2264796092882412,0.0178289036393356,-0.0303378701469603,0.0390514426345537,-0.0005109341419461,0.5886155117269095,0.1944868101647287,0.0107391088004012,0.0,0.0,-0.0102978396415091,-0.0488446262005479,0.3205373576826303,0.0830720147858866,0.0022068934920509,0.0,0.0,-0.1721124230615349,-0.0199975987796723,0.5566964655539567,0.0364949906331566,0.1596566085410584,0.0461699453668068,0.1420674871299337,0.197612106786587,-0.4225050931826042,0.6544618927080904,0.1352580217789351,-0.1615372980491388,-1.337875,-0.0769,0.40615,-0.515825,0.026493,-0.23909,0.137136,-0.013115,0.0,0.0,0.60797,-0.415544,-1.705552,-0.61085,-0.084713,0.0,0.0,-0.906765,0.283039,-0.052789,-1.093614,0.040655,0.320166,-2.74145,-0.816089,2.607779,-0.714379,-0.147771,0.058184
1.44,0.2116099570652857,0.8754107658373707,0.6396422652411838,0.8111109306813533,0.028718989344621,-0.0206931774657169,0.5838202379042927,0.080986,0.333173,-0.006733,0.06806,-0.184019,1.271371,0.2017551983584442,0.0165202779039211,-0.0225799726840762,0.0297581916341562,-0.0001137538624546,0.5841795903401809,0.1973120920047437,0.0104979623907133,0.0,0.0,0.0010435112537394,-0.056275965575701,0.2876039650249262,0.0730065700972825,0.00055612943571,0.0,0.0,-0.1863984590803949,-0.0144431768668816,0.5549428548688523,0.0169297061889588,0.1604275677019524,0.0522011552596803,0.0893341510659561,0.1793335030404547,-0.369453712366939,0.6377786596774018,0.1315066005439899,-0.1600290809337719,-1.398915,-0.055071,0.42314,-0.55006,0.012773,-0.252746,0.174705,-0.009842,0.0,0.0,0.652141,-0.347442,-1.856407,-0.557683,-0.093521,0.0,0.0,-0.873213,0.303059,-0.061554,-0.845577,0.0448,0.3497,-2.817845,-1.021867,2.968263,-1.06818,-0.229725,0.127726
1.46,0.2134517955232409,0.8829672319817115,0.6394808174467391,0.803107103110561,0.0284083749568819,-0.0222498847618434,0.594741025820278,0.10311,0.420173,-0.005929,0.047221,-0.199044,1.416097,0.1705230271765098,0.0156260573378427,-0.0134122863356913,0.0170490316252711,0.0,0.5785056901407459,0.2014750073063797,0.0103454141460596,0.0,0.0,0.015787802134239,-0.0627423106868134,0.2462810692592357,0.0607646885758314,-0.0015339270898469,0.0,0.0,-0.2070409487427856,-0.0078752434269746,0.5542342991311524,0.0026718921921132,0.1614486059873658,0.0601579411360883,0.0293537034652904,0.1567374136279548,-0.3037745807594708,0.6117346826941354,0.1260690300939712,-0.1564282710079891,-1.678043,-0.005249,0.452028,-0.734942,-0.022437,-0.307801,0.272347,-0.001683,0.0,0.0,0.822869,-0.239916,-2.253712,-0.593143,-0.116041,0.0,0.0,-1.140433,0.329077,0.0415,-0.423243,0.059636,0.454446,-3.040187,-1.262849,3.525691,-1.76582,-0.380277,0.349391
1.48,0.2157343601172063,0.8922176984587504,0.6394050975027795,0.7941357375552174,0.0277394774082163,-0.0236469349770713,0.6066463337043588,0.128615,0.518568,-0.000527,0.018919,-0.209271,1.518277,0.1346334853496517,0.0163103047676443,-0.004498863424231,0.0003605153259906,-0.0010112457498505,0.5718675389643985,0.2082059759924057,0.0104306481748609,0.0,0.0,0.0339582752186342,-0.0658725993198759,0.1974554679114164,0.0492808321206064,-0.0040855178248069,0.0,0.0,-0.2320157902426278,-0.0012800799762066,0.5566028411872022,0.0,0.1628130220149886,0.0703790051755246,-0.0322733443191027,0.1288195507322364,-0.2284260685395354,0.5671458424366684,0.1162955085062547,-0.1460534489553559,-1.955864,0.081611,0.443945,-0.963228,-0.107932,-0.364925,0.419105,0.011806,0.0,0.0,1.021314,-0.056745,-2.699163,-0.55602,-0.143153,0.0,0.0,-1.416059,0.33496,0.209352,-0.066797,0.079521,0.584875,-3.188161,-1.581947,4.117759,-2.816222,-0.626947,0.72843
1.5,0.2185964099999999,0.90370995,0.63945975,0.7845681953535428,0.0268875448407635,-0.0249606448521752,0.6189561963343486,0.157175,0.629803,0.005441,-0.014615,-0.217388,1.596563,0.0922884639999999,0.018890498,0.004345527,-0.021480083,-0.00431726,0.5639087,0.2182391899999999,0.01081766,0.0,0.0,0.0566403499999999,-0.0650121,0.1383145299999999,0.0385238899999999,-0.0072600389999999,0.0,0.0,-0.2636833211497598,0.005523142,0.56260836,2.1684043449710093e-19,0.1646294549999999,0.0835529329999999,-0.09817275,0.0934595299999999,-0.13906422,0.4990857999999999,0.1009911399999999,-0.127291053,-2.287702,0.164161,0.452609,-1.212355,-0.20865,-0.431805,0.57039,0.025351,0.0,0.0,1.24183,0.114949,-3.207418,-0.549275,-0.173246,0.0,0.0,-1.781916,0.351506,0.374588,0.008825,0.100971,0.726545,-3.448301,-1.926087,4.80784,-3.875826,-0.873481,1.101973
1.52,0.2220213432766755,0.9174098187773864,0.6396227465712107,0.7742597262007154,0.0256157066599226,-0.0260182219428052,0.6318138682261107,0.156586,0.624657,0.010294,-0.052552,-0.197527,1.47152,0.0431254175957418,0.0228767388110787,0.0136054800453142,-0.0481336819216123,-0.0093572282201883,0.5545953392300144,0.2310215625638111,0.0114446784067957,0.0,0.0,0.0836314738018358,-0.0612746423689777,0.0691587483943277,0.0273098515706889,-0.0110153539366983,0.0,0.0,-0.3032924301522008,0.0127801725193453,0.5715863449055875,0.0003530020478065,0.1668518428554153,0.0994408239848016,-0.1702053820150811,0.0517760713780003,-0.0361124675235617,0.4121128046426544,0.0813562555375776,-0.1019745244546237,-2.19555,0.203461,0.375972,-1.230084,-0.234067,-0.416316,0.599398,0.029416,0.0,0.0,1.230355,0.183407,-3.094709,-0.474259,-0.169587,0.0,0.0,-1.732844,0.299779,0.478923,-0.0,0.102656,0.730203,-3.107604,-1.827388,4.464363,-4.07056,-0.931465,1.258837
1.54,0.2248598518979231,0.9286962226335672,0.6398715019752322,0.7659370113038049,0.0243447784371749,-0.0266027695704827,0.6419035123202084,0.121618,0.481725,0.005901,-0.094151,-0.124702,0.963573,0.0044664708481048,0.0270289417715228,0.0193844007882897,-0.0706834377626489,-0.0136799251693478,0.547256047095938,0.2422151062619893,0.0119942876860379,0.0,0.0,0.1058545415849506,-0.0576758076344797,0.0145261658080178,0.0195535420787308,-0.0140435279819312,0.0,0.0,-0.3329970826636361,0.017514290210618,0.5817652835776544,0.0,0.168735713958672,0.1127610436075967,-0.2224768945835656,0.0203639987679775,0.0395102854559046,0.3362633880892933,0.0637325391921712,-0.0769375722255124,-1.530998,0.203509,0.161328,-0.954406,-0.156322,-0.288411,0.48729,0.02191,0.0,0.0,0.925244,0.125013,-2.176158,-0.267345,-0.123778,0.0,0.0,-1.095198,0.127259,0.592503,-0.008825,0.083368,0.576022,-1.891775,-1.155011,2.646528,-3.214967,-0.794992,1.214531
1.56,0.2268860768564826,0.9366788340565706,0.6398587868676023,0.761919322281819,0.0230867866657219,-0.0262523801801288,0.6467277318547143,0.119884,0.474232,-0.027498,-0.184187,-0.078927,0.66242,-0.018114483872518,0.0310170834683759,0.020058613438183,-0.0863099292232331,-0.0156101148979075,0.5430589077813435,0.2505131508219668,0.0123210590870066,0.0,0.0,0.1206412460753476,-0.0562741380540791,-0.0178875562227663,0.0166160709433774,-0.0159664562545028,0.0,0.0,-0.3471003325641079,0.0178705497351148,0.595286480919848,0.0,0.1701865749574223,0.1224817026971056,-0.2458763648475345,0.0055756409235919,0.0697486647739962,0.2835141148362439,0.0495565657985483,-0.0533932918209169,-1.186256,0.227809,-0.009713,-0.843103,-0.043727,-0.213302,0.457172,0.015928,0.0,0.0,0.805957,0.018253,-1.720241,-0.134072,-0.105148,0.0,0.0,-0.802277,-0.06586,0.965736,0.0,0.089735,0.573593,-1.098252,-0.688036,1.151338,-2.668888,-0.815483,1.363731
1.58,0.2296552020718603,0.9476655064137088,0.6387715673377458,0.7574069492722264,0.0208648034448499,-0.0251170566900255,0.6521261431920798,0.171494,0.682992,-0.091092,-0.277626,-0.082971,0.718665,-0.0429837498375608,0.0361413145162615,0.0189959005708083,-0.1044075702584977,-0.0154289934861531,0.538723947332884,0.2605019858033555,0.0126313897714727,0.0,0.0,0.1380928020012724,-0.0569456996786203,-0.0542834611401443,0.0141906628426561,-0.0182494406145087,0.0,0.0,-0.3650881454618724,0.0148799097655713,0.6203947118800884,0.0,0.1723251027682073,0.1357047715960756,-0.2664069630640889,-0.0071574430531921,0.0855637935545685,0.2295078613911911,0.0311132161812091,-0.022388337147607,-1.451579,0.299212,-0.076713,-1.049281,0.064911,-0.2464,0.583685,0.01671,0.0,0.0,1.027298,-0.088799,-2.136894,-0.139796,-0.135716,0.0,0.0,-1.197003,-0.235774,1.64564,0.0,0.13501,0.815289,-1.14675,-0.692152,0.627812,-2.936833,-1.103939,1.834328
1.6,0.23374584,0.9639985,0.6362151,0.75261692794281,0.0181600337090698,-0.0235882806221073,0.6577853494620455,0.225411,0.901999,-0.153619,-0.375356,-0.090886,0.763364,-0.07617765,0.042985544,0.01699011,-0.12828115,-0.0130136849999999,0.5332029,0.2738605699999999,0.012989456,0.0,0.0,0.16173318,-0.05982608,-0.10336333,0.011024212,-0.0213951109999999,0.0,0.0,-0.3949804546249887,0.008439601,0.6611120999999999,0.0,0.175586958,0.15509328,-0.29174635,-0.0221104339999999,0.09486115,0.16604081,0.005399008,0.0199798179999999,-1.729296,0.368872,-0.137938,-1.254933,0.17112,-0.280798,0.709933,0.01789,0.0,0.0,1.25204,-0.189807,-2.572183,-0.15146,-0.167187,0.0,0.0,-1.692696,-0.413828,2.34754,0.012322,0.182672,1.066037,-1.216069,-0.708409,0.112974,-3.177367,-1.394715,2.295683
1.62,0.2386716308235161,0.9837454641708284,0.6326268006369958,0.7474509758486878,0.014379107815267,-0.0212695661873316,0.6638206727087399,0.222264,0.896149,-0.14157,-0.409418,-0.094533,0.705624,-0.1121555964476929,0.0508962048800547,0.013478371506295,-0.1546048731798593,-0.0085842004438531,0.5274920467008105,0.288899297472331,0.013346999781408,0.0,0.0,0.1881744081192966,-0.0645379876961379,-0.1571707615703108,0.0081322562876034,-0.0249369194703249,0.0,0.0,-0.4327959983332037,-0.0016732297695644,0.7142963088005487,0.0004928993921335,0.179631988943096,0.178346237764826,-0.3150497182231027,-0.0354938012907634,0.0900827563622563,0.1024131976217572,-0.0246753645037163,0.0694389869572029,-1.508747,0.338721,-0.169159,-1.097324,0.195806,-0.230989,0.638011,0.016606,0.0,0.0,1.116848,-0.192578,-2.272782,-0.115035,-0.151476,0.0,0.0,-1.678358,-0.526576,2.489719,0.0,0.187335,1.040969,-0.876004,-0.513243,-0.560613,-2.460979,-1.308689,2.116889
1.64,0.2426364062729783,0.9998444486374358,0.6305522840046839,0.7433371534275836,0.0110849616015133,-0.019363240048039,0.6685447366446858,0.158564,0.652652,-0.039459,-0.311744,-0.086339,0.454546,-0.1365275140463677,0.0565343704536775,0.0102237642754481,-0.1721740914766539,-0.0051814348653178,0.523963343825006,0.2993810150629241,0.013653704958746,0.0,0.0,0.2064071034126603,-0.0675292022694019,-0.1942746152156136,0.0064228279429223,-0.027454154986616,0.0,0.0,-0.4621147595768122,-0.0126234589777189,0.7607008744589006,0.0,0.183080344257004,0.19673205560699,-0.3267865130319015,-0.0426401425468766,0.0724366328383523,0.0676016528725348,-0.0469485456150959,0.1046553946002933,-0.817984,0.195236,-0.131722,-0.565062,0.099407,-0.104706,0.35601,0.014454,0.0,0.0,0.613392,-0.049503,-1.270184,-0.054472,-0.088089,0.0,0.0,-1.171269,-0.537678,1.960128,-0.012322,0.145486,0.72062,-0.249998,-0.187208,-1.101199,-0.810285,-0.809769,1.207576
1.66,0.245014184303341,1.0098515318517405,0.6310484287333888,0.7414233612396548,0.0087663037630975,-0.0182844634716717,0.6707311158146598,0.118936,0.505769,0.040476,-0.236096,-0.096312,0.259929,-0.144874951403481,0.0587056406673257,0.0082094980790519,-0.1772073390406238,-0.0046079012551094,0.5233038250962991,0.3031397148562259,0.0139251533290256,0.0,0.0,0.2127100803098623,-0.0665181148425281,-0.207978136085821,0.0059533683412382,-0.0284604600542343,0.0,0.0,-0.4796467501250708,-0.0231803487203258,0.7927014146171654,0.0,0.1854514345504027,0.2071710199816464,-0.3250496215473122,-0.0429821339321286,0.0460347885497138,0.0700017783565331,-0.0570661204496049,0.1177420230209779,-0.350954,0.095069,-0.096322,-0.186838,-0.013764,-0.017802,0.155593,0.015322,0.0,0.0,0.260103,0.126934,-0.593497,-0.020343,-0.043289,0.0,0.0,-1.088996,-0.578339,1.626085,0.189449,0.12277,0.514145,0.173768,0.010521,-1.418277,0.32117,-0.465728,0.558324
1.68,0.2473938586757008,1.020075191907512,0.6321713067055065,0.7398576771595763,0.006387107308119,-0.017578716387491,0.6725033911724453,0.13138,0.574234,0.055643,-0.220325,-0.119369,0.219086,-0.1505656670638401,0.0603371480555229,0.0063708765846889,-0.179647630799998,-0.0057320038012797,0.5232512552117871,0.3056047396370731,0.0142665877079312,0.0,0.0,0.2168112146469838,-0.062451843255337,-0.2180144975180119,0.005609120040588,-0.029185727478861,0.0,0.0,-0.5056745863451226,-0.0357570247614859,0.8257442874888511,0.0075779773233147,0.1879911453856717,0.2172978527389774,-0.3198357778231208,-0.0422193080868872,0.0157055503238636,0.0804484358115443,-0.0655776763673545,0.1269883733115346,-0.268264,0.075786,-0.094423,-0.085678,-0.091013,0.006637,0.099766,0.0179,0.0,0.0,0.183234,0.24511,-0.48114,-0.017077,-0.033499,0.0,0.0,-1.596521,-0.733337,1.749002,0.803764,0.144585,0.549982,0.336618,0.026757,-1.572505,0.504493,-0.443585,0.485475
1.7,0.25026938,1.0328209,0.6332741599999999,0.73846330072327,0.0039776350038957,-0.0170594210167084,0.6740661006601978,0.151984,0.696861,0.062156,-0.169722,-0.169045,0.127665,-0.1556055099999999,0.0617370869999999,0.0044325689999999,-0.18063447,-0.008248406,0.5235693,0.30713037,0.0146411719999999,0.0,0.0,0.2200394399999999,-0.056713723,-0.2272237499999999,0.005270307,-0.0298004279999999,0.0,0.0,-0.5435075950707547,-0.0525138229999999,0.8626615000000002,0.03215054,0.191234852,0.22917028,-0.3115849,-0.0419118669999999,-0.0168654209999999,0.0901814849999999,-0.0748095359999999,0.1371610329999999,-0.10994,0.031825,-0.093759,0.09692,-0.172618,0.05119,-0.016325,0.017126,0.0,0.0,0.042002,0.306477,-0.251942,-0.005171,-0.015726,0.0,0.0,-1.990653,-0.997937,1.841101,1.72112,0.182665,0.60457,0.628441,0.033918,-1.717067,0.607439,-0.408507,0.42919
1.72,0.2534732153451059,1.0479496138281144,0.6346575599820532,0.7380939603073341,0.0016450556334072,-0.0177771919639501,0.6744616897909588,0.18079,0.87369,0.077619,-0.109476,-0.223593,0.026143,-0.1549632763604592,0.0616101574313166,0.0026205150978144,-0.1757708389824904,-0.012636713855263,0.5252988593363559,0.3049517234093154,0.0149516160084982,0.0,0.0,0.2184913013116971,-0.0501927443333281,-0.2280921768303664,0.0054022631070915,-0.0298147614577964,0.0,0.0,-0.5853007170588659,-0.0756745084898559,0.8993883236174591,0.0764227859855683,0.1952977362590594,0.2414806689217331,-0.2946981215091577,-0.0408625738949106,-0.0529771275470431,0.1047460041831193,-0.0819179600107069,0.14415597726418,0.169179,-0.044747,-0.093938,0.405931,-0.285884,0.127684,-0.211336,0.015077,0.0,0.0,-0.198861,0.38121,0.148107,0.017611,0.014408,0.0,0.0,-2.106351,-1.412897,1.979278,2.941013,0.239463,0.675994,1.116766,0.073639,-2.012563,0.885817,-0.328623,0.300962
1.74,0.2575009746984698,1.0677685055001964,0.6363789018683061,0.7380346696244546,-0.0006452338052447,-0.0188824657964987,0.6744982302357085,0.21017,1.048723,0.085704,-0.064597,-0.261345,-0.044864,-0.1488383443828544,0.059947187792462,0.0006750483500168,-0.1643972150009752,-0.0196837637192606,0.5286766469046096,0.2986769118675965,0.0152442583399677,0.0,0.0,0.212084985959698,-0.041465308887582,-0.2212994782749437,0.0059747620240965,-0.0292241217988378,0.0,0.0,-0.6277616216010257,-0.1090297164156739,0.941832636287235,0.1497910794362293,0.2008133776879375,0.2562100462886113,-0.2669142601923335,-0.0389663263842946,-0.0973679245798614,0.1256141485886982,-0.0879544456809412,0.1491995168180657,0.402807,-0.111011,-0.09662,0.672423,-0.380779,0.194142,-0.382935,0.012714,0.0,0.0,-0.403076,0.429408,0.48334,0.037349,0.039899,0.0,0.0,-2.051441,-1.798898,2.121462,4.042704,0.294098,0.755251,1.548925,0.097504,-2.262554,1.062111,-0.275426,0.226296
1.76,0.2618800272457326,1.0898985494827975,0.6380857347797694,0.7385986441679822,-0.0028509172339832,-0.0207628057952648,0.6738195759991331,0.177098,0.92374,0.065042,0.01716,-0.223117,-0.133162,-0.1388510098334848,0.0571697200590681,-0.0012442974812545,-0.1488739136359173,-0.0278678556826881,0.5330645328745274,0.2896343134389946,0.0154601720340619,0.0,0.0,0.2023682454001965,-0.0330164080535084,-0.2087585870161457,0.006896206578464,-0.0282187918649732,0.0,0.0,-0.6673583475871989,-0.1476304106769954,0.9842468204599598,0.2381309330883614,0.2070616462054953,0.2716906929520363,-0.2327411121605488,-0.0369623976538828,-0.1434792926619393,0.147230448494238,-0.0929350131903168,0.1532078137518215,0.555016,-0.15298,-0.072797,0.752351,-0.318992,0.206326,-0.450744,0.002633,0.0,0.0,-0.509361,0.202243,0.75597,0.054835,0.053641,0.0,0.0,-1.772542,-1.626595,1.492657,3.597351,0.262192,0.597675,1.557094,0.066287,-1.775121,0.765186,-0.152787,0.13697
1.78,0.2645848820421613,1.104718095536239,0.6389805669070601,0.7397386929060249,-0.0034538669922047,-0.0224020383120718,0.6725123684364107,0.102197,0.597284,0.029999,0.094948,-0.128033,-0.194586,-0.1266376878693817,0.0538279849549791,-0.0022368323251727,-0.1343031644208917,-0.0324434594952458,0.5369296850290584,0.2806471493927801,0.0153495788877687,0.0,0.0,0.1917105514707927,-0.0333756023598533,-0.1910606704665115,0.0081681689017056,-0.0270784639319964,0.0,0.0,-0.6986633186746538,-0.1740935019842397,1.0015389040057654,0.2936851248457487,0.2113010730122209,0.2801170555388796,-0.2046305021364454,-0.036314827305688,-0.1683727554416553,0.1562215744439352,-0.0940659333289179,0.1546783179654174,0.655904,-0.175445,-0.032447,0.704542,-0.152723,0.181612,-0.442024,-0.011834,0.0,0.0,-0.549438,-0.193345,0.993881,0.070074,0.058989,0.0,0.0,-1.313101,-1.072215,0.357859,2.138625,0.172819,0.281376,1.285716,0.00208,-0.834863,0.197034,0.012385,0.026354
1.8,0.2659679,1.1137899,0.6392857000000001,0.741164715570706,-0.0032554310683914,-0.0239206465025351,0.6708890140943241,0.075132,0.493159,0.018417,0.142524,-0.078287,-0.25985,-0.11261483,0.050151926,-0.002542196,-0.12069222,-0.0339767749999999,0.540329,0.27195337,0.01498683,0.0,0.0,0.18039073,-0.040750224,-0.16900334,0.009699159,-0.025859227,0.0,0.0,-0.7198823845999771,-0.19051902,0.9985612,0.3236759383939955,0.213974415,0.282945733,-0.18131246,-0.036879204,-0.17687383,0.15511182,-0.092439617,0.154261977,0.764733,-0.192693,-0.018193,0.729762,-0.080655,0.182395,-0.457317,-0.01877,0.0,0.0,-0.61191,-0.358382,1.210224,0.083564,0.065796,0.0,0.0,-0.760431,-0.865905,-0.181728,1.757263,0.144139,0.150114,1.263175,-0.034415,-0.476208,-0.051922,0.074638,-0.026865
1.82,0.2675901507261237,1.1244444498356034,0.6397172449753921,0.7431951497179304,-0.00251592576982,-0.0254578832376695,0.6685854737685534,0.084571,0.568756,0.023594,0.176436,-0.047301,-0.351247,-0.0960483858653925,0.0461202574762774,-0.002964566766559,-0.1051126740291898,-0.0356696450797343,0.5442254718481149,0.2623544672443717,0.0145987821841764,0.0,0.0,0.1672341610083282,-0.0477108866042726,-0.1426517091399217,0.011510737105847,-0.0244466323289776,0.0,0.0,-0.7290805659669279,-0.2087296830625165,0.9942698027314104,0.3639756503681897,0.21706661738551,0.2861215971367567,-0.1541035104144081,-0.0376914347320903,-0.18742108601286,0.1541446766617446,-0.0910804305395206,0.1536037316766983,0.946458,-0.214727,-0.022733,0.850333,-0.070786,0.214169,-0.500795,-0.021144,0.0,0.0,-0.738763,-0.289706,1.51753,0.115902,0.080429,0.0,0.0,0.147823,-0.894063,-0.407372,2.291687,0.15184,0.131841,1.484773,-0.048857,-0.514146,-0.088532,0.059495,-0.051233
1.84,0.2693507513955122,1.1365401377742943,0.6402294465545832,0.7458436211212711,-0.0014442406337294,-0.0269652123669701,0.6655735003166112,0.086568,0.630306,0.025118,0.213541,-0.008483,-0.490891,-0.0747564903165059,0.0415628265293334,-0.0034515148514485,-0.0866789140198721,-0.0368082111801676,0.5488957670251119,0.2519215546591726,0.0141410826106382,0.0,0.0,0.1508402197875381,-0.0523384753515452,-0.1083021416205713,0.0143352552605301,-0.0226420746159646,0.0,0.0,-0.7139694495080834,-0.2262815509408617,0.9822663161508768,0.4153434035201126,0.22004803232588,0.2882193764390288,-0.1219215226185814,-0.0388334803338798,-0.1974396856168888,0.1515705200736349,-0.0900598118194205,0.152212646067566,1.258132,-0.248947,-0.023232,1.026616,-0.01847,0.262024,-0.548872,-0.026761,0.0,0.0,-0.948926,-0.13941,2.048363,0.184673,0.106759,0.0,0.0,1.676868,-0.791356,-1.01459,2.823984,0.133534,0.031474,1.772424,-0.072533,-0.387306,-0.242148,0.049842,-0.110119
1.86,0.2710528572143194,1.1496567015165646,0.6407219845126302,0.7497236461444456,0.0002917888055596,-0.0284125211854124,0.6611407549917488,0.0901,0.723294,0.026548,0.260914,0.043752,-0.689915,-0.0457230922795153,0.0361623637115763,-0.0038938340593236,-0.0640480269085558,-0.0364084456448276,0.5547064334551995,0.2403995835837552,0.0135283473351054,0.0,0.0,0.129277135069644,-0.053287294948452,-0.060717181889358,0.0188976422899776,-0.0201762842362582,0.0,0.0,-0.6620058410030545,-0.2403839146590456,0.9536862038009986,0.4769350266304583,0.2224079711886924,0.2873805649491435,-0.0832065629788789,-0.040592762944894,-0.2029133106224475,0.1444587506274018,-0.0890867606855739,0.1491989643525209,1.714188,-0.299883,-0.023968,1.290114,0.054445,0.333851,-0.626431,-0.035147,0.0,0.0,-1.256865,0.101174,2.822159,0.280023,0.146318,0.0,0.0,3.677189,-0.66532,-1.884815,3.539976,0.112261,-0.106008,2.199768,-0.105957,-0.205455,-0.464282,0.039852,-0.202803
1.88,0.2729547688427871,1.1654719177170128,0.6412913832422606,0.7549775652450558,0.0026544944223082,-0.0297627617742271,0.6550694678029042,0.0923,0.781912,0.027705,0.294867,0.083307,-0.848807,-0.0061889871463034,0.0295675190999184,-0.0044102483401592,-0.0350743553866776,-0.0346304155346291,0.5622498238905488,0.2268643266440228,0.0127352087943313,0.0,0.0,0.1005656061226582,-0.0482915100467946,0.0045842171674107,0.0255361642042004,-0.0167893703753938,0.0,0.0,-0.5668818755576167,-0.2528943636534895,0.906873720277246,0.556942429418633,0.2245384793715627,0.283979047126659,-0.0339307952108982,-0.0430717525318258,-0.2056578728646404,0.1329992358303481,-0.0884657510744577,0.1441005071568908,2.020033,-0.328541,-0.024756,1.453067,0.111889,0.381494,-0.652412,-0.039794,0.0,0.0,-1.461833,0.34821,3.334914,0.363156,0.173582,0.0,0.0,5.233173,-0.512316,-2.519991,3.99966,0.078082,-0.220704,2.460411,-0.117952,-0.062346,-0.606174,0.015333,-0.257887
1.9,0.27474487,1.1809332,0.64183017,0.7608706772307954,0.0053303138404893,-0.0310625570704468,0.6481377306043509,0.074257,0.652933,0.021748,0.240588,0.110806,-0.830094,0.0350782280000004,0.0230207299999999,-0.00488407,-0.0059253479999997,-0.0319328799999999,0.5699662000000001,0.2143031199999999,0.0119366029999999,0.0,0.0,0.0708038059999997,-0.0393588949999998,0.0726793600000006,0.033423893,-0.0132330159999999,0.0,0.0,-0.4526789039580344,-0.26087657,0.8528865599999993,0.636921414425121,0.2255312399999999,0.2785524129999999,0.0152098620000004,-0.045310833,-0.2054071599999999,0.1202117799999998,-0.088473444,0.1388834799999999,1.812303,-0.28608,-0.017384,1.253568,0.146205,0.336643,-0.505328,-0.034676,0.0,0.0,-1.309744,0.446096,2.976355,0.397034,0.15642,0.0,0.0,5.273178,-0.177488,-2.529105,3.236969,-0.010385,-0.310579,2.087479,-0.075965,0.118553,-0.58621,-0.019381,-0.197255
1.92,0.2759250659588069,1.1915892506511188,0.6421613058558698,0.7657922790421823,0.0072363548779226,-0.0312842158486434,0.6422858540916161,0.052022,0.478814,0.014231,0.169407,0.132409,-0.771301,0.0663031456896361,0.0181243349176961,-0.0051056131608783,0.0150683458415445,-0.0287822277955191,0.5757155461365814,0.2066512144965717,0.0113481524045185,0.0,0.0,0.048175837486553,-0.0304476692271604,0.1236384232269623,0.0414175183504395,-0.0105325526084822,0.0,0.0,-0.3559547412422479,-0.2599938821475783,0.805709529603319,0.6864211928989395,0.2241230709341977,0.2715558734849095,0.0495683462164194,-0.0461103571690784,-0.2009157544250368,0.1095508281962332,-0.0892409742011757,0.136210298772825,1.458422,-0.2307,-0.006772,0.962705,0.169373,0.267059,-0.322875,-0.027314,0.0,0.0,-1.062094,0.432123,2.369947,0.415758,0.125924,0.0,0.0,4.175404,0.179527,-2.327986,1.528344,-0.108962,-0.384749,1.551931,-0.017495,0.293177,-0.515506,-0.051222,-0.08835
1.94,0.2768257449161269,1.2000857470461594,0.6423993938784915,0.7708353917659403,0.009143214422963,-0.0313223238267178,0.6361981707464737,0.047757,0.447827,0.011151,0.152872,0.154527,-0.809851,0.0934151153954555,0.0137927286055315,-0.0051549333390871,0.0325828353122352,-0.0251579762268257,0.5806485761458196,0.2013881046021045,0.0108440348266959,0.0,0.0,0.0283200514120289,-0.0220739731671427,0.1674772548687264,0.0500541973735013,-0.0081960636203603,0.0,0.0,-0.2856627586297112,-0.2536954735812136,0.7597671073493029,0.6980551615669945,0.221172752314562,0.2631624727552489,0.0772870951862078,-0.0460106373431774,-0.1936800662013058,0.0995915274304215,-0.0905223257549628,0.1353494942657707,1.437153,-0.236865,-0.004193,0.924215,0.19493,0.260266,-0.263891,-0.026835,0.0,0.0,-1.060403,0.375742,2.311124,0.494853,0.121962,0.0,0.0,3.132309,0.404529,-2.4666,-0.231052,-0.190605,-0.490863,1.452997,0.015757,0.422037,-0.525745,-0.068892,-0.017548
1.96,0.2778353388992718,1.2095023477597897,0.6426073526771439,0.7761623456545992,0.011051962162796,-0.0309950147420834,0.6296738650932249,0.057309,0.520311,0.006335,0.132272,0.210428,-0.930943,0.1237892553359031,0.0086497375961344,-0.0052733221320594,0.0520369650144702,-0.0209850400334899,0.5861261851106283,0.1960955930713465,0.0102747555221403,0.0,0.0,0.0057597004820076,-0.015418002931357,0.2160833935709075,0.0612116389397775,-0.0056540885140356,0.0,0.0,-0.2306623817185163,-0.2438127139622466,0.7070455227181078,0.6771790948496894,0.2164988750922695,0.2519213506333916,0.1076882414754719,-0.0454800937547635,-0.1840342681943429,0.0885210252803455,-0.0919966734744316,0.1355083615737671,1.673334,-0.297877,-0.017449,1.062044,0.221744,0.298455,-0.259844,-0.031527,0.0,0.0,-1.257334,0.20032,2.635338,0.705719,0.135054,0.0,0.0,3.12164,0.677788,-2.916858,-1.500346,-0.343531,-0.732409,1.649513,0.045117,0.607461,-0.595491,-0.071104,0.04385
1.98,0.2791181024447219,1.2208981982788445,0.6426528080472541,0.7826454758528955,0.013269217490568,-0.0299267411902573,0.6216062878992734,0.077599,0.666296,-0.005644,0.117959,0.272205,-1.074012,0.1603484629267076,0.0018776339956605,-0.0058528785793341,0.0750645900860733,-0.0162881975362058,0.5925867584533653,0.190994331187898,0.0095829525594285,0.0,0.0,-0.0219733247882739,-0.0140611804582271,0.2728907593194528,0.0782829628844098,-0.0027938900743291,0.0,0.0,-0.1607971589020394,-0.2265839627269831,0.643092798181777,0.6380413403302868,0.2074314939817188,0.2338661277379279,0.1432676012648415,-0.044205947202496,-0.1693816304815062,0.0757718874900983,-0.0933664976984168,0.1371035013459891,2.113945,-0.410678,-0.054576,1.318277,0.248676,0.368114,-0.253279,-0.040247,0.0,0.0,-1.620703,-0.162195,3.218968,1.114755,0.157773,0.0,0.0,4.257942,1.157913,-3.670158,-2.571888,-0.646269,-1.205845,2.033541,0.088289,0.94175,-0.708267,-0.056564,0.121153
2.0,0.2809393,1.2361542,0.6423816,0.7896374142558686,0.01563946228235,-0.0284853905142663,0.6127126110617233,0.106546,0.869928,-0.023564,0.086868,0.350045,-1.211511,0.2083470499999999,-0.007777377,-0.007456367,0.10476804,-0.0110379969999999,0.6008507599999999,0.18596442,0.008664878,0.0,0.0,-0.059068438,-0.021905819,0.3448421,0.105801836,0.000656833,0.0,0.0,-0.0603446897962026,-0.19749619,0.5602392,0.5743035716018987,0.1906481349999999,0.2036875469999999,0.1890299,-0.04194855,-0.14636426,0.0601903459999999,-0.0942592139999999,0.140354473,2.700418,-0.556232,-0.114129,1.658839,0.263828,0.459603,-0.249903,-0.051703,0.0,0.0,-2.097211,-0.645078,3.982956,1.658676,0.187231,0.0,0.0,5.61254,1.747533,-4.5888,-3.984483,-1.051793,-1.839011,2.564732,0.131452,1.361699,-0.844465,-0.020797,0.178767
2.02,0.2833799540330928,1.2556953174830885,0.6417102522045521,0.7976439043768053,0.0182400468737085,-0.0258413008447704,0.6022987046899743,0.113668,0.887537,-0.038303,0.043386,0.368411,-1.16205,0.2683651635906378,-0.0203716565333588,-0.0104180519371269,0.141418169844051,-0.0057350967821874,0.6109708771066926,0.1809982158273038,0.0075148320529273,0.0,0.0,-0.1058617675578137,-0.0398642892181306,0.432209019014693,0.1446300106189252,0.0046953611430139,0.0,0.0,0.0637044219258116,-0.1566826382201797,0.4595407810734475,0.4786620262000171,0.1653597655006471,0.160305702988293,0.2458568765007066,-0.0389478608860907,-0.1149136506799804,0.0419933044389923,-0.0941983857253582,0.1442541881674905,2.681467,-0.555495,-0.157629,1.619099,0.197875,0.448553,-0.199714,-0.050304,0.0,0.0,-2.083931,-0.870402,3.832265,1.81851,0.176759,0.0,0.0,5.405334,1.854647,-4.369459,-4.49099,-1.218421,-2.036377,2.53559,0.12436,1.427608,-0.790497,0.043968,0.084337
2.04,0.2854860212121635,1.2716556793124796,0.6408494816279046,0.8038382353637871,0.0201695300006429,-0.0235556225481955,0.5940390678003872,0.086552,0.625001,-0.042836,-0.007796,0.252253,-0.744059,0.3156057410145351,-0.0299971726352676,-0.0137615154059718,0.1695320036463871,-0.0031230116495735,0.6187928862674149,0.1779758581149755,0.0066527358019016,0.0,0.0,-0.142425694803586,-0.0567219079476252,0.4981327079873123,0.1785422525775317,0.0077271997033367,0.0,0.0,0.1558686781261864,-0.1233102939250185,0.3854608295458618,0.3946639714604101,0.1419113031912894,0.1222324758566925,0.2904534846761094,-0.0369741528892305,-0.0892599584531701,0.0285704744054967,-0.0925005006100518,0.1437279474186242,1.78249,-0.339631,-0.161421,1.030776,0.040817,0.291411,-0.089466,-0.030355,0.0,0.0,-1.35979,-0.651491,2.385225,1.383039,0.111177,0.0,0.0,3.250402,1.259508,-2.581744,-3.349153,-0.999871,-1.547367,1.6851,0.056222,0.956747,-0.479464,0.131059,-0.200355
2.06,0.2868420433951545,1.2806953528456744,0.6399968289537054,0.8066423294667955,0.0207620574519115,-0.0219944918122993,0.5902654755384766,0.06829,0.440557,-0.04115,-0.053795,0.166063,-0.443839,0.339664770426141,-0.0339568982923108,-0.0168748949133009,0.1826492100427691,-0.0041024324775582,0.6226273327017586,0.1774195842969859,0.0063006331202664,0.0,0.0,-0.1602533707008269,-0.0659239350479328,0.5276180275634997,0.1999515748524838,0.0091424589527132,0.0,0.0,0.1937205062058297,-0.106302337397652,0.3562710066639181,0.3446959249106703,0.12536492436736,0.0984110286867338,0.3132608581246696,-0.0366989745876906,-0.0766437778562395,0.0228147567137313,-0.0889560121020052,0.1362400040755841,1.133581,-0.164187,-0.160762,0.600835,-0.072487,0.180276,-0.020448,-0.015268,0.0,0.0,-0.823123,-0.395102,1.344384,1.049453,0.066318,0.0,0.0,1.649999,0.77764,-1.255935,-2.356654,-0.829327,-1.151205,1.089679,0.009286,0.519612,-0.25608,0.209111,-0.478308
2.08,0.2882176073211674,1.2892779451747802,0.6392034877851527,0.8091749532836966,0.0210668968857098,-0.020425826177864,0.5868346159344097,0.07475,0.464416,-0.040491,-0.071677,0.152834,-0.411537,0.3609489787296741,-0.0365646406704979,-0.0201919813710001,0.1935654107985648,-0.0060225040822807,0.626003911321523,0.1771579560005714,0.0060420192660794,0.0,0.0,-0.1753506031580833,-0.0725259928884158,0.5519080707819333,0.2205203730554137,0.0103799384128966,0.0,0.0,0.2218686579398257,-0.0922046965805777,0.3352234464744392,0.3003978019231396,0.108738241854696,0.0761842737364411,0.3340406247569835,-0.0366027196908629,-0.0684754652106557,0.0183272903078973,-0.0841360647130902,0.1245956315248197,1.144922,-0.130104,-0.174681,0.585167,-0.100355,0.182958,-0.020552,-0.013769,0.0,0.0,-0.80573,-0.312009,1.31373,1.09547,0.067788,0.0,0.0,1.497508,0.735468,-1.120629,-2.295084,-0.88605,-1.16851,1.118374,0.010194,0.368623,-0.227972,0.26768,-0.659991
2.1,0.28983203,1.2992719999999998,0.6383772,0.8115658046885446,0.0212277341226359,-0.0188532601089182,0.5835708033713812,0.083933,0.507885,-0.047357,-0.099983,0.148494,-0.395234,0.3854616599999999,-0.039161064,-0.02386212,0.2060559099999999,-0.008116635,0.62994564,0.17659752,0.005749886,0.0,0.0,-0.1924825899999999,-0.0784042799999999,0.5801672299999999,0.24377038,0.011853979,0.0,0.0,0.2536208299999999,-0.076883614,0.3114458299999999,0.25289258,0.08992294,0.051670647,0.3579958,-0.036291223,-0.0618988719999999,0.013695859,-0.078248806,0.109840353,1.211651,-0.107125,-0.19182,0.602438,-0.124102,0.194814,-0.024642,-0.013663,0.0,0.0,-0.83077,-0.25578,1.363975,1.17975,0.072583,0.0,0.0,1.461189,0.734188,-1.072998,-2.321219,-0.969078,-1.22816,1.185663,0.016919,0.219786,-0.189939,0.33057,-0.839121
2.12,0.2915749180366296,1.3095933451752182,0.6373092213888016,0.8138863201039243,0.0210281443879785,-0.0170164277437932,0.5803941042758197,0.096915,0.554153,-0.067583,-0.142544,0.158889,-0.386889,0.4094150104138001,-0.0408496485160052,-0.027864776711632,0.2176629335735238,-0.0109865972698978,0.6337964721395125,0.1761722695374744,0.0054955140874323,0.0,0.0,-0.2085813854718616,-0.0827572089560855,0.6064670814496806,0.2677103686780075,0.0132832514587976,0.0,0.0,0.2803162042688882,-0.062837161009637,0.2923035447505377,0.2075490262168547,0.0699751193996334,0.0270578860021873,0.3814671418996832,-0.0359259784461476,-0.0596840067615842,0.010729743621478,-0.0709132764751317,0.0910307763916286,1.213668,-0.046832,-0.215228,0.564406,-0.173189,0.197292,-0.02143,-0.012473,0.0,0.0,-0.782837,-0.162058,1.294842,1.247338,0.071424,0.0,0.0,1.193329,0.672495,-0.813512,-2.197013,-1.065688,-1.259839,1.29001,0.045509,-0.174225,-0.112619,0.444141,-1.121309
2.14,0.293708615272824,1.3214381257840564,0.6356738823137724,0.8161702310278093,0.020620121492899,-0.0147749634011435,0.577254419671366,0.129858,0.691399,-0.089561,-0.203108,0.190096,-0.378405,0.4340083612163527,-0.0410343594229189,-0.0324712216421604,0.2286321481755568,-0.0150442116578569,0.6378373157132531,0.1757403036204949,0.0052509538091195,0.0,0.0,-0.2237960837374271,-0.084886608933804,0.6319609063049427,0.2936638850638793,0.0147109481525781,0.0,0.0,0.3013539765803891,-0.0499838093208786,0.2789053676645402,0.1650120610593118,0.0472954231752689,0.001277076109838,0.40959620531247,-0.0344708543286637,-0.0688678899446216,0.0091911012291266,-0.0604831677474545,0.0649879984837571,1.306113,0.055658,-0.257043,0.546404,-0.250455,0.221357,-0.029516,-0.014311,0.0,0.0,-0.745636,-0.03016,1.318708,1.40721,0.072421,0.0,0.0,0.896114,0.620865,-0.482224,-2.016427,-1.276532,-1.37078,1.748201,0.161071,-1.143647,0.009571,0.681664,-1.614197
